<?xml version="1.0" encoding="UTF-8"?>
<map version="1.10" tiledversion="1.12.2" orientation="orthogonal" renderorder="right-down" width="65" height="45" tilewidth="16" tileheight="16" infinite="0" nextlayerid="8" nextobjectid="50083">
 <tileset firstgid="1" source="../../../../../../common/maps/tileset/main.tsx" />
 <tileset firstgid="10113" source="../../../../../../common/maps/tileset/buildings.tsx" />
 <tileset firstgid="11905" source="../../../../../../common/maps/tileset/main-nocollide.tsx" />
 <tileset firstgid="22017" source="../../../../../../common/maps/tileset/dungeon/dungeon_bis.tsx" />
 <tileset firstgid="38401" source="../../../../../../common/maps/tileset/buildings-nocollide.tsx" />
 <tileset firstgid="40193" source="../../../../../../common/maps/tileset/FarmFood.tsx" />
 <layer id="1" name="Ground" width="65" height="45">
  <data encoding="csv">
175,175,175,175,175,175,175,1430,12063,12063,175,175,1430,1904,5248,5248,5248,5248,5248,5248,5248,5248,5245,4612,4454,159,159,159,159,159,159,159,159,159,159,159,159,159,159,159,159,159,159,159,159,159,159,159,159,159,159,159,159,13350,13350,1610626067,2,2,2,2,13717,13717,13717,13717,13717,
175,175,13311,13311,175,191,1588,1610614163,2,2,1494,1494,1904,5249,159,3221231209,159,5421,159,5420,159,5422,5744,5245,4612,4454,159,159,159,159,159,159,159,159,159,159,159,159,159,159,159,159,159,159,159,159,159,159,159,159,159,159,13808,13350,1610626067,2,2,2,2,2,2,2,13717,13717,13717,
175,175,159,13492,1588,13396,2,1119,2,2,2,5090,5090,5575,5422,5421,5574,5580,5422,5419,5733,5734,5422,5247,5245,4612,4454,159,159,159,159,159,159,159,159,159,159,159,159,159,159,159,159,159,159,159,159,159,159,159,159,159,13350,1610626067,2,1952,1952,2,2,2,2,2,2,2,13717,
12063,12063,1610626067,2,2,2,2,1277,2,2,2,5090,5090,5420,5736,5579,5417,5418,5580,5577,5417,5738,5737,5422,5247,5245,4612,4454,159,159,159,159,159,159,159,159,159,159,159,159,159,159,159,159,159,159,159,159,159,159,159,159,1610626228,2,2,1952,2,2,2,2,2,2,2,2,13717,
12063,1610626067,2,2,2,2,2,2,1436,2684355987,3221227060,191,1494,4933,5578,5578,5421,5574,5421,3221231048,5573,5575,3221231048,5577,5422,5089,5245,4612,159,159,159,159,159,159,159,159,159,159,159,159,159,159,159,159,159,159,159,159,159,159,159,159,1610626228,2,2,2,2,2,2,2,2,2,2,2,13717,
11970,2,2,2,2,2,2,2,3221238804,175,175,4453,5245,5246,4933,5578,5418,5419,5579,5734,5579,5580,3221231048,5736,5580,5089,4615,159,159,159,159,159,159,159,159,159,159,159,159,159,159,159,159,159,159,159,159,159,159,159,159,13808,12127,3221238803,2,2,1952,2,1952,2,11906,11906,11906,13717,13717,
11906,2,2,2,2,2,2,2684367891,13350,159,159,4611,4612,5245,5246,4933,5578,5416,5737,5417,5418,5579,5738,5580,4931,5245,5246,4454,159,159,159,159,159,159,159,159,159,159,159,159,159,159,159,159,159,159,159,159,159,159,159,12127,12127,12127,3221238803,2,2,2,1952,11906,13717,13717,13717,13717,13717,
2,2,2,2,2,2,2684367891,13350,13366,159,159,159,4611,4767,4771,5246,4933,5578,5732,5733,5734,5735,5580,4931,5245,5246,4611,4612,159,159,159,159,159,159,159,159,159,159,159,159,159,159,159,159,159,159,159,159,159,159,12127,12127,12127,12127,1610626228,2,2,2,11906,13717,1813,1813,1813,1813,1813,
2,2,2,2,2,2684367891,13350,13366,159,159,159,159,159,4611,4767,4771,5246,4933,5736,5737,5738,5736,4931,5245,5246,4611,4612,159,159,159,159,159,159,159,159,159,159,159,159,159,159,159,159,159,159,159,159,159,12127,12127,12127,12127,12127,12127,1610626228,2,2,2,13717,1813,1813,1813,1765,1765,1765,
2,2,2,2,2684367891,13350,13366,159,159,159,159,159,159,159,4611,4767,4771,5246,4932,4932,4932,4932,5245,5246,4611,4612,159,159,159,159,159,159,159,159,159,159,159,159,159,159,159,159,159,159,159,159,159,12127,12127,12127,12127,12127,12127,12127,12127,3221238803,2,2,13717,1813,1813,1765,1765,1765,1765,
2,2,2,2,2684368052,13366,159,159,159,159,159,159,159,159,159,4611,4612,4453,5245,4769,2147488891,5246,1610617347,4611,4612,159,159,159,159,159,159,159,159,159,159,159,159,159,159,159,159,159,159,159,159,159,12127,12127,12127,12127,12127,12127,12127,12127,12127,12127,3221238803,2,13717,1813,1765,1765,1765,1765,1765,
2,2,2,2,2684368052,13366,159,159,159,159,159,159,159,159,159,159,159,4611,4612,4611,4612,4611,4612,159,159,159,159,159,159,159,159,159,159,159,159,159,159,159,13334,13334,13808,13808,13808,13808,13350,12127,12127,12127,12127,12127,12127,12127,12127,12127,3345,3345,1610626228,2,2,13717,1765,1765,1765,1765,1765,
2,2,2,2,2684368052,13366,159,159,159,159,159,159,159,159,159,159,159,159,159,159,159,159,159,159,159,159,159,159,159,159,159,159,159,159,159,159,13334,13334,13808,13350,13350,13492,13492,13492,13492,13492,13492,13492,13492,12127,12127,12127,3345,3345,3345,3345,12127,3221238803,2,2,13717,4186,1765,1765,1765,
2,2,2,2,2684368052,13808,159,159,159,159,159,159,159,159,159,159,159,159,159,159,159,159,159,159,159,159,159,159,159,159,159,159,159,159,159,13334,13350,13350,13350,13492,1610626067,2,2,2,11906,11906,11906,11906,11906,13331,12127,12127,12127,12127,12127,12127,12127,12127,3221238803,2,2,16098,4186,4186,1765,
2,2,2,2,2684368052,13350,159,159,159,159,159,159,159,159,159,159,159,159,159,159,159,159,159,159,159,159,159,159,159,159,159,159,159,13334,13334,13350,13350,13492,1610626067,2,2,2,2,2,2,2,2,2,2,2,13331,13492,13492,3345,3345,3345,12127,15778,12127,3221238964,1610628354,3561,3561,4186,4186,
2,2,2,2,2684368052,13350,13350,159,159,159,159,159,159,159,159,159,159,159,159,159,159,159,159,159,159,159,159,159,159,159,159,13334,13334,13350,13350,13492,1610626067,2,2,2,2,2,2,1952,2,1657,1657,1657,11906,2,2,2,2,13331,13492,3345,1610628514,16098,2684370338,12127,12127,13696,3561,3561,3561,
1952,2,2,2,13331,13334,13350,13334,159,159,159,159,159,159,159,159,159,159,159,159,159,159,159,159,159,159,159,159,159,159,13334,13350,13350,13492,1610626067,2,2,2,2,1952,2,2,11906,1813,1813,1952,1813,1813,1952,1813,1813,1813,1657,2,2,13331,1610628514,16098,16098,2684370338,12127,13857,3561,3561,3561,
2,2,2,2,2,13331,13350,13350,13334,159,159,159,159,159,159,159,159,159,159,159,159,159,159,159,159,159,159,159,13334,13334,13350,13350,1610626067,2,2,2,2,2,2,2,11906,1813,1813,1952,1952,1952,1813,1813,1813,1813,1813,1813,13717,13717,2,14350,16387,3221239486,13692,14007,13692,14014,13696,3561,3561,
2,1952,1952,2,2,2,13331,13350,13350,13334,159,159,159,159,159,159,159,159,159,159,159,159,159,159,159,159,159,13334,13808,13350,13350,1610626067,2,2,1952,1952,2,2,2,11906,1813,1813,1813,1813,1813,1813,1813,1813,1813,14302,14302,14302,14302,13717,13717,16098,13853,13857,3561,13857,3561,3561,13855,13698,14014,
2,2,1952,2,2,2,2,13331,13350,13350,13334,159,159,159,159,159,159,159,159,159,159,159,159,159,159,159,13334,13350,13350,13492,1610626067,2,2,2,2,2,2,2,1813,1813,1813,1813,1813,1813,1813,1813,1813,14302,14302,14302,18,18,18,14302,16098,16098,16098,13857,3561,13857,3561,13695,13692,14009,3561,
2,2,2,2,2,2,2,2,13331,13350,13350,13334,159,159,159,159,159,159,159,159,159,159,159,159,159,13334,13808,13350,1610626067,2,2,2,2,2,2,2,11906,1813,1813,1813,1952,1813,1813,1813,1813,14302,14302,14302,18,2524,18,18,18,15309,15309,16098,13695,13857,3561,3561,3561,13853,13850,13857,3561,
2,2,2,2,2,2,1952,2,2,13331,13350,13350,13808,159,159,159,159,159,159,159,159,159,159,159,13334,13350,13350,1610626067,2,2,2,2,2,2,2,2,1813,1813,1813,1952,1813,1813,1813,1813,1813,14302,14302,18,18,18,18,2524,2524,15309,15309,13695,14007,13854,1797,1797,1797,1797,13853,13857,1797,
2,2,1952,2,2,2,1952,2,2,2,13331,13492,13350,13350,13808,13334,159,159,159,159,159,159,13334,13808,13350,13350,1610626067,2,2,2,2,2,1952,2,2,11906,1813,1813,1952,1952,1813,1813,14302,14302,2,2,2,18,18,18,18,2524,2524,15309,1797,13855,13854,1797,1797,13857,1797,1797,1797,13857,15309,
11906,2,1952,1952,2,2,2,2,2,2,2,2,13331,13492,13350,13350,13808,13808,13808,13808,13808,13350,13350,13492,13492,1610626067,2,2,2,2,1952,1952,2,2,11906,1813,1813,1813,1952,1813,1813,1813,14302,14302,2,2,14302,18,2524,18,18,2524,15309,15309,15309,13855,1797,15309,1797,13855,1797,1797,13695,13857,1797,
13717,2,2,1952,2,2,2,2,2,2,2,2,2,11906,13331,13492,13492,13492,13492,13492,13492,13492,1610626067,11906,2,2,2,2,2,2,2,2,2,2,1813,1952,1813,1813,1813,1813,1813,2,14302,1952,1952,14302,18,18,18,18,2524,2524,15309,15309,1797,13857,1797,15309,1797,13857,1797,1797,13855,13854,1797,
13717,11906,2,2,2,2,2,2,2,2,1952,2,2,2,2,2,11906,11906,11906,11906,11906,11906,11906,11906,2,2,1952,2,2,2,2,2,2,11906,1813,1813,1813,1813,1813,1813,1813,14302,14302,1952,1952,14302,18,2524,2524,18,2524,2524,15309,15309,1797,13853,13696,1797,1797,13853,13696,13695,13857,1797,1797,
13717,13717,2,2,1952,1952,1952,2,2,2,2,1952,2,2,2,2,2,2,2,2,2,2,2,2,2,1952,1952,2,2,2,11906,1952,1952,1813,1813,1813,1813,1813,1813,1813,2,1952,1952,1952,14302,18,18,2524,2524,18,917,18,18,2524,1797,1797,13855,1797,15309,1797,13853,1952,13854,1797,2684368413,
13717,13717,11906,2,2,2,1952,1952,2,2,2,2,2,2,2,2,1952,1952,2,2,2,2,2,2,1952,2,2,2,11906,1813,1813,1813,1813,13717,13856,13382,1813,1813,2,14302,2,1952,1952,1952,14302,18,18,18,279,18,286,18,18,2524,2524,1797,13855,13696,1797,15309,1797,13857,2684368413,14014,13854,
13717,13717,13717,13717,11906,2,2,2,2,2,2,2,2,2,2,2,2,2,2,1952,1952,2,2,2,2,2,2,11906,1813,1813,1952,1813,1813,13856,13856,13856,1813,1813,2,14302,1952,1952,1952,1952,14302,18,18,18,18,18,18,18,18,2524,2524,1797,1949,13857,1797,1797,1797,13855,1610626589,1797,13701,
1813,1952,1813,13717,13717,13717,2,2,2,1952,2,2,1952,2,2,2,2,2,1952,1952,2,2,2,11906,1813,1813,1813,1813,1813,1813,1813,1813,1813,13382,13856,13717,1813,2,14302,2398,1952,1952,1952,14302,14302,18,2524,18,18,18,2524,18,2524,2524,2524,1797,1797,13857,1797,1797,13695,13857,1797,1797,13701,
1813,1813,1813,1813,1813,1813,1813,1813,11906,2,2,2,1952,1952,1952,2,2,2,2,2,2,11906,1813,1952,1813,1813,1813,13856,13856,1813,1813,1813,1813,1813,1813,1813,1813,14302,14302,1952,1952,14302,14302,14302,18,18,18,18,18,2524,2524,2524,2524,2524,2524,1797,1797,13857,1797,1797,13855,13854,1797,1797,13701,
1656,1813,1813,1813,1813,1952,1952,1813,1813,1813,1813,1813,1813,1813,1813,1813,1813,1813,1813,1813,1813,1813,1813,1813,1813,1813,1813,13856,13856,1813,1813,1813,1813,1813,1813,1813,1813,2,1952,1952,1952,14302,18,18,18,18,18,18,18,2524,2524,2524,2524,2524,2524,13701,1797,13857,1797,1797,13855,1797,1797,2357,2516,
1974,1655,2684356214,1813,1813,1813,1813,1813,1813,1813,1813,1813,1813,1952,1813,1813,1813,1813,1813,1813,13382,13382,1813,1813,1813,13382,13856,13856,1813,1813,1813,14302,14302,14302,14302,14302,2,2,2,2,14302,14302,2524,2524,2524,2524,18,18,2524,2524,2524,2516,2516,2516,2516,1610614630,13695,13377,13696,13695,13852,2516,2516,2516,2516,
14302,14302,1974,2684356372,1610614708,1813,1813,1813,1813,1813,13382,1813,1813,1813,1813,1813,1813,1813,1813,13382,13382,1813,13856,1813,1813,1813,1813,1813,1813,14302,14302,18,18,18,18,14302,14302,14302,14302,14302,14302,18,2524,2524,2524,18,18,18,2524,2524,2516,2516,2516,2516,2516,1610614528,13378,13856,13219,14014,13854,2516,2516,2516,2524,
18,18,14302,14302,1610614552,2684356372,2684356372,2684356375,1813,1813,1813,1813,1813,1813,1952,1952,1952,1813,1813,1813,1813,1813,1813,1813,1813,1813,1813,1813,14302,14302,2524,2524,2524,2524,18,18,2524,18,2524,2524,2524,2524,18,18,18,2524,2524,2524,2524,2516,2516,2516,2516,2516,2516,1610614530,1788,3221227266,2684356352,1639,2053,2516,2516,2516,2524,
18,14302,18,18,14302,14302,1813,1813,1813,1818,1813,1813,1813,1813,1813,1813,1813,1813,1813,1813,1813,1813,1813,1813,14302,14302,14302,14302,2524,18,2524,2524,2524,2524,18,18,18,18,2524,2524,2524,2524,2524,2516,2516,2516,2516,2516,2516,2516,2516,2516,2516,2516,2516,13855,2516,2516,2516,2516,2516,2524,2516,2524,2524,
18,14302,14302,14302,14302,14350,14342,14186,14497,1974,1655,1656,1813,1813,1813,1813,1813,1813,1813,1813,14302,14302,14302,14302,14302,14302,14302,2524,2524,18,2524,2524,2524,2524,18,18,18,18,2524,2524,18,2524,2516,2516,2516,2516,2516,2516,2516,2516,2516,2516,159,159,159,175,1610614780,2684356452,2049,2049,2684356452,2524,2524,2524,18,
14302,18,14302,14302,14350,14340,14497,14339,14350,14497,2,2,14464,14302,14302,14302,14302,14302,14302,14302,1610626554,301,301,301,301,301,13824,2524,18,18,18,18,2524,2524,18,18,2524,2524,2524,2524,18,18,2516,2516,2516,2516,2516,2516,2516,2516,301,159,159,159,159,159,159,159,2516,2516,2516,2524,2524,2524,18,
18,18,14302,14350,14497,14186,2,2,2,2,2,2,176,18,18,18,18,18,3377,3377,301,301,301,13508,301,301,1567,1415,18,18,18,2524,2524,2524,2524,2524,2524,2524,2524,2524,2524,2524,2516,2516,2516,2516,2516,2516,2516,2516,2684356764,159,159,159,159,159,159,159,159,2516,2516,2516,2524,2524,18,
14302,14506,14350,14186,14350,14339,2,2,2,2,2,2,14450,18,2372,2371,18,18,301,301,13187,13508,13348,302,1443,301,301,1567,1889,2516,2516,2516,2524,2524,2524,2524,2524,2516,2516,2516,2516,2516,2516,2516,2516,2516,2516,2516,2516,2516,2516,159,159,159,159,159,159,159,159,159,2516,2516,2516,2524,18,
14457,14504,14186,2,2,2,2,2,2,2,2684369066,14186,14340,14182,14498,2372,2371,176,301,301,13348,176,302,302,302,1443,301,301,1567,1886,2516,2516,2516,2516,2516,2516,2516,2516,2516,2516,2516,2516,2516,2516,1885,1886,2516,2516,2516,2516,2684356764,159,159,159,159,159,159,159,159,159,159,2516,2516,2516,2516,
14186,14187,14497,14182,14504,14499,14340,14503,2,14457,2545,13663,13666,13666,13666,13666,13666,1572,301,301,1412,2516,302,302,302,302,2043,2204,2204,2198,1888,1886,2516,2516,2516,1885,1888,1888,1888,1888,1888,1886,2516,1885,2197,2198,1886,1885,1888,1888,2042,159,159,159,159,159,159,159,159,159,159,2516,2516,2516,2516,
14344,14497,14183,14186,14342,14457,14458,14342,14506,3221228017,13663,13346,13824,13824,3221238790,3221238943,301,301,301,301,1570,2516,2516,2516,2516,2516,2516,2516,2516,2200,301,1567,1888,1888,1888,2197,2204,2204,2204,2204,2204,2198,1888,2197,2044,2043,2041,2197,2204,2204,159,159,159,159,159,159,159,159,159,159,159,2516,2516,2516,2516,
14339,14497,14186,14457,14302,14302,12183,12191,12183,2684357105,13823,13350,13350,302,13639,2684368194,301,301,301,1570,2516,2516,2516,2516,2516,2516,2516,2516,1885,2197,2204,2204,2204,2204,2204,2044,2516,2516,2516,2516,2516,2043,2204,2044,2516,2516,2043,2044,2516,2516,2043,159,159,159,159,159,159,159,159,159,2516,2516,2516,2516,2516,
14182,14339,14348,14302,14302,12183,12183,18,12183,13824,13824,13824,302,2516,2516,2516,2516,2516,2516,2516,2516,2516,2516,2516,2516,2516,1885,1888,2197,2044,2516,2516,2516,2516,2516,2516,2516,2516,2516,2516,2516,2516,2516,2516,2516,2516,2516,2516,2516,2516,2516,2684356764,159,159,159,159,159,159,159,2516,2516,2516,2516,2516,2516
</data>
 </layer>
 <layer id="2" name="Clutter" width="65" height="45">
  <data encoding="csv">
0,0,0,0,0,0,0,0,1588,1588,0,0,1610614004,9249,8137,8137,8142,8142,8142,8142,8142,8143,8457,0,28717,0,0,0,0,0,0,0,0,0,0,0,0,0,0,0,0,0,0,0,0,0,0,0,0,0,0,0,0,0,0,25803,0,236,26559,2603,0,0,0,0,0,
22329,0,17712,18030,0,22205,22206,0,959,959,9247,0,9091,8141,5731,13460,5731,0,5576,0,5734,13460,8143,8457,0,0,28717,0,22712,0,0,0,0,0,0,0,0,0,0,0,0,0,0,0,0,0,0,0,0,0,0,0,0,0,0,3073,26431,2755,0,26433,26434,2147483884,0,0,0,
0,0,0,18027,0,22333,22334,0,0,0,2684378535,9084,9086,3221249447,0,0,0,0,13938,0,0,0,22715,8143,8457,0,0,0,22840,0,0,0,0,0,0,0,0,0,0,0,0,0,0,0,0,0,0,0,0,0,0,0,0,0,25808,8136,8138,10833,10834,26561,26562,0,2147510082,2147510081,0,
22331,10369,10370,0,226,0,0,0,0,0,2684378531,9084,9086,23971,0,0,0,0,0,0,0,0,0,13460,8143,8457,0,0,22968,0,22712,0,0,0,0,0,0,0,0,0,0,0,0,0,0,0,0,0,0,0,0,0,0,0,0,8452,2914,10861,10862,0,10833,10834,2147510210,14354,0,
22206,10397,10398,0,0,0,0,1120,0,805,0,0,9086,8457,13460,0,0,33420,5576,23332,23333,23334,0,0,0,8143,8299,0,0,0,22840,0,0,0,0,0,0,0,0,0,0,0,0,0,0,0,0,0,0,0,0,0,0,0,236,2757,3073,2755,3073,2755,10861,10862,0,14507,0,
22334,22204,0,0,0,0,1120,1276,0,0,0,0,0,8143,8457,2147506363,0,0,5421,23460,23461,23462,0,0,0,8459,8299,0,0,0,22968,0,0,0,0,0,0,0,0,0,0,0,0,0,0,0,0,0,0,0,0,0,0,0,0,2916,8138,2916,8138,2287,2289,0,2287,26560,0,
22332,0,0,0,0,1120,1276,0,0,0,0,0,0,0,8143,8457,13460,0,0,23588,23589,23590,0,13460,8459,8141,0,0,0,22712,0,0,0,0,0,0,0,0,0,0,0,0,0,0,0,0,0,0,0,0,0,0,0,0,0,0,2757,2916,8452,2287,0,0,0,0,0,
2147483877,0,0,0,1120,1276,0,0,0,0,0,0,0,0,0,8143,8457,2147506363,0,0,0,0,22715,8459,8141,0,0,0,0,22840,0,0,0,0,0,0,0,0,0,0,0,0,0,0,0,0,0,0,0,0,0,0,0,0,0,0,0,0,2287,0,0,0,0,0,0,
2147505851,0,0,1610613857,3221226430,0,0,0,0,0,0,0,0,0,0,0,8143,8457,13460,0,0,13460,8459,8141,0,0,0,0,0,22968,0,0,0,0,0,0,0,0,0,0,0,0,0,0,0,0,0,0,0,0,0,0,0,0,0,0,0,14191,0,0,0,0,0,0,0,
2147505847,0,0,1610614172,0,0,0,0,0,0,0,0,0,0,0,0,0,8143,8457,8458,8458,8459,8141,0,0,0,0,0,0,0,0,0,0,0,0,0,0,0,0,0,0,0,0,0,0,0,0,0,0,0,0,0,0,0,0,0,0,2287,0,0,0,0,0,0,0,
0,0,0,2684355522,0,0,0,0,0,0,0,0,0,0,0,0,0,0,8142,8142,8142,8142,0,0,0,0,0,0,0,0,0,0,0,0,0,0,0,0,0,0,0,0,0,0,0,0,0,0,0,0,0,0,0,0,0,0,0,2603,0,0,0,0,0,0,0,
0,0,0,2684355523,0,0,0,0,0,0,0,0,0,0,0,0,0,22712,0,0,0,0,0,22712,0,0,0,0,0,0,0,0,0,0,0,0,0,0,0,0,0,0,0,0,0,0,0,0,0,0,0,0,0,0,0,0,0,0,2603,441,0,0,0,129,0,
2147483877,0,0,0,0,0,0,0,0,0,0,0,0,0,0,0,0,22840,0,0,22712,0,0,22840,0,0,0,0,0,0,0,0,0,0,0,0,0,0,0,0,0,0,0,0,0,0,0,0,0,0,0,0,0,0,0,0,0,0,0,2603,441,0,0,0,0,
0,0,0,0,0,0,0,0,0,0,0,0,0,0,0,0,0,22968,0,0,22840,0,0,22968,0,0,0,0,0,0,0,0,0,0,0,0,0,0,0,0,0,0,0,0,0,0,0,0,0,0,0,0,0,0,0,0,0,0,0,4035,4356,0,0,0,0,
1275,1121,0,0,0,0,0,0,0,0,0,0,0,0,0,0,0,0,0,0,22968,0,0,0,0,0,0,0,0,0,0,0,0,0,0,0,0,0,0,0,0,0,0,14977,2147483877,14191,14192,14192,14193,1073742051,0,0,0,0,0,0,0,0,0,0,0,0,0,0,0,
227,0,0,0,0,0,0,0,0,0,0,0,0,0,0,0,0,0,0,0,0,0,0,0,0,0,0,0,0,0,0,0,0,0,0,0,0,0,0,14977,3758096611,0,2147483884,8452,14976,12128,236,12128,14510,14977,14977,14192,14193,0,0,0,0,0,13066,0,0,0,2147483699,0,210,
8448,229,0,0,0,0,0,0,0,0,0,0,0,0,0,0,0,0,0,0,0,0,0,0,0,0,0,0,0,0,0,0,0,0,0,0,0,0,0,8452,14657,2147483719,2608,0,78,8138,0,0,8138,0,2147483884,26433,26434,14983,14505,13869,0,0,52,0,0,0,0,0,51,
14657,14975,0,14659,0,0,0,0,0,0,0,0,0,0,0,0,0,0,0,0,0,0,0,0,0,0,0,0,0,0,0,0,0,14657,14977,14977,14659,0,0,14661,2608,0,0,8452,8453,8454,0,0,0,26559,226,26561,26562,226,14506,14175,14818,0,3221238538,0,0,0,0,52,0,
14820,8452,8138,14818,0,0,0,0,0,0,0,0,0,0,0,0,0,0,0,0,0,0,0,0,0,0,0,0,0,0,0,0,0,0,8452,8448,0,14657,71,14512,236,26559,0,0,0,0,2147483725,235,229,128,129,126,126,0,16254,0,0,0,0,2684355722,0,0,0,0,3221238538,
2147483884,14662,8452,14818,0,0,0,0,0,0,0,0,0,0,0,0,0,0,0,0,0,0,0,0,0,0,0,0,0,0,0,0,0,14973,0,229,14657,72,2608,0,0,0,0,236,26432,0,0,128,126,435,279,279,279,285,0,0,52,2684367626,0,2684355722,0,0,0,0,0,
0,0,0,2147483877,0,14657,0,14659,0,0,0,0,0,0,0,0,0,0,0,0,0,0,0,0,0,0,0,0,0,0,0,0,0,0,2147483875,0,2608,0,0,0,8454,0,229,0,26560,128,121,435,279,284,279,279,279,288,0,0,0,0,0,0,0,209,0,0,0,
226,0,0,14659,0,14820,8138,14818,0,0,0,0,0,0,0,0,0,0,0,0,0,0,0,0,0,0,0,0,0,0,0,14657,236,14659,0,226,0,0,0,8296,0,0,0,26431,0,444,277,279,279,279,279,276,277,285,0,0,15834,15838,15836,0,4887,0,52,0,3933,
0,14820,8138,14976,0,14820,8452,14818,0,0,0,0,0,0,0,0,0,0,0,0,0,0,0,0,0,0,0,0,0,14657,0,227,8452,0,0,2608,0,0,0,8454,0,2147483884,128,130,2282,2284,2244,279,279,279,279,434,439,446,0,0,15995,4087,16152,12907,0,0,17452,1610613898,4246,
14510,14820,8452,8138,14818,2147483875,0,71,0,0,0,0,0,0,0,0,0,0,0,0,0,0,0,0,0,0,0,0,0,0,8452,8448,0,14975,2608,0,0,0,8454,26433,26434,226,286,285,2598,2600,286,0,0,0,279,279,285,0,0,1610613898,4246,4721,16626,1610613898,0,0,0,0,3930,
0,14818,14662,8452,14818,0,0,0,0,14657,0,14659,0,0,0,0,0,0,0,0,0,0,0,0,0,14657,0,14659,0,229,0,0,14975,71,26432,8138,0,0,0,26561,26562,2560,439,2684355690,3221234715,286,279,0,0,0,0,0,0,0,0,12907,0,0,15828,2684355722,17452,52,0,3930,4240,
2147483877,2606,14659,14657,14975,0,236,14659,2147483726,14820,8452,14976,0,0,0,0,0,0,0,0,0,0,0,0,14657,0,8289,0,0,0,14657,14977,14977,2608,26560,0,229,0,236,0,0,444,443,2684355690,1130,278,279,276,277,279,434,435,434,130,4887,0,0,0,0,17452,209,0,0,4249,4248,
0,2147483884,14818,14820,8452,8448,8138,14976,14659,14973,14662,8452,14818,0,0,0,0,0,14659,0,0,0,0,14657,0,8452,8448,0,14657,14977,2608,8452,8448,0,0,0,0,0,0,0,2282,2684363008,0,1610613866,128,435,279,434,757,761,435,279,279,443,3931,4401,12909,210,0,0,0,15836,17452,3924,54,
0,0,2606,14193,14661,14662,8452,8138,2147483877,0,14973,0,227,0,0,0,8452,8448,0,236,0,14659,0,0,8452,0,0,0,2608,0,0,0,0,0,8131,8133,26559,0,2446,121,2598,2684363008,14143,1610613866,286,279,279,279,909,756,754,279,279,445,286,280,0,0,0,0,0,2684355722,15821,15825,15823,
229,0,0,0,14510,14977,0,0,14975,0,0,14657,0,14659,0,71,14661,14661,14975,8289,8448,0,0,14657,14977,14977,72,2608,2147483884,0,8138,26433,26434,8131,7808,8449,0,236,2560,276,2684355690,0,14459,1610613866,283,279,279,279,443,756,917,279,279,434,278,287,285,12909,17452,0,0,0,0,4069,14228,
0,8138,0,0,0,2606,72,14977,14659,8452,0,14820,8289,2147483884,0,14659,0,0,8452,8448,0,14657,226,14512,0,0,0,0,0,0,0,26561,26562,8447,8449,0,0,2446,435,288,2684355690,1130,1610613866,128,435,279,284,915,911,917,284,279,288,286,284,282,443,2684355722,4564,0,0,15821,3922,0,1641,
220,0,0,0,0,0,0,0,14510,72,14977,14978,8452,8137,8448,14976,14977,14977,14977,14977,229,2608,0,8133,0,26559,0,8136,8138,0,0,0,0,0,0,0,0,441,445,2684355690,1610613866,128,121,435,279,279,279,279,279,276,437,286,434,129,282,446,0,2684367626,4088,3932,0,16137,4235,4406,3776,
0,0,0,229,0,8136,8138,0,0,0,0,0,0,0,0,226,0,0,0,0,0,0,0,0,0,0,0,20193,8454,0,236,125,127,226,229,0,0,2446,2684363008,9243,1610613866,278,279,279,279,279,279,279,279,434,121,435,282,445,285,3924,4398,2684355722,4249,4248,1610613898,4565,4555,2274,107,
0,0,0,0,0,0,2147483877,0,1394,0,2147483884,0,0,8138,0,0,0,229,0,26431,8136,8138,0,0,0,8136,8453,8454,0,226,128,435,434,129,121,130,2598,3221227755,2599,2600,128,435,282,445,445,0,0,279,276,277,282,445,443,266,746,0,11956,0,0,0,1698,1069,1228,431,1848,
121,126,130,0,0,0,0,0,1394,0,20351,0,0,0,0,0,0,0,0,8136,8454,0,8136,0,0,0,26432,0,226,128,435,279,279,279,279,434,129,129,121,126,436,277,434,0,0,0,0,0,0,439,443,3221266127,40591,898,907,2684355348,308,149,0,0,0,1610613524,1383,1695,286,
0,0,434,126,127,0,0,0,1395,1080,1080,0,0,0,8452,8453,8454,0,0,0,0,0,0,0,236,0,26560,229,121,435,276,277,276,445,279,279,284,279,282,445,445,277,279,279,279,282,286,284,276,446,3221266063,40653,40655,39629,39630,0,2684355347,2684355186,2684355347,2684355189,2053,1227,1386,1853,1852,
279,288,0,0,280,119,1237,1080,1555,0,0,0,0,0,0,0,0,0,236,0,0,229,26559,0,128,126,129,439,281,279,288,444,440,435,279,279,279,279,285,128,129,129,276,445,442,438,441,437,446,0,1227,1069,1069,1069,2684367847,0,2684367847,1069,1069,1069,1069,1386,439,440,435,
279,0,0,284,288,0,1394,0,0,0,390,0,0,0,229,26431,0,0,0,0,130,119,119,119,444,442,281,288,435,279,1850,129,439,281,279,279,279,279,285,286,279,284,288,0,0,0,0,0,1227,1069,1386,40589,3221227677,3221227676,3221227676,0,946,115,116,587,591,278,434,435,279,
284,279,276,445,443,0,1394,0,0,0,14185,14617,14509,129,126,121,129,121,129,439,446,0,0,0,0,0,283,284,279,279,279,279,434,435,279,279,276,281,280,278,287,279,285,119,119,0,0,0,1383,3221266127,3221227677,3221227676,0,0,53,0,116,1610614941,0,0,0,436,277,284,279,
279,276,438,0,0,0,14497,14503,3221239659,14186,14143,3221228025,283,279,282,2559,281,287,282,12347,0,0,12029,119,12031,0,12345,281,287,282,442,445,437,281,284,0,0,439,442,445,445,442,443,0,0,0,0,0,1383,40653,40655,112,114,0,0,0,0,116,266,274,266,901,436,277,279,
276,14457,0,0,0,0,14499,14187,14188,14342,14506,0,14347,442,2553,2556,176,281,285,0,0,12024,439,445,446,12031,0,444,445,443,906,903,899,444,445,445,437,443,906,906,904,1227,1069,1069,1069,1069,1069,1069,1386,0,270,275,116,0,0,0,0,0,428,432,0,0,0,436,437,
14348,14461,0,2684368899,14345,3221239811,14339,14502,14345,14504,14300,1069,1069,1069,14757,2555,2244,444,446,0,12024,278,288,580,441,446,0,0,0,0,1227,1069,1069,1069,1069,1069,1069,1069,1069,1069,1069,1386,587,746,0,0,120,106,115,110,266,116,114,0,0,0,53,0,116,0,270,0,0,896,748,
0,1227,1386,0,128,14144,14145,0,14668,14348,119,811,125,127,0,814,814,446,0,0,0,442,438,581,582,591,0,0,0,0,2026,0,581,108,583,0,0,0,0,0,0,902,898,904,0,0,0,0,902,428,52,0,0,0,54,0,0,114,112,0,116,117,264,0,745,
1227,1386,0,0,12190,434,14505,129,14299,121,127,125,435,285,13930,0,0,0,0,0,2365,106,0,423,898,433,1227,1069,1069,1712,2187,0,0,0,0,0,0,0,0,0,0,0,0,0,12187,12192,0,0,0,0,112,114,0,0,0,2008,2010,0,586,590,273,275,0,0,0,
1386,0,14143,14348,283,284,279,0,279,279,288,283,287,288,1383,0,0,0,0,2365,1227,1069,1069,1069,1069,1069,1386,580,0,0,0,0,0,0,0,0,0,0,0,534,0,0,0,0,436,288,587,590,587,113,113,114,112,114,1060,1062,0,586,588,428,263,901,422,748,271,
0,0,14457,121,435,279,0,753,759,276,443,278,276,443,1385,1069,1069,1069,1069,1069,1386,115,113,587,591,113,588,0,0,0,0,0,0,0,0,0,852,691,691,692,0,0,106,121,123,428,268,740,748,270,271,272,112,116,114,0,586,588,747,737,427,896,748,274,275
</data>
 </layer>
 <layer id="5" name="Clutter2" width="65" height="45">
  <data encoding="csv">
0,0,0,0,0,0,0,0,0,0,0,0,0,2684361380,28715,2684361380,28715,2684361380,28715,536877732,28715,536877732,28717,536877731,0,0,0,0,0,0,0,0,0,0,0,0,0,0,0,0,0,0,0,0,0,0,0,0,0,0,0,0,0,0,0,0,0,0,0,71,0,0,71,0,230,
0,0,0,0,0,0,0,0,22332,22200,0,0,0,3843,28841,0,28841,0,28841,0,28841,0,28841,536877732,536877731,0,0,0,0,0,0,0,0,0,0,0,0,0,0,0,0,0,0,0,0,0,0,0,0,0,0,0,0,0,2753,0,3073,0,0,0,0,2603,0,229,15356,
0,0,0,0,0,0,2147507403,0,0,0,0,3221249317,3221249317,0,0,0,0,0,0,0,0,0,0,0,536877732,536877731,0,0,0,0,0,0,0,0,0,0,0,0,0,0,0,0,0,0,0,0,0,0,0,0,0,0,0,0,2916,0,8448,2914,0,0,0,25808,0,2603,71,
0,0,0,0,0,0,0,0,0,0,0,23845,23845,0,0,0,0,0,0,0,9928,0,0,0,0,536877732,1610616242,0,0,0,0,0,0,0,0,0,0,0,0,0,0,0,0,0,0,0,0,0,0,0,0,0,0,0,2916,8291,2757,3071,0,0,0,0,0,26562,0,
0,0,0,0,0,0,0,0,644,0,22331,0,0,0,0,0,0,0,0,3221231218,10086,5430,0,0,0,0,0,0,0,0,0,0,0,0,0,0,0,0,0,0,0,0,0,0,0,0,0,0,0,0,0,0,0,0,3069,2753,3071,2753,0,0,0,0,0,26432,72,
22203,0,0,0,0,0,0,0,0,0,0,1610616242,0,0,2684373283,0,0,0,0,6060,10084,6062,0,0,0,24025,0,0,0,0,0,0,0,0,0,0,0,0,0,0,0,0,0,0,0,0,0,0,0,0,0,0,0,0,0,0,8452,2914,8289,2914,14192,14192,14192,0,0,
0,0,0,0,0,0,0,0,0,0,0,0,1610616242,0,2684361380,0,0,0,0,5744,5745,5746,0,0,0,536877732,0,0,0,0,0,0,0,0,0,0,0,0,0,0,0,0,0,0,0,0,0,0,0,0,0,0,0,0,0,3069,0,3071,8291,2914,0,125,127,0,125,
0,0,0,0,0,0,0,0,0,0,0,0,0,1610616242,0,0,2684373283,0,0,0,0,0,0,536889635,0,0,3506,0,0,0,0,0,0,0,0,0,0,0,0,0,0,0,0,0,0,0,0,0,0,0,0,0,0,0,0,0,0,3069,2757,0,229,286,434,126,435,
0,0,0,0,0,0,0,0,0,0,0,0,0,0,1610616242,0,2684361380,0,2684373283,23891,23892,536889635,0,536877732,0,3506,0,0,0,0,0,0,0,0,0,0,0,0,0,0,0,0,0,0,0,0,0,0,0,0,0,0,0,0,0,0,0,12140,0,0,128,435,276,445,277,
0,0,0,0,0,0,0,0,0,0,0,0,0,0,0,1610616242,0,0,2684361380,24019,24020,536877732,0,0,3506,0,0,0,0,0,0,0,0,0,0,0,0,0,0,0,0,0,0,0,0,0,0,0,0,0,0,0,0,0,0,0,0,0,0,128,435,284,434,122,286,
0,0,0,0,0,0,0,0,0,0,0,0,0,0,0,0,0,1610616242,0,0,0,0,3506,0,0,0,0,0,0,0,0,0,0,0,0,0,0,0,0,0,0,0,0,0,0,0,0,0,0,0,0,0,0,0,0,0,0,0,0,278,279,279,279,288,283,
0,0,0,0,0,0,0,0,0,0,0,0,0,0,0,0,0,0,0,0,0,0,0,0,0,0,0,0,0,0,0,0,0,0,0,0,0,0,0,0,0,0,0,0,0,0,0,0,0,0,0,0,0,0,0,0,0,25808,229,0,281,279,284,443,435,
0,0,0,0,0,0,0,0,0,0,0,0,0,0,0,0,0,0,0,0,0,0,0,0,0,0,0,0,0,0,0,0,0,0,0,0,0,0,0,0,0,0,0,0,0,0,0,0,0,0,0,0,0,0,0,0,0,0,0,0,4035,437,279,279,276,
0,0,0,0,0,0,0,0,0,0,0,0,0,0,0,0,0,0,0,0,0,0,0,0,0,0,0,0,0,0,0,0,0,0,0,0,0,0,0,0,0,0,0,0,0,0,0,0,15358,0,0,0,0,0,0,0,0,0,0,218,0,0,437,279,434,
0,0,0,0,0,0,0,0,0,0,0,0,0,0,0,0,0,0,0,0,0,0,0,0,0,0,0,0,0,0,0,0,0,0,0,0,0,0,0,0,0,0,14657,0,14659,0,0,0,0,0,0,0,0,0,0,0,0,0,0,0,0,0,0,437,437,
14977,14659,0,0,0,0,0,0,0,0,0,0,0,0,0,0,0,0,0,0,0,0,0,0,0,0,0,0,0,0,0,0,0,0,0,0,0,0,14657,0,14659,0,14820,8138,14191,0,0,0,0,14193,14191,0,0,0,0,0,0,0,0,0,0,0,0,3758096596,0,
8138,14818,0,0,0,0,0,0,0,0,0,0,0,0,0,0,0,0,0,0,0,0,0,0,0,0,0,0,0,0,0,0,0,0,0,0,0,0,14820,8138,14818,14977,0,0,0,2684363013,0,0,8452,0,0,0,0,14192,0,0,0,0,0,0,0,0,0,0,0,
14661,14977,14977,0,0,0,0,0,0,0,0,0,0,0,0,0,0,0,0,0,0,0,0,0,0,0,0,0,0,0,0,0,0,0,0,0,0,0,14973,2287,14975,0,0,1610621032,8137,0,0,0,0,0,0,0,0,0,0,0,0,0,0,0,0,0,0,0,0,
0,8132,0,0,0,2147509456,0,0,0,0,0,0,0,0,0,0,0,0,0,0,0,0,0,0,0,0,0,0,0,0,0,0,0,14820,8132,8138,14818,0,14977,0,0,0,0,0,0,0,0,0,0,0,0,0,0,127,0,14509,0,0,1610612948,0,0,0,0,0,0,
0,14661,8291,0,0,0,0,0,0,0,0,0,0,0,0,0,0,0,0,0,0,0,0,0,0,0,0,0,0,0,0,25808,0,0,14661,14661,14975,14977,0,0,0,0,0,0,0,0,0,0,0,0,0,0,0,0,14509,0,0,0,0,1610613898,212,0,15828,0,0,
0,0,14661,0,0,0,14977,0,0,0,0,0,0,0,0,0,0,0,0,0,0,0,0,0,0,0,0,0,0,0,0,0,0,0,0,0,0,0,0,0,8136,0,0,0,0,0,0,0,0,0,0,0,0,0,51,0,0,0,0,0,0,0,0,0,0,
0,0,14977,0,0,0,8289,0,0,0,0,0,0,0,0,0,0,0,0,0,0,0,0,0,0,0,0,0,0,0,0,0,14977,0,0,2287,0,0,0,8136,0,0,0,0,2239,0,0,0,0,0,0,0,0,0,0,0,0,0,235,77,0,0,0,0,0,
2289,0,8289,14977,14659,0,8291,0,0,0,0,0,0,0,0,0,0,0,0,0,0,0,0,0,0,0,0,0,0,0,14977,14978,8138,14818,2287,0,0,0,8136,0,0,0,0,0,0,2555,2443,0,0,0,0,0,0,0,15828,0,0,0,0,12902,0,0,0,2684367626,0,
0,0,0,0,0,14973,14661,14975,0,0,0,0,0,0,0,0,0,0,0,0,0,0,0,0,0,0,0,0,0,14820,8132,8138,14660,0,0,0,0,0,8452,0,0,0,0,0,2241,0,127,279,284,279,0,0,0,220,0,0,51,0,0,0,15828,0,0,0,220,
0,2289,14661,8291,0,0,0,0,0,0,14977,0,0,0,0,0,0,0,0,0,0,0,0,0,0,0,14977,0,0,0,14661,14661,0,2287,0,8452,0,0,0,0,0,2444,0,3221226602,1610613866,0,0,279,279,279,276,277,280,0,0,0,61,0,0,0,0,0,0,0,0,
0,0,14973,14661,14977,14977,14977,0,0,0,8138,14977,14659,0,0,0,0,0,0,0,0,0,0,0,0,14978,8138,14818,0,0,0,0,14191,0,0,0,0,0,0,0,2239,0,0,0,1610613866,0,0,0,599,600,601,0,0,0,0,0,0,15828,0,0,0,0,0,0,4887,
0,0,2289,0,8132,8132,0,14977,0,0,14661,8138,0,0,0,14657,14977,14977,0,0,0,0,0,0,14978,8132,8291,14818,0,2287,0,8132,8138,0,0,0,0,0,0,0,0,0,0,0,0,0,0,0,127,0,601,0,0,4399,129,127,0,0,0,0,15834,0,0,0,0,
0,0,0,14977,14659,14661,0,8448,14818,0,0,14661,14975,0,0,14820,8132,8138,14818,14977,14977,0,0,14820,8138,14660,14661,2287,0,0,0,0,0,0,0,0,0,0,2239,0,2241,0,0,14144,0,0,0,0,127,599,125,0,0,127,443,129,127,0,15828,0,15995,15997,0,0,15821,
0,0,0,0,0,2289,14661,14661,0,14977,14659,0,14977,0,0,14973,0,14657,14978,8132,8138,14818,0,0,14661,0,14977,0,0,0,8452,0,0,0,0,0,0,0,2605,0,3221233920,0,0,1130,0,0,0,599,909,125,435,0,0,0,127,0,0,16308,16310,0,15828,16152,15837,3934,16139,
0,8452,0,0,0,0,14976,0,14820,8138,14818,0,8138,14976,14977,0,0,14820,8137,8291,14660,14975,14977,0,0,0,0,0,0,0,0,0,0,0,0,0,0,2239,0,0,0,0,1130,0,0,0,0,434,129,435,0,0,441,443,0,0,3924,16469,0,0,0,0,4091,4081,16152,
0,0,0,0,0,0,0,0,0,14977,14975,14191,0,8448,8138,14193,0,14973,14661,14661,14977,0,0,8452,0,0,0,0,0,0,0,0,0,0,0,0,0,0,0,3221226602,0,0,0,0,0,0,0,0,0,0,0,443,0,441,0,0,0,0,0,0,0,16303,4246,4238,0,
0,0,0,0,0,8453,8453,0,0,0,0,0,0,0,0,0,0,0,0,0,0,0,0,0,0,0,0,8294,0,0,0,0,0,0,0,0,0,2555,3221226602,0,1130,0,0,0,0,0,0,0,0,0,0,0,0,1535,1536,0,0,0,0,0,0,2147486318,0,1610613430,588,
0,0,0,0,0,0,0,0,14347,0,0,0,0,8452,0,0,0,0,0,0,0,8453,0,0,0,8453,8132,20200,0,0,0,0,0,0,0,0,2241,0,0,2239,0,0,0,1528,125,284,279,0,0,0,0,0,270,0,0,580,0,0,0,0,0,0,0,106,125,
0,0,0,0,0,0,0,0,0,0,20037,0,0,0,0,0,0,0,0,8453,20357,0,8454,0,0,0,0,0,0,0,0,0,0,0,0,0,0,0,0,0,129,127,0,121,435,279,279,279,434,0,580,0,428,11313,2486,0,0,0,0,0,0,14493,0,0,1697,
279,279,0,0,0,0,0,0,0,0,14347,0,0,0,8136,8137,8138,0,0,0,0,0,0,0,0,0,0,125,0,0,0,0,0,125,0,0,0,0,0,1537,1539,0,0,0,0,0,443,0,0,0,0,0,0,0,0,0,0,0,0,0,0,0,125,127,283,
0,441,277,279,0,0,0,0,0,0,0,0,0,0,0,0,0,0,0,0,0,0,0,0,0,0,0,0,0,0,1537,1538,1536,0,0,0,0,0,0,1850,1852,441,0,1537,13440,1534,1530,1536,0,0,0,0,0,0,0,2684367404,0,0,0,0,0,12029,127,0,0,
0,434,435,0,0,0,0,0,0,0,0,0,0,0,0,0,0,0,0,125,0,0,0,0,0,0,0,125,0,0,434,1854,1852,0,0,0,0,0,0,1528,0,0,1529,1844,1843,1848,1854,1852,0,0,0,0,40591,309,151,152,309,0,0,0,0,0,0,0,0,
0,0,0,0,0,0,0,0,0,0,0,14505,125,0,0,0,0,0,0,0,0,0,0,0,0,0,0,0,0,0,0,0,0,0,0,0,0,0,125,127,0,0,1850,1854,1854,1855,0,0,0,0,40653,40655,0,0,0,112,0,422,266,748,895,588,0,0,0,
0,0,0,0,0,0,13287,0,0,0,14668,2684357003,0,0,0,445,0,0,0,0,0,0,0,129,0,0,0,0,0,586,590,587,588,0,0,279,434,586,590,582,583,0,0,0,0,0,0,0,0,0,112,114,0,0,0,0,112,428,263,0,0,114,588,0,0,
0,443,0,0,0,0,13287,0,0,0,14299,2600,441,0,443,2239,444,0,0,0,0,125,0,0,125,0,0,0,0,905,0,0,0,0,0,0,0,902,0,0,0,0,0,0,0,0,0,0,0,0,0,112,0,114,0,0,112,114,2008,2484,264,271,746,586,590,
446,0,13131,12973,12973,12973,13130,12973,12973,12973,12973,0,0,0,13132,0,125,127,0,0,125,127,0,0,0,0,0,0,0,0,0,0,0,0,0,0,0,0,0,0,0,586,0,0,0,0,0,127,0,588,0,430,0,0,0,0,0,112,0,114,0,274,895,0,0,
0,0,0,0,0,127,0,0,14143,0,0,0,12029,12031,6123,0,444,0,0,0,441,0,0,0,0,0,0,0,0,0,0,0,0,0,0,0,0,0,0,0,0,0,119,0,12029,12031,441,443,0,904,430,0,0,0,0,0,112,0,0,116,428,586,588,274,116,
0,0,0,0,0,127,121,0,121,0,0,12029,12031,0,0,0,0,0,0,0,41,0,0,0,0,0,0,0,0,0,0,0,902,906,904,0,374,375,375,376,0,0,0,0,125,0,0,0,0,52,0,0,0,0,0,0,0,0,0,0,114,902,738,740,740,
0,0,0,0,0,0,599,595,601,0,0,0,0,0,0,0,0,0,0,199,0,0,0,0,0,0,0,0,0,0,0,0,0,0,0,0,848,0,0,0,589,588,0,0,125,112,0,0,0,0,0,0,0,0,0,0,0,0,586,590,0,0,0,0,0,
0,0,120,0,12503,0,909,0,125,0,0,0,586,591,0,0,0,0,0,0,0,0,0,0,112,0,0,0,0,0,580,115,590,1535,108,582,590,590,582,116,426,907,125,0,0,446,0,0,0,588,0,0,0,0,0,0,0,2008,2010,0,0,0,0,0,747
</data>
 </layer>
 <layer id="7" name="Clutter3" width="65" height="45">
  <data encoding="csv">
0,0,0,0,0,0,0,0,0,0,0,0,0,0,0,28714,0,28714,0,28714,0,28716,0,0,0,0,0,0,0,0,0,0,0,0,0,0,0,0,0,0,0,0,0,0,0,0,0,0,0,0,0,0,0,0,0,0,0,0,0,0,0,0,0,0,0,
0,0,0,0,0,0,0,0,0,0,0,0,0,0,0,0,0,0,0,0,0,0,0,0,0,0,0,0,0,0,0,0,0,0,0,0,0,0,0,0,0,0,0,0,0,0,0,0,0,0,0,0,0,0,0,0,0,0,0,0,0,0,0,0,0,
0,0,0,0,0,0,0,0,0,0,0,0,0,0,0,0,0,0,0,0,0,0,0,0,0,0,0,0,0,0,0,0,0,0,0,0,0,0,0,0,0,0,0,0,0,0,0,0,0,0,0,0,0,0,0,0,0,0,0,0,0,0,0,0,0,
0,0,0,0,0,0,0,0,0,0,0,0,0,0,0,0,0,0,0,0,0,0,0,0,0,0,0,0,0,0,0,0,0,0,0,0,0,0,0,0,0,0,0,0,0,0,0,0,0,0,0,0,0,0,0,0,0,0,0,0,0,0,0,0,0,
0,0,0,0,0,0,0,0,0,0,0,0,0,0,0,0,0,0,0,0,0,0,0,0,0,0,0,0,0,0,0,0,0,0,0,0,0,0,0,0,0,0,0,0,0,0,0,0,0,0,0,0,0,0,0,0,0,0,0,0,0,0,0,0,0,
0,0,0,0,0,0,0,0,0,0,0,0,0,0,0,0,0,0,0,2147493733,10082,10082,0,0,0,536889635,0,0,0,0,0,0,0,0,0,0,0,0,0,0,0,0,0,0,0,0,0,0,0,0,0,0,0,0,0,0,0,0,0,0,0,0,0,0,0,
0,0,0,0,0,0,0,0,0,0,0,0,0,0,0,0,0,0,0,0,0,0,0,0,0,0,0,0,0,0,0,0,0,0,0,0,0,0,0,0,0,0,0,0,0,0,0,0,0,0,0,0,0,0,0,0,0,0,0,0,0,0,0,0,0,
0,0,0,0,0,0,0,0,0,0,0,0,0,0,0,0,0,0,0,0,0,0,0,0,0,0,0,0,0,0,0,0,0,0,0,0,0,0,0,0,0,0,0,0,0,0,0,0,0,0,0,0,0,0,0,0,0,0,0,0,0,0,0,0,0,
0,0,0,0,0,0,0,0,0,0,0,0,0,0,0,0,0,0,0,0,0,0,0,0,0,0,0,0,0,0,0,0,0,0,0,0,0,0,0,0,0,0,0,0,0,0,0,0,0,0,0,0,0,0,0,0,0,0,0,0,0,0,0,0,0,
0,0,0,0,0,0,0,0,0,0,0,0,0,0,0,0,0,0,0,0,0,0,0,0,0,0,0,0,0,0,0,0,0,0,0,0,0,0,0,0,0,0,0,0,0,0,0,0,0,0,0,0,0,0,0,0,0,0,0,0,0,0,0,0,0,
0,0,0,0,0,0,0,0,0,0,0,0,0,0,0,0,0,0,0,0,0,0,0,0,0,0,0,0,0,0,0,0,0,0,0,0,0,0,0,0,0,0,0,0,0,0,0,0,0,0,0,0,0,0,0,0,0,0,0,0,0,0,0,0,0,
0,0,0,0,0,0,0,0,0,0,0,0,0,0,0,0,0,0,0,0,0,0,0,0,0,0,0,0,0,0,0,0,0,0,0,0,0,0,0,0,0,0,0,0,0,0,0,0,0,0,0,0,0,0,0,0,0,0,0,0,0,0,0,0,0,
0,0,0,0,0,0,0,0,0,0,0,0,0,0,0,0,0,0,0,0,0,0,0,0,0,0,0,0,0,0,0,0,0,0,0,0,0,0,0,0,0,0,0,0,0,0,0,0,0,0,0,0,0,0,0,0,0,0,0,0,0,0,0,0,0,
0,0,0,0,0,0,0,0,0,0,0,0,0,0,0,0,0,0,0,0,0,0,0,0,0,0,0,0,0,0,0,0,0,0,0,0,0,0,0,0,0,0,73,0,0,0,0,0,0,0,0,0,0,0,0,0,0,0,0,0,0,0,0,0,0,
0,0,0,0,0,0,0,0,0,0,0,0,0,0,0,0,0,0,0,0,0,0,0,0,0,0,0,0,0,0,0,0,0,0,0,0,0,0,0,0,0,0,0,0,0,0,0,0,0,0,0,0,0,0,0,0,0,0,0,0,0,0,0,0,0,
0,0,0,0,0,0,0,0,0,0,0,0,0,0,0,0,0,0,0,0,0,0,0,0,0,0,0,0,0,0,0,0,0,0,0,0,0,0,0,0,0,0,0,0,23760,0,0,0,0,0,0,0,0,232,0,0,0,0,0,0,0,0,0,0,0,
0,0,0,0,0,0,0,0,0,0,0,0,0,0,0,0,0,0,0,0,0,0,0,0,0,0,0,0,0,0,0,0,0,0,0,0,0,0,0,0,0,14191,0,0,0,0,0,0,0,0,0,0,0,0,0,0,0,0,0,0,0,0,0,0,0,
0,0,0,0,0,0,0,0,0,0,0,0,0,0,0,0,0,0,0,0,0,0,0,0,0,0,0,0,0,0,0,0,0,0,0,0,0,0,0,0,0,0,0,0,0,8293,0,0,0,0,0,0,0,0,0,2147483708,0,0,0,0,0,0,0,0,0,
0,0,8135,0,0,0,0,0,0,0,0,0,0,0,0,0,0,0,0,0,0,0,0,0,0,0,0,0,0,0,0,0,0,0,0,0,0,0,14191,0,0,0,0,0,0,0,0,0,0,0,0,0,0,59,0,0,0,0,0,0,0,0,0,0,0,
14973,0,0,0,0,0,0,0,0,0,0,0,0,0,0,0,0,0,0,0,0,0,0,0,0,0,0,0,0,0,0,0,0,0,0,0,0,14191,0,0,0,0,0,0,0,0,0,0,0,0,0,0,0,0,0,0,0,0,0,0,0,0,0,0,0,
0,14973,0,14975,0,0,0,0,0,0,0,0,0,0,0,0,0,0,0,0,0,0,0,0,0,0,0,0,0,0,0,0,0,0,0,0,0,0,0,0,0,0,0,0,0,0,0,0,0,0,0,0,0,0,0,0,0,0,0,0,0,0,0,0,0,
0,14657,0,0,0,0,0,0,0,0,0,0,0,0,0,0,0,0,0,0,0,0,0,0,0,0,0,0,0,0,0,0,0,0,0,0,0,0,0,0,0,0,0,0,0,0,0,0,0,0,0,0,0,0,0,0,0,0,0,0,0,0,0,0,0,
0,0,0,0,0,0,0,0,0,0,0,0,0,0,0,0,0,0,0,0,0,0,0,0,0,0,0,0,0,0,0,0,0,0,0,0,0,0,0,0,0,0,0,0,0,0,286,0,0,0,0,0,0,0,0,0,0,0,0,54,0,0,0,0,0,
0,0,0,8135,0,0,0,0,0,0,0,0,0,0,0,0,0,0,0,0,0,0,0,0,0,0,0,0,0,0,0,0,0,0,0,0,0,0,0,0,0,0,0,0,0,125,0,0,0,0,0,0,0,0,0,0,0,0,0,0,0,0,0,0,0,
0,14973,0,0,0,0,0,0,0,0,0,0,0,0,0,0,0,0,0,0,0,0,0,0,0,0,0,0,0,14973,0,0,0,0,0,0,0,0,0,0,0,125,0,443,0,0,0,0,0,0,0,0,0,0,0,0,0,0,0,0,0,0,0,0,0,
0,0,0,0,0,0,0,0,0,0,0,0,0,0,0,0,0,0,0,0,0,0,0,0,0,0,0,0,0,0,0,0,0,0,0,0,0,0,0,0,0,0,0,0,0,0,0,0,0,0,0,0,0,0,0,0,0,0,0,0,0,0,0,0,0,
0,0,0,0,0,0,0,0,0,0,0,0,0,0,0,0,0,0,0,0,0,0,0,0,0,0,8293,0,0,0,0,0,0,0,0,0,0,0,0,0,0,0,0,0,0,0,0,0,0,0,0,0,0,129,0,0,0,0,0,0,0,0,0,0,0,
0,0,0,14973,0,0,8292,0,0,0,0,0,0,0,0,0,0,0,14657,0,0,0,0,0,0,0,0,14975,0,0,0,0,0,0,0,0,0,0,125,0,0,0,0,0,0,0,0,0,0,0,0,0,0,0,1528,0,0,0,0,0,0,0,0,0,0,
0,0,0,0,0,14973,0,0,14657,0,0,0,0,0,0,0,0,0,0,0,0,0,0,14973,0,14975,14191,0,0,0,0,0,0,0,0,0,0,0,286,0,73,0,0,14460,0,0,0,0,0,0,0,0,0,0,0,0,0,0,0,0,0,0,16137,0,15836,
0,0,0,0,0,0,14193,0,0,0,0,0,0,0,0,0,0,0,0,8293,0,0,14191,0,0,0,0,0,0,0,0,0,0,0,0,0,0,125,0,0,0,0,74,0,0,0,0,0,0,0,0,0,1528,0,0,0,0,0,0,0,0,0,0,0,0,
0,0,0,0,0,0,0,0,14973,14193,0,0,8292,0,0,0,0,0,0,0,14975,0,0,0,0,0,0,0,0,0,0,0,0,0,0,0,0,0,0,443,0,0,0,0,0,0,0,0,0,0,0,1528,0,0,0,0,0,0,0,0,0,0,4405,0,0,
0,0,0,0,0,0,0,0,0,0,0,0,0,0,0,0,0,0,0,0,0,0,0,0,0,0,0,0,0,0,0,0,0,0,0,0,0,0,8448,0,0,0,0,0,0,0,0,0,0,0,0,0,0,0,0,0,0,0,0,0,0,0,0,586,0,
0,0,0,0,0,0,0,0,0,0,0,0,0,0,0,0,0,0,0,0,0,0,0,0,0,0,0,20202,0,0,0,0,0,0,0,0,0,0,0,220,0,0,0,0,0,0,0,0,0,0,0,0,0,0,0,0,0,0,0,0,0,0,0,1534,430,
0,0,0,0,0,0,0,0,0,0,0,0,0,0,0,0,0,0,0,0,8293,0,0,0,0,0,0,0,0,0,0,0,0,0,0,0,0,0,0,0,0,0,0,0,0,0,0,0,0,0,0,0,0,0,0,0,0,0,0,0,0,0,0,0,0,
0,0,0,0,0,0,0,0,0,0,0,0,0,0,0,0,0,0,0,0,0,0,0,0,0,0,0,0,0,0,0,0,0,0,0,0,0,0,0,0,0,0,0,0,0,0,0,0,0,0,0,0,0,0,0,0,0,0,0,0,0,0,0,0,0,
0,0,0,0,0,0,0,0,0,0,0,0,0,0,0,0,0,0,0,0,0,0,0,0,0,0,0,0,0,0,0,0,0,0,0,0,0,0,0,0,0,0,0,0,0,0,0,0,0,0,0,0,0,0,0,2684368807,0,0,0,0,0,0,0,0,0,
0,0,0,0,0,0,0,0,0,0,0,0,0,0,0,0,0,0,0,220,0,0,0,0,0,0,0,0,0,0,0,0,0,0,0,0,0,0,0,0,0,0,0,0,0,0,0,0,0,0,0,0,0,0,0,0,0,0,0,0,0,0,0,0,0,
0,0,0,0,0,0,14347,0,0,0,0,710,0,0,0,0,0,0,0,0,0,0,0,0,0,0,0,0,0,0,0,0,0,0,0,0,0,0,0,0,0,0,0,0,0,0,0,0,0,0,0,0,0,0,0,0,0,0,0,0,0,0,0,0,0,
0,0,0,0,0,0,14347,0,0,0,0,0,0,0,0,0,0,0,0,0,0,0,0,0,0,0,0,0,0,0,0,0,0,0,0,0,0,0,0,0,0,0,0,0,0,0,0,0,0,0,0,0,0,0,0,0,0,0,0,0,0,0,0,0,0,
0,0,0,0,0,0,0,0,0,0,0,0,0,0,0,0,0,0,0,0,0,0,0,0,0,0,0,0,0,0,0,0,0,0,0,0,0,0,0,0,0,0,0,0,0,0,0,0,0,0,0,0,0,0,0,0,0,0,0,0,0,0,0,0,0,
0,0,0,0,0,0,0,0,0,0,0,0,0,0,0,0,0,0,0,0,0,0,0,0,0,0,0,0,0,0,0,0,0,0,0,0,0,0,0,0,0,0,0,0,0,0,0,0,0,0,0,0,0,0,0,0,0,0,0,0,0,0,0,0,0,
0,0,0,0,0,0,0,0,0,0,0,0,0,0,0,0,0,0,0,0,0,0,0,0,0,0,0,0,0,0,0,0,0,0,0,0,0,0,0,0,0,0,0,0,0,0,0,0,0,0,0,0,0,0,0,0,0,0,0,0,0,0,0,0,0,
0,0,0,0,0,0,0,0,0,0,0,0,0,0,0,0,0,0,0,0,0,0,0,0,0,0,0,0,0,0,0,0,0,0,0,0,0,0,0,0,0,0,0,0,0,0,0,0,0,0,0,0,0,0,0,0,0,0,0,0,0,0,0,0,0,
0,0,0,0,0,0,0,0,0,0,0,0,0,0,0,0,0,0,0,0,0,0,0,0,0,0,0,0,0,0,0,0,0,0,0,0,0,0,0,0,0,0,0,0,0,0,0,0,0,0,0,0,0,0,0,0,0,0,0,0,0,0,0,0,0,
0,0,0,0,0,603,0,0,0,0,0,0,0,0,0,0,0,0,0,0,0,0,0,0,0,0,0,0,0,0,0,0,0,0,0,0,0,0,0,0,0,0,0,0,0,0,0,0,0,0,0,0,0,0,0,0,0,0,0,0,0,0,0,0,0
</data>
 </layer>
 <layer id="3" name="Walls" width="65" height="45">
  <properties>
   <property name="spriteLayer" type="bool" value="true" />
  </properties>
  <data encoding="csv">
0,0,0,0,0,0,0,0,0,0,0,0,0,0,0,0,0,0,0,0,0,0,0,0,0,0,0,0,0,0,0,0,0,0,0,0,0,0,0,0,0,0,0,0,0,0,0,0,0,0,0,0,0,0,0,0,0,0,0,0,0,0,0,0,0,
0,0,0,0,0,0,0,0,0,0,0,0,0,0,0,0,0,0,0,0,0,0,0,0,0,0,0,0,0,0,0,0,0,0,0,0,0,0,0,0,0,0,0,0,0,0,0,0,0,0,0,0,0,0,0,0,0,0,0,0,0,0,0,0,0,
0,0,0,0,0,0,0,0,0,0,0,0,0,0,0,0,0,0,0,0,0,0,0,0,0,0,0,0,0,0,0,0,0,0,0,0,0,0,0,0,0,0,0,0,0,0,0,0,0,0,0,0,0,0,0,0,0,0,0,0,0,0,0,0,0,
0,0,0,0,0,0,0,0,0,0,0,0,0,0,0,0,0,0,0,0,0,0,0,0,0,0,0,0,0,0,0,0,0,0,0,0,0,0,0,0,0,0,0,0,0,0,0,0,0,0,0,0,0,0,0,0,0,0,0,0,0,0,0,0,0,
0,0,0,0,0,0,0,0,0,0,0,0,0,0,0,0,0,0,0,0,0,0,0,0,23896,23897,23898,0,0,0,0,0,0,0,0,0,0,0,0,0,0,0,0,0,0,0,0,0,0,0,0,0,0,0,0,0,0,0,0,0,0,0,0,0,0,
0,0,0,0,0,0,0,0,0,0,0,0,0,0,0,0,0,0,0,0,0,0,0,0,0,536889635,0,0,0,0,0,0,0,0,0,0,0,0,0,0,0,0,0,0,0,0,0,0,0,0,0,0,0,0,0,0,0,0,0,0,0,0,0,0,0,
0,0,0,0,0,0,0,0,0,0,0,0,0,0,0,0,0,0,0,0,0,0,0,0,0,0,0,0,0,0,0,0,0,0,0,0,0,0,0,0,0,0,0,0,0,0,0,0,0,0,0,0,0,0,0,0,0,0,0,0,0,0,0,0,0,
0,0,0,0,0,0,0,0,0,0,0,0,0,0,0,0,0,0,0,0,0,0,0,0,0,0,0,0,0,0,0,0,0,0,0,0,0,0,0,0,0,0,0,0,0,0,0,0,0,0,0,0,0,0,0,0,0,0,0,0,0,0,0,0,0,
0,0,0,0,0,0,0,0,0,0,0,0,0,0,0,0,0,0,0,0,0,0,0,0,0,0,0,0,0,0,0,0,0,0,0,0,0,0,0,0,0,0,0,0,0,0,0,0,0,0,0,0,0,0,0,0,0,0,0,0,0,0,0,0,0,
0,0,0,0,0,0,0,0,0,0,0,0,0,0,0,0,0,0,0,0,0,0,0,0,0,0,0,0,0,0,0,0,0,0,0,0,0,0,0,0,0,0,0,0,0,0,0,0,0,0,0,0,0,0,0,0,0,0,0,0,0,0,0,0,0,
0,0,0,0,0,0,0,0,0,0,0,0,0,0,0,0,0,0,0,0,0,0,0,0,0,0,0,0,0,0,0,0,0,0,0,0,0,0,0,0,0,0,0,0,0,0,0,0,0,0,0,0,0,0,0,0,0,0,0,0,0,0,0,0,0,
0,0,0,0,0,0,0,0,0,0,0,0,0,0,0,0,0,0,0,0,0,0,0,0,0,0,0,0,0,0,0,0,0,0,0,0,0,0,0,0,0,0,0,0,0,0,0,0,0,0,0,0,0,0,0,0,0,0,0,0,0,0,0,0,0,
0,0,0,0,0,0,0,0,0,0,0,0,0,0,0,0,0,0,0,0,0,0,0,0,0,0,0,0,0,0,0,0,0,0,0,0,0,0,0,0,0,0,0,0,0,0,0,0,0,0,0,0,0,0,0,0,0,0,0,0,0,0,0,0,0,
0,0,0,0,0,0,0,0,0,0,0,0,0,0,0,0,0,0,0,0,0,0,0,0,0,0,0,0,0,0,0,0,0,0,0,0,0,0,0,0,0,0,0,0,0,0,0,0,0,0,0,0,0,0,0,0,0,0,0,0,0,0,0,0,0,
0,0,0,0,0,0,0,0,0,0,0,0,0,0,0,0,0,0,0,0,0,0,0,0,0,0,0,0,0,0,0,0,0,0,0,0,0,0,0,0,0,0,0,0,0,0,0,0,0,0,0,0,0,0,0,0,0,0,0,0,0,0,0,0,0,
0,0,0,0,0,0,0,0,0,0,0,0,0,0,0,0,0,0,0,0,0,0,0,0,0,0,0,0,0,0,0,0,0,0,0,0,0,0,0,0,0,0,0,0,0,0,0,0,0,0,0,0,0,0,0,0,0,0,0,0,0,0,0,0,0,
0,0,0,0,0,0,0,0,0,0,0,0,0,0,0,0,0,0,0,0,0,0,0,0,0,0,0,0,0,0,0,0,0,0,0,0,0,0,0,0,0,0,0,0,0,0,0,0,0,0,0,0,0,0,0,0,0,0,0,0,0,0,0,0,0,
0,0,0,0,0,0,0,0,0,0,0,0,0,0,0,0,0,0,0,0,0,0,0,0,0,0,0,0,0,0,0,0,0,0,0,0,0,0,0,0,0,0,0,0,0,0,0,0,0,0,0,0,0,0,0,0,0,0,0,0,0,0,0,0,0,
0,0,0,0,0,0,0,0,0,0,0,0,0,0,0,0,0,0,0,0,0,0,0,0,0,0,0,0,0,0,0,0,0,0,0,0,0,0,0,0,0,0,0,0,0,0,0,0,0,0,0,0,0,0,0,0,0,0,0,0,0,0,0,0,0,
0,0,0,0,0,0,0,0,0,0,0,0,0,0,0,0,0,0,0,0,0,0,0,0,0,0,0,0,0,0,0,0,0,0,0,0,0,0,0,0,0,0,0,0,0,0,0,0,0,0,0,0,0,0,0,0,0,0,0,0,0,0,0,0,0,
0,0,0,0,0,0,0,0,0,0,0,0,0,0,0,0,0,0,0,0,0,0,0,0,0,0,0,0,0,0,0,0,0,0,0,0,0,0,0,0,0,0,0,0,0,0,0,0,0,0,0,0,0,0,0,0,0,0,0,0,0,0,0,0,0,
0,0,0,0,0,0,0,0,0,0,0,0,0,0,0,0,0,0,0,0,0,0,0,0,0,0,0,0,0,0,0,0,0,0,0,0,0,0,0,0,0,0,0,0,0,0,0,0,0,0,0,0,0,0,0,0,0,0,0,0,0,0,0,0,0,
0,0,0,0,0,0,0,0,0,0,0,0,0,0,0,0,0,0,0,0,0,0,0,0,0,0,0,0,0,0,0,0,0,0,0,0,0,0,0,0,0,0,0,0,0,0,0,0,0,0,0,0,0,0,0,0,0,0,0,0,0,0,0,0,0,
0,0,0,0,0,0,0,0,0,0,0,0,0,0,0,0,0,0,0,0,0,0,0,0,0,0,0,0,0,0,0,0,0,0,0,0,0,0,0,0,0,0,0,0,0,0,0,0,0,0,0,0,0,0,0,0,0,0,0,0,0,0,0,0,0,
0,0,0,0,0,0,0,0,0,0,0,0,0,0,0,0,0,0,0,0,0,0,0,0,0,0,0,0,0,0,0,0,0,0,0,0,0,0,0,0,0,0,0,0,0,0,0,0,0,0,0,0,0,0,0,0,0,0,0,0,0,0,0,0,0,
0,0,0,0,0,0,0,0,0,0,0,0,0,0,0,0,0,0,0,0,0,0,0,0,0,0,0,0,0,0,0,0,0,0,0,0,0,0,0,0,0,0,0,0,0,0,0,0,0,0,0,0,0,0,0,0,0,0,0,0,0,0,0,0,0,
0,0,0,0,0,0,0,0,0,0,0,0,0,0,0,0,0,0,0,0,0,0,0,0,0,0,0,0,0,0,0,0,0,0,0,0,0,0,0,0,0,0,0,0,0,0,0,0,0,0,0,0,0,0,0,0,0,0,0,0,0,0,0,0,0,
0,0,0,0,0,0,0,0,0,0,0,0,0,0,0,0,0,0,0,0,0,0,0,0,0,0,0,0,0,0,0,0,0,0,0,0,0,0,0,0,0,0,0,0,0,0,0,0,0,0,0,0,0,0,0,0,0,0,0,0,0,0,0,0,0,
0,0,0,0,0,0,0,0,0,0,0,0,0,0,0,0,0,0,0,0,0,0,0,0,0,0,0,0,0,0,0,0,0,0,0,0,0,0,0,0,0,0,0,0,0,0,0,0,0,0,0,0,0,0,0,0,0,0,0,0,0,0,0,0,0,
0,0,0,0,0,0,0,0,0,0,0,0,0,0,0,0,0,0,0,0,0,0,0,0,0,0,0,0,0,0,0,0,0,0,0,0,0,0,0,0,0,0,0,0,0,0,0,0,0,0,0,0,0,0,0,0,0,0,0,0,0,0,0,0,0,
0,0,0,0,0,0,0,0,0,14661,0,0,0,0,0,0,0,0,0,0,0,0,0,0,0,0,0,0,0,0,0,0,0,0,0,0,0,0,0,0,0,0,0,0,0,0,0,0,0,0,0,0,0,0,0,0,0,0,0,0,0,0,0,0,0,
0,0,0,0,0,0,0,0,0,0,0,0,0,0,0,0,0,0,0,0,0,0,0,0,0,0,0,0,0,0,0,0,0,0,0,0,0,0,0,0,0,0,0,0,0,0,0,0,0,0,0,0,0,0,0,0,0,0,0,0,0,0,0,4722,0,
0,0,0,0,0,0,0,0,0,0,0,0,0,0,0,0,0,0,0,0,0,0,0,0,0,0,0,0,0,0,0,0,0,0,0,0,0,0,0,0,0,0,0,0,0,0,0,0,0,0,0,0,0,0,0,0,0,0,0,0,0,0,0,0,0,
0,0,0,0,0,0,0,0,0,0,0,0,0,0,0,0,0,0,0,0,0,0,0,0,0,0,0,0,0,0,0,0,0,0,0,0,0,0,0,0,0,0,0,0,0,0,0,0,0,0,0,0,0,0,0,0,0,0,0,0,0,0,0,0,0,
0,0,0,0,0,0,0,0,0,0,0,0,0,0,0,0,0,0,0,0,0,0,0,0,0,0,0,0,0,0,0,0,0,0,0,0,0,0,0,0,0,0,0,0,0,0,0,0,0,0,0,0,0,0,0,0,0,0,0,0,0,0,0,0,0,
0,0,0,0,0,0,0,0,0,0,0,0,0,0,0,0,0,0,0,0,0,0,0,0,0,0,0,0,0,0,0,0,0,0,0,0,0,0,0,0,0,0,0,0,0,0,0,0,0,0,0,0,0,0,0,0,0,0,0,0,0,0,0,0,0,
0,0,0,0,0,0,0,0,0,0,0,0,0,0,0,0,0,0,0,0,0,0,0,0,0,0,0,0,0,0,0,0,0,0,0,0,0,0,0,0,0,0,0,0,0,0,0,0,0,0,0,0,0,0,0,0,0,0,0,0,0,0,0,0,0,
0,0,0,0,0,0,0,0,0,0,0,0,0,0,0,0,0,0,0,0,0,0,0,0,0,0,0,0,0,0,0,0,0,0,0,0,0,0,0,0,0,0,0,0,0,0,0,0,0,0,0,0,0,0,0,0,0,0,0,0,0,0,0,0,0,
0,0,0,0,0,0,0,0,0,0,0,0,0,0,0,0,0,0,0,0,0,0,0,0,0,0,0,0,0,0,0,0,0,0,0,0,0,0,0,0,0,0,0,0,0,0,0,0,0,0,0,0,0,0,0,0,0,0,0,0,0,0,0,0,0,
0,0,0,0,0,0,0,0,0,0,0,0,0,0,0,0,0,0,0,0,0,0,0,0,0,0,0,0,0,0,0,0,0,0,0,0,0,0,0,0,0,0,0,0,0,0,0,0,0,0,0,0,0,0,0,0,0,0,0,0,0,0,0,0,0,
0,0,0,0,0,0,0,0,0,0,0,0,0,0,0,0,0,0,0,0,0,0,0,0,0,0,0,0,0,0,0,0,0,0,0,0,0,0,0,0,0,0,0,0,0,0,0,0,0,0,0,0,0,0,0,0,0,0,0,0,0,0,0,0,0,
0,0,0,0,0,0,0,0,0,0,0,0,0,0,0,0,0,0,0,0,0,0,0,0,0,0,0,0,0,0,0,0,0,0,0,0,0,0,0,0,0,0,0,0,0,0,0,0,0,0,0,0,0,0,0,0,0,0,0,0,0,0,0,0,0,
0,0,0,0,0,0,0,0,0,0,0,0,0,0,0,0,0,0,0,0,0,0,0,0,0,0,0,0,0,0,0,0,0,0,0,0,0,0,0,0,0,0,0,0,0,0,0,0,0,0,0,0,0,0,0,0,0,0,0,0,0,0,0,0,0,
0,0,0,0,0,0,0,0,0,0,0,0,0,0,0,0,0,0,0,0,0,0,0,0,0,0,0,0,0,0,0,0,0,0,0,0,0,0,0,0,0,0,0,0,0,0,0,0,0,0,0,0,0,0,0,0,0,0,0,0,0,0,0,0,0,
0,0,0,0,0,0,0,0,0,0,0,0,0,0,0,0,0,0,0,0,0,0,0,0,0,0,0,0,0,0,0,0,0,0,0,0,0,0,0,0,0,0,0,0,0,0,0,0,0,0,0,0,0,0,0,0,0,0,0,0,0,0,0,0,0
</data>
 </layer>
 <objectgroup id="4" name="Objects">
  <object id="40003" template="../../../../../../common/maps/obj/enemy.tx" x="879.5" y="575.25">
   <properties>
    <property name="Type" value="FEM Floodwater Homarid" />
    <property name="effect" value="{&quot;startBattleWithCard&quot;: [&quot;Flood Plain|MIR&quot;, &quot;Flooded Woodlands|ICE&quot;, &quot;Floodgate|MIR&quot;, &quot;Floodwater Dam|ALL&quot;], &quot;startBattleWithCardInCommandZone&quot;: []}" />
    <property name="enemy" value="FEM Floodwater Homarid" />
    <property name="threatRange" type="int" value="8" />
    <property name="displayNameOverride" value="Floodwater Homarid" />
    <property name="inactive" value="true" type="bool" />
    <property name="pursueRange" value="16" type="int" />
    <property name="defeatDialog" value="[{&quot;action&quot;: [{&quot;advanceMapFlag&quot;: &quot;FE_Svyelunite_OpponentsDefeated&quot;}, {&quot;setMapFlag&quot;: {&quot;key&quot;: &quot;FE_Svyelunite_DamCleared&quot;, &quot;val&quot;: 1}}, {&quot;deleteMapObject&quot;: -1}]}]" />
   </properties>
  </object>
  <object id="40004" template="../../../../../../common/maps/obj/enemy.tx" x="974.75" y="368.75">
   <properties>
    <property name="Type" value="FEM Viscerid Drone" />
    <property name="effect" value="{&quot;startBattleWithCard&quot;: [&quot;River Delta|ICE&quot;, &quot;Tidal Influence|FEM&quot;, &quot;Undertow|LEG&quot;, &quot;Viscerid Drone|ALL&quot;], &quot;startBattleWithCardInCommandZone&quot;: []}" />
    <property name="enemy" value="FEM Viscerid Drone" />
    <property name="threatRange" type="int" value="30" />
    <property name="waypoints" value="126,127,128" />
    <property name="displayNameOverride" value="Viscerid Drone" />
    <property name="inactive" value="true" type="bool" />
    <property name="defeatDialog" value="[{&quot;action&quot;: [{&quot;advanceMapFlag&quot;: &quot;FE_Svyelunite_OpponentsDefeated&quot;}, {&quot;deleteMapObject&quot;: -1}]}]" />
   </properties>
  </object>
  <object id="40005" template="../../../../../../common/maps/obj/enemy.tx" x="942" y="468.5">
   <properties>
    <property name="Type" value="FEM Viscerid Drone" />
    <property name="effect" value="{&quot;startBattleWithCard&quot;: [&quot;River Delta|ICE&quot;, &quot;Tidal Influence|FEM&quot;, &quot;Undertow|LEG&quot;, &quot;Viscerid Drone|ALL&quot;], &quot;startBattleWithCardInCommandZone&quot;: []}" />
    <property name="enemy" value="FEM Viscerid Drone" />
    <property name="threatRange" type="int" value="30" />
    <property name="waypoints" value="123,125,124,122" />
    <property name="displayNameOverride" value="Viscerid Drone" />
    <property name="inactive" value="true" type="bool" />
    <property name="defeatDialog" value="[{&quot;action&quot;: [{&quot;advanceMapFlag&quot;: &quot;FE_Svyelunite_OpponentsDefeated&quot;}, {&quot;deleteMapObject&quot;: -1}]}]" />
   </properties>
  </object>
  <object id="6" template="../../../../../../common/maps/obj/treasure.tx" x="304.182" y="32.5455" />
  <object id="7" template="../../../../../../common/maps/obj/treasure.tx" x="272" y="32.1818" />
  <object id="8" template="../../../../../../common/maps/obj/manashards.tx" x="384.364" y="79.8182" />
  <object id="9" template="../../../../../../common/maps/obj/entry_up.tx" gid="11343" x="-4.21453" y="675.558" width="47.9849" height="26.938" rotation="41" />
  <object id="40011" template="../../../../../../common/maps/obj/enemy.tx" x="622.833" y="683.667">
   <properties>
    <property name="Type" value="FEM River Merfolk" />
    <property name="effect" value="{&quot;startBattleWithCard&quot;: [&quot;Sheltered Valley|ALL&quot;, &quot;Raging River|2ED&quot;, &quot;River Merfolk|FEM&quot;], &quot;startBattleWithCardInCommandZone&quot;: []}" />
    <property name="enemy" value="FEM River Merfolk" />
    <property name="threatRange" type="int" value="30" />
    <property name="waypoints" value="48,47,48,49,50,51,52,51,50,49" />
    <property name="displayNameOverride" value="River Merfolk" />
    <property name="inactive" value="true" type="bool" />
    <property name="defeatDialog" value="[{&quot;action&quot;: [{&quot;advanceMapFlag&quot;: &quot;FE_Svyelunite_OpponentsDefeated&quot;}, {&quot;deleteMapObject&quot;: -1}]}]" />
   </properties>
  </object>
  <object id="40013" template="../../../../../../common/maps/obj/enemy.tx" x="287" y="689">
   <properties>
    <property name="Type" value="FEM River Merfolk" />
    <property name="effect" value="{&quot;startBattleWithCard&quot;: [&quot;Sheltered Valley|ALL&quot;, &quot;Raging River|2ED&quot;, &quot;River Merfolk|FEM&quot;], &quot;startBattleWithCardInCommandZone&quot;: []}" />
    <property name="enemy" value="FEM River Merfolk" />
    <property name="threatRange" type="int" value="30" />
    <property name="waypoints" value="44,129,130,45,131,132,46,132,131,45,130,129" />
    <property name="displayNameOverride" value="River Merfolk" />
    <property name="inactive" value="true" type="bool" />
    <property name="defeatDialog" value="[{&quot;action&quot;: [{&quot;advanceMapFlag&quot;: &quot;FE_Svyelunite_OpponentsDefeated&quot;}, {&quot;deleteMapObject&quot;: -1}]}]" />
   </properties>
  </object>
  <object id="12" template="../../../../../../common/maps/obj/manashards.tx" x="605.5" y="701.5" />
  <object id="40015" template="../../../../../../common/maps/obj/enemy.tx" x="48" y="78.75" rotation="-90">
   <properties>
    <property name="Type" value="FEM Vodalian Merchant" />
    <property name="effect" value="{&quot;startBattleWithCard&quot;: [&quot;Svyelunite Temple|FEM&quot;, &quot;Trade Routes|MMQ&quot;, &quot;Vodalian Merchant|INV&quot;], &quot;startBattleWithCardInCommandZone&quot;: []}" />
    <property name="enemy" value="FEM Vodalian Merchant" />
    <property name="threatRange" type="int" value="30" />
    <property name="displayNameOverride" value="Vodalian Merchant" />
    <property name="inactive" value="true" type="bool" />
    <property name="defeatDialog" value="[{&quot;action&quot;: [{&quot;advanceMapFlag&quot;: &quot;FE_Svyelunite_OpponentsDefeated&quot;}, {&quot;deleteMapObject&quot;: -1}]}]" />
   </properties>
  </object>
  <object id="40016" template="../../../../../../common/maps/obj/enemy.tx" x="160.432" y="47.8409" rotation="0">
   <properties>
    <property name="Type" value="FEM Vodalian War Machine" />
    <property name="effect" value="{&quot;startBattleWithCard&quot;: [&quot;Svyelunite Temple|FEM&quot;, &quot;Vodalian War Machine|FEM&quot;, &quot;Vodalian Soldiers|FEM|[31c]&quot;, &quot;Lifeline|USG&quot;], &quot;startBattleWithCardInCommandZone&quot;: []}" />
    <property name="enemy" value="FEM Vodalian War Machine" />
    <property name="threatRange" type="int" value="20" />
    <property name="pursueRange" type="int" value="32" />
    <property name="displayNameOverride" value="Vodalian War Machine" />
    <property name="inactive" value="true" type="bool" />
    <property name="dialog" value="[{&quot;text&quot;: &quot;The great shell-plated machine groans into motion as its crew turns the prow toward you.&quot;, &quot;options&quot;: [{&quot;name&quot;: &quot;(Fight)&quot;, &quot;action&quot;: [{&quot;battleWithActorID&quot;: -1}]}, {&quot;name&quot;: &quot;(Withdraw)&quot;}]}]" />
    <property name="defeatDialog" value="[{&quot;action&quot;: [{&quot;advanceMapFlag&quot;: &quot;FE_Svyelunite_OpponentsDefeated&quot;}, {&quot;deleteMapObject&quot;: -1}]}]" />
   </properties>
  </object>
  <object id="40017" template="../../../../../../common/maps/obj/enemy.tx" x="256.5" y="47.5">
   <properties>
    <property name="Type" value="FEM Svyelunite Priest" />
    <property name="effect" value="{&quot;startBattleWithCard&quot;: [&quot;Svyelunite Temple|FEM&quot;, &quot;Svyelunite Priest|FEM&quot;, &quot;Squeeze|MMQ&quot;, &quot;Worry Beads|MMQ&quot;, &quot;Pedantic Learning|ODY&quot;], &quot;startBattleWithCardInCommandZone&quot;: []}" />
    <property name="enemy" value="FEM Svyelunite Priest" />
    <property name="threatRange" type="int" value="30" />
    <property name="displayNameOverride" value="Svyelunite Priest" />
    <property name="inactive" value="true" type="bool" />
    <property name="defeatDialog" value="[{&quot;action&quot;: [{&quot;advanceMapFlag&quot;: &quot;FE_Svyelunite_OpponentsDefeated&quot;}, {&quot;deleteMapObject&quot;: -1}]}]" />
   </properties>
  </object>
  <object id="40043" template="../../../../../../common/maps/obj/enemy.tx" x="31.4091" y="369.818">
   <properties>
    <property name="Type" value="FEM Svyelunite Priest" />
    <property name="effect" value="{&quot;startBattleWithCard&quot;: [&quot;Svyelunite Temple|FEM&quot;, &quot;Svyelunite Priest|FEM&quot;, &quot;Squeeze|MMQ&quot;, &quot;Worry Beads|MMQ&quot;, &quot;Pedantic Learning|ODY&quot;], &quot;startBattleWithCardInCommandZone&quot;: []}" />
    <property name="enemy" value="FEM Svyelunite Priest" />
    <property name="threatRange" type="int" value="30" />
    <property name="waypoints" value="103,104,105" />
    <property name="displayNameOverride" value="Svyelunite Priest" />
    <property name="inactive" value="true" type="bool" />
    <property name="defeatDialog" value="[{&quot;action&quot;: [{&quot;advanceMapFlag&quot;: &quot;FE_Svyelunite_OpponentsDefeated&quot;}, {&quot;deleteMapObject&quot;: -1}]}]" />
   </properties>
  </object>
  <object id="40018" template="../../../../../../common/maps/obj/enemy.tx" x="271.864" y="96.25">
   <properties>
    <property name="Type" value="FEM Seasinger" />
    <property name="effect" value="{&quot;startBattleWithCard&quot;: [&quot;Svyelunite Temple|FEM&quot;, &quot;Island|3ED&quot;, &quot;Mystic Decree|HML&quot;, &quot;Lilting Refrain|USG&quot;, &quot;Seasinger|FEM&quot;], &quot;startBattleWithCardInCommandZone&quot;: []}" />
    <property name="enemy" value="FEM Seasinger" />
    <property name="threatRange" type="int" value="30" />
    <property name="displayNameOverride" value="Seasinger" />
    <property name="inactive" value="true" type="bool" />
    <property name="dialog" value="[{&quot;text&quot;: &quot;The Seasinger's melody turns cold and commanding. \&quot;Kneel, or the sea will teach you obedience.\&quot;&quot;, &quot;options&quot;: [{&quot;name&quot;: &quot;(Fight)&quot;, &quot;action&quot;: [{&quot;battleWithActorID&quot;: -1}]}, {&quot;name&quot;: &quot;(Withdraw)&quot;}]}]" />
    <property name="defeatDialog" value="[{&quot;action&quot;: [{&quot;advanceMapFlag&quot;: &quot;FE_Svyelunite_OpponentsDefeated&quot;}, {&quot;deleteMapObject&quot;: -1}]}]" />
   </properties>
  </object>
  <object id="40019" template="../../../../../../common/maps/obj/enemy.tx" x="343.75" y="71.5">
   <properties>
    <property name="Type" value="FEM Vodalian Mage C" />
    <property name="effect" value="{&quot;startBattleWithCard&quot;: [&quot;Svyelunite Temple|FEM&quot;, &quot;Coral Atoll|VIS&quot;, &quot;Vodalian Mage|FEM|[30c]&quot;], &quot;startBattleWithCardInCommandZone&quot;: []}" />
    <property name="enemy" value="FEM Vodalian Mage C" />
    <property name="threatRange" type="int" value="30" />
    <property name="waypoints" value="108,109" />
    <property name="displayNameOverride" value="Vodalian Mage" />
    <property name="inactive" value="true" type="bool" />
    <property name="defeatDialog" value="[{&quot;action&quot;: [{&quot;advanceMapFlag&quot;: &quot;FE_Svyelunite_OpponentsDefeated&quot;}, {&quot;deleteMapObject&quot;: -1}]}]" />
   </properties>
  </object>
  <object id="40020" template="../../../../../../common/maps/obj/enemy.tx" x="176" y="415.25">
   <properties>
    <property name="Type" value="FEM Vodalian Mage B" />
    <property name="effect" value="{&quot;startBattleWithCard&quot;: [&quot;Svyelunite Temple|FEM&quot;, &quot;Coral Atoll|VIS&quot;, &quot;Vodalian Mage|FEM|[30b]&quot;], &quot;startBattleWithCardInCommandZone&quot;: []}" />
    <property name="enemy" value="FEM Vodalian Mage B" />
    <property name="threatRange" type="int" value="30" />
    <property name="waypoints" value="91,92,93,92,91,94" />
    <property name="displayNameOverride" value="Vodalian Mage" />
    <property name="inactive" value="true" type="bool" />
    <property name="defeatDialog" value="[{&quot;action&quot;: [{&quot;advanceMapFlag&quot;: &quot;FE_Svyelunite_OpponentsDefeated&quot;}, {&quot;deleteMapObject&quot;: -1}]}]" />
   </properties>
  </object>
  <object id="40041" template="../../../../../../common/maps/obj/enemy.tx" x="-0.113636" y="224.318">
   <properties>
    <property name="Type" value="FEM Vodalian Mage A" />
    <property name="effect" value="{&quot;startBattleWithCard&quot;: [&quot;Svyelunite Temple|FEM&quot;, &quot;Coral Atoll|VIS&quot;, &quot;Vodalian Mage|FEM|[30a]&quot;], &quot;startBattleWithCardInCommandZone&quot;: []}" />
    <property name="enemy" value="FEM Vodalian Mage A" />
    <property name="pursueRange" type="int" value="30" />
    <property name="threatRange" type="int" value="30" />
    <property name="displayNameOverride" value="Vodalian Mage" />
    <property name="inactive" value="true" type="bool" />
    <property name="defeatDialog" value="[{&quot;action&quot;: [{&quot;advanceMapFlag&quot;: &quot;FE_Svyelunite_OpponentsDefeated&quot;}, {&quot;deleteMapObject&quot;: -1}]}]" />
   </properties>
  </object>
  <object id="40021" template="../../../../../../common/maps/obj/enemy.tx" x="433.25" y="69.25">
   <properties>
    <property name="Type" value="FEM Homarid Deep Spawn" />
    <property name="effect" value="{&quot;startBattleWithCard&quot;: [&quot;Island|3ED&quot;, &quot;Island|3ED&quot;, &quot;Seafloor Debris|ODY&quot;, &quot;Tidal Influence|FEM&quot;, &quot;Triassic Egg|LEG&quot;, &quot;Mystic Decree|HML&quot;], &quot;startBattleWithCardInCommandZone&quot;: []}" />
    <property name="enemy" value="FEM Homarid Deep Spawn" />
    <property name="threatRange" type="int" value="30" />
    <property name="waypoints" value="108,111" />
    <property name="displayNameOverride" value="Homarid Deep Spawn" />
    <property name="inactive" value="true" type="bool" />
    <property name="dialog" value="[{&quot;text&quot;: &quot;The ancient Deep Spawn rises until it eclipses the surf. \&quot;Little shore-walker... sink with the old stones...\&quot;&quot;, &quot;options&quot;: [{&quot;name&quot;: &quot;(Fight)&quot;, &quot;action&quot;: [{&quot;battleWithActorID&quot;: -1}]}, {&quot;name&quot;: &quot;(Withdraw)&quot;}]}]" />
    <property name="defeatDialog" value="[{&quot;action&quot;: [{&quot;advanceMapFlag&quot;: &quot;FE_Svyelunite_OpponentsDefeated&quot;}, {&quot;deleteMapObject&quot;: -1}]}]" />
   </properties>
  </object>
  <object id="40031" template="../../../../../../common/maps/obj/enemy.tx" x="781.25" y="141.25">
   <properties>
    <property name="Type" value="FEM Homarid Deep Spawn" />
    <property name="effect" value="{&quot;startBattleWithCard&quot;: [&quot;Island|3ED&quot;, &quot;Island|3ED&quot;, &quot;Seafloor Debris|ODY&quot;, &quot;Tidal Influence|FEM&quot;, &quot;Triassic Egg|LEG&quot;, &quot;Mystic Decree|HML&quot;], &quot;startBattleWithCardInCommandZone&quot;: []}" />
    <property name="enemy" value="FEM Homarid Deep Spawn" />
    <property name="threatRange" type="int" value="30" />
    <property name="waypoints" value="" />
    <property name="displayNameOverride" value="Homarid Deep Spawn" />
    <property name="inactive" value="true" type="bool" />
    <property name="dialog" value="[{&quot;text&quot;: &quot;The ancient Deep Spawn rises until it eclipses the surf. \&quot;Little shore-walker... sink with the old stones...\&quot;&quot;, &quot;options&quot;: [{&quot;name&quot;: &quot;(Fight)&quot;, &quot;action&quot;: [{&quot;battleWithActorID&quot;: -1}]}, {&quot;name&quot;: &quot;(Withdraw)&quot;}]}]" />
    <property name="defeatDialog" value="[{&quot;action&quot;: [{&quot;advanceMapFlag&quot;: &quot;FE_Svyelunite_OpponentsDefeated&quot;}, {&quot;deleteMapObject&quot;: -1}]}]" />
   </properties>
  </object>
  <object id="40022" template="../../../../../../common/maps/obj/enemy.tx" x="356.75" y="106">
   <properties>
    <property name="Type" value="FEM Vodalian Knight" />
    <property name="effect" value="{&quot;startBattleWithCard&quot;: [&quot;Svyelunite Temple|FEM&quot;, &quot;Island|3ED&quot;, &quot;Coral Reef|HML&quot;, &quot;Vodalian Knights|FEM&quot;], &quot;startBattleWithCardInCommandZone&quot;: []}" />
    <property name="enemy" value="FEM Vodalian Knight" />
    <property name="threatRange" type="int" value="30" />
    <property name="waypoints" value="108,110" />
    <property name="displayNameOverride" value="Vodalian Knight" />
    <property name="inactive" value="true" type="bool" />
    <property name="defeatDialog" value="[{&quot;action&quot;: [{&quot;advanceMapFlag&quot;: &quot;FE_Svyelunite_OpponentsDefeated&quot;}, {&quot;deleteMapObject&quot;: -1}]}]" />
   </properties>
  </object>
  <object id="40023" template="../../../../../../common/maps/obj/enemy.tx" x="79.5" y="256">
   <properties>
    <property name="Type" value="FEM Vodalian Knight" />
    <property name="effect" value="{&quot;startBattleWithCard&quot;: [&quot;Svyelunite Temple|FEM&quot;, &quot;Island|3ED&quot;, &quot;Coral Reef|HML&quot;, &quot;Vodalian Knights|FEM&quot;], &quot;startBattleWithCardInCommandZone&quot;: []}" />
    <property name="enemy" value="FEM Vodalian Knight" />
    <property name="threatRange" type="int" value="30" />
    <property name="waypoints" value="79,78,77,78" />
    <property name="displayNameOverride" value="Vodalian Knight" />
    <property name="inactive" value="true" type="bool" />
    <property name="defeatDialog" value="[{&quot;action&quot;: [{&quot;advanceMapFlag&quot;: &quot;FE_Svyelunite_OpponentsDefeated&quot;}, {&quot;deleteMapObject&quot;: -1}]}]" />
   </properties>
  </object>
  <object id="40042" template="../../../../../../common/maps/obj/enemy.tx" x="191.25" y="368.75">
   <properties>
    <property name="Type" value="FEM Vodalian Knight" />
    <property name="effect" value="{&quot;startBattleWithCard&quot;: [&quot;Svyelunite Temple|FEM&quot;, &quot;Island|3ED&quot;, &quot;Coral Reef|HML&quot;, &quot;Vodalian Knights|FEM&quot;], &quot;startBattleWithCardInCommandZone&quot;: []}" />
    <property name="enemy" value="FEM Vodalian Knight" />
    <property name="threatRange" type="int" value="30" />
    <property name="waypoints" value="80,81,80,79" />
    <property name="displayNameOverride" value="Vodalian Knight" />
    <property name="inactive" value="true" type="bool" />
    <property name="defeatDialog" value="[{&quot;action&quot;: [{&quot;advanceMapFlag&quot;: &quot;FE_Svyelunite_OpponentsDefeated&quot;}, {&quot;deleteMapObject&quot;: -1}]}]" />
   </properties>
  </object>
  <object id="40024" template="../../../../../../common/maps/obj/enemy.tx" x="279" y="423">
   <properties>
    <property name="Type" value="FEM Vodalian Soldier A" />
    <property name="effect" value="{&quot;startBattleWithCard&quot;: [&quot;Svyelunite Temple|FEM&quot;, &quot;Coral Reef|HML&quot;, &quot;Vodalian Soldiers|FEM|[31a]&quot;], &quot;startBattleWithCardInCommandZone&quot;: []}" />
    <property name="enemy" value="FEM Vodalian Soldier A" />
    <property name="threatRange" type="int" value="30" />
    <property name="waypoints" value="89,92,91" />
    <property name="displayNameOverride" value="Vodalian Soldier" />
    <property name="inactive" value="true" type="bool" />
    <property name="defeatDialog" value="[{&quot;action&quot;: [{&quot;advanceMapFlag&quot;: &quot;FE_Svyelunite_OpponentsDefeated&quot;}, {&quot;deleteMapObject&quot;: -1}]}]" />
   </properties>
  </object>
  <object id="40040" template="../../../../../../common/maps/obj/enemy.tx" x="48.75" y="177.182">
   <properties>
    <property name="Type" value="FEM Vodalian Soldier D" />
    <property name="effect" value="{&quot;startBattleWithCard&quot;: [&quot;Svyelunite Temple|FEM&quot;, &quot;Coral Reef|HML&quot;, &quot;Vodalian Soldiers|FEM|[31d]&quot;], &quot;startBattleWithCardInCommandZone&quot;: []}" />
    <property name="enemy" value="FEM Vodalian Soldier D" />
    <property name="threatRange" type="int" value="30" />
    <property name="waypoints" value="" />
    <property name="displayNameOverride" value="Vodalian Soldier" />
    <property name="inactive" value="true" type="bool" />
    <property name="defeatDialog" value="[{&quot;action&quot;: [{&quot;advanceMapFlag&quot;: &quot;FE_Svyelunite_OpponentsDefeated&quot;}, {&quot;deleteMapObject&quot;: -1}]}]" />
   </properties>
  </object>
  <object id="40039" template="../../../../../../common/maps/obj/enemy.tx" x="81.5" y="495.75">
   <properties>
    <property name="Type" value="FEM Vodalian Soldier C" />
    <property name="effect" value="{&quot;startBattleWithCard&quot;: [&quot;Svyelunite Temple|FEM&quot;, &quot;Coral Reef|HML&quot;, &quot;Vodalian Soldiers|FEM|[31c]&quot;], &quot;startBattleWithCardInCommandZone&quot;: []}" />
    <property name="enemy" value="FEM Vodalian Soldier C" />
    <property name="threatRange" type="int" value="30" />
    <property name="waypoints" value="93,95,96" />
    <property name="displayNameOverride" value="Vodalian Soldier" />
    <property name="inactive" value="true" type="bool" />
    <property name="defeatDialog" value="[{&quot;action&quot;: [{&quot;advanceMapFlag&quot;: &quot;FE_Svyelunite_OpponentsDefeated&quot;}, {&quot;deleteMapObject&quot;: -1}]}]" />
   </properties>
  </object>
  <object id="40038" template="../../../../../../common/maps/obj/enemy.tx" x="241.75" y="545">
   <properties>
    <property name="Type" value="FEM Vodalian Soldier B" />
    <property name="effect" value="{&quot;startBattleWithCard&quot;: [&quot;Svyelunite Temple|FEM&quot;, &quot;Coral Reef|HML&quot;, &quot;Vodalian Soldiers|FEM|[31b]&quot;], &quot;startBattleWithCardInCommandZone&quot;: []}" />
    <property name="enemy" value="FEM Vodalian Soldier B" />
    <property name="threatRange" type="int" value="30" />
    <property name="waypoints" value="87,97,98" />
    <property name="displayNameOverride" value="Vodalian Soldier" />
    <property name="inactive" value="true" type="bool" />
    <property name="defeatDialog" value="[{&quot;action&quot;: [{&quot;advanceMapFlag&quot;: &quot;FE_Svyelunite_OpponentsDefeated&quot;}, {&quot;deleteMapObject&quot;: -1}]}]" />
   </properties>
  </object>
  <object id="40025" template="../../../../../../common/maps/obj/enemy.tx" x="353.25" y="432.75">
   <properties>
    <property name="Type" value="FEM Homarid Green" />
    <property name="effect" value="{&quot;startBattleWithCard&quot;: [&quot;Seafloor Debris|ODY&quot;, &quot;Tidal Influence|FEM&quot;, &quot;Tidal Flats|FEM|[27b]&quot;, &quot;Homarid|FEM|[19a]&quot;], &quot;startBattleWithCardInCommandZone&quot;: []}" />
    <property name="enemy" value="FEM Homarid Green" />
    <property name="threatRange" type="int" value="30" />
    <property name="waypoints" value="89,85,87,86,89" />
    <property name="displayNameOverride" value="Homarid" />
    <property name="inactive" value="true" type="bool" />
    <property name="defeatDialog" value="[{&quot;action&quot;: [{&quot;advanceMapFlag&quot;: &quot;FE_Svyelunite_OpponentsDefeated&quot;}, {&quot;deleteMapObject&quot;: -1}]}]" />
   </properties>
  </object>
  <object id="40033" template="../../../../../../common/maps/obj/enemy.tx" x="431" y="384.75">
   <properties>
    <property name="Type" value="FEM Homarid Purple" />
    <property name="effect" value="{&quot;startBattleWithCard&quot;: [&quot;Seafloor Debris|ODY&quot;, &quot;Tidal Influence|FEM&quot;, &quot;Tidal Flats|FEM|[27b]&quot;, &quot;Homarid|FEM|[19c]&quot;], &quot;startBattleWithCardInCommandZone&quot;: []}" />
    <property name="enemy" value="FEM Homarid Purple" />
    <property name="threatRange" type="int" value="30" />
    <property name="waypoints" value="89,82,90" />
    <property name="displayNameOverride" value="Homarid" />
    <property name="inactive" value="true" type="bool" />
    <property name="defeatDialog" value="[{&quot;action&quot;: [{&quot;advanceMapFlag&quot;: &quot;FE_Svyelunite_OpponentsDefeated&quot;}, {&quot;deleteMapObject&quot;: -1}]}]" />
   </properties>
  </object>
  <object id="40034" template="../../../../../../common/maps/obj/enemy.tx" x="704.5" y="305.25">
   <properties>
    <property name="Type" value="FEM Homarid Red" />
    <property name="effect" value="{&quot;startBattleWithCard&quot;: [&quot;Seafloor Debris|ODY&quot;, &quot;Tidal Influence|FEM&quot;, &quot;Tidal Flats|FEM|[27a]&quot;, &quot;Homarid|FEM|[19d]&quot;], &quot;startBattleWithCardInCommandZone&quot;: []}" />
    <property name="enemy" value="FEM Homarid Red" />
    <property name="threatRange" type="int" value="30" />
    <property name="waypoints" value="113,134,133" />
    <property name="displayNameOverride" value="Homarid" />
    <property name="inactive" value="true" type="bool" />
    <property name="defeatDialog" value="[{&quot;action&quot;: [{&quot;advanceMapFlag&quot;: &quot;FE_Svyelunite_OpponentsDefeated&quot;}, {&quot;deleteMapObject&quot;: -1}]}]" />
   </properties>
  </object>
  <object id="40032" template="../../../../../../common/maps/obj/enemy.tx" x="368.25" y="513.25">
   <properties>
    <property name="Type" value="FEM Homarid Yellow" />
    <property name="effect" value="{&quot;startBattleWithCard&quot;: [&quot;Seafloor Debris|ODY&quot;, &quot;Tidal Influence|FEM&quot;, &quot;Tidal Flats|FEM|[27b]&quot;, &quot;Homarid|FEM|[19b]&quot;], &quot;startBattleWithCardInCommandZone&quot;: []}" />
    <property name="enemy" value="FEM Homarid Yellow" />
    <property name="threatRange" type="int" value="30" />
    <property name="waypoints" value="87,86,88" />
    <property name="displayNameOverride" value="Homarid" />
    <property name="inactive" value="true" type="bool" />
    <property name="defeatDialog" value="[{&quot;action&quot;: [{&quot;advanceMapFlag&quot;: &quot;FE_Svyelunite_OpponentsDefeated&quot;}, {&quot;deleteMapObject&quot;: -1}]}]" />
   </properties>
  </object>
  <object id="40026" template="../../../../../../common/maps/obj/enemy.tx" x="495.75" y="273.25">
   <properties>
    <property name="Type" value="FEM Homarid Warrior A" />
    <property name="effect" value="{&quot;startBattleWithCard&quot;: [&quot;Sand Silos|FEM&quot;, &quot;Tidal Influence|FEM&quot;, &quot;Tidal Flats|FEM|[27b]&quot;, &quot;Homarid Warrior|FEM|[22a]&quot;], &quot;startBattleWithCardInCommandZone&quot;: []}" />
    <property name="enemy" value="FEM Homarid Warrior A" />
    <property name="threatRange" type="int" value="30" />
    <property name="waypoints" value="83,82,81,82,83,84" />
    <property name="displayNameOverride" value="Homarid Warrior" />
    <property name="inactive" value="true" type="bool" />
    <property name="defeatDialog" value="[{&quot;action&quot;: [{&quot;advanceMapFlag&quot;: &quot;FE_Svyelunite_OpponentsDefeated&quot;}, {&quot;deleteMapObject&quot;: -1}]}]" />
   </properties>
  </object>
  <object id="40037" template="../../../../../../common/maps/obj/enemy.tx" x="702.5" y="209.5">
   <properties>
    <property name="Type" value="FEM Homarid Warrior 5ED" />
    <property name="effect" value="{&quot;startBattleWithCard&quot;: [&quot;Sand Silos|FEM&quot;, &quot;Tidal Influence|FEM&quot;, &quot;Tidal Flats|FEM|[27c]&quot;, &quot;Homarid Warrior|5ED&quot;], &quot;startBattleWithCardInCommandZone&quot;: []}" />
    <property name="enemy" value="FEM Homarid Warrior 5ED" />
    <property name="threatRange" type="int" value="30" />
    <property name="waypoints" value="114,84,114,115,116" />
    <property name="displayNameOverride" value="Homarid Warrior" />
    <property name="inactive" value="true" type="bool" />
    <property name="defeatDialog" value="[{&quot;action&quot;: [{&quot;advanceMapFlag&quot;: &quot;FE_Svyelunite_OpponentsDefeated&quot;}, {&quot;deleteMapObject&quot;: -1}]}]" />
   </properties>
  </object>
  <object id="40036" template="../../../../../../common/maps/obj/enemy.tx" x="558.25" y="511.75">
   <properties>
    <property name="Type" value="FEM Homarid Warrior C" />
    <property name="effect" value="{&quot;startBattleWithCard&quot;: [&quot;Sand Silos|FEM&quot;, &quot;Tidal Influence|FEM&quot;, &quot;Tidal Flats|FEM|[27a]&quot;, &quot;Homarid Warrior|FEM|[22c]&quot;], &quot;startBattleWithCardInCommandZone&quot;: []}" />
    <property name="enemy" value="FEM Homarid Warrior C" />
    <property name="threatRange" type="int" value="30" />
    <property name="waypoints" value="99,101,100,101,102,101,100,101" />
    <property name="displayNameOverride" value="Homarid Warrior" />
    <property name="inactive" value="true" type="bool" />
    <property name="defeatDialog" value="[{&quot;action&quot;: [{&quot;advanceMapFlag&quot;: &quot;FE_Svyelunite_OpponentsDefeated&quot;}, {&quot;deleteMapObject&quot;: -1}]}]" />
   </properties>
  </object>
  <object id="40035" template="../../../../../../common/maps/obj/enemy.tx" x="576" y="401.25">
   <properties>
    <property name="Type" value="FEM Homarid Warrior B" />
    <property name="effect" value="{&quot;startBattleWithCard&quot;: [&quot;Sand Silos|FEM&quot;, &quot;Tidal Influence|FEM&quot;, &quot;Tidal Flats|FEM|[27c]&quot;, &quot;Homarid Warrior|FEM|[22b]&quot;], &quot;startBattleWithCardInCommandZone&quot;: []}" />
    <property name="enemy" value="FEM Homarid Warrior B" />
    <property name="threatRange" type="int" value="30" />
    <property name="waypoints" value="99,112" />
    <property name="displayNameOverride" value="Homarid Warrior" />
    <property name="inactive" value="true" type="bool" />
    <property name="defeatDialog" value="[{&quot;action&quot;: [{&quot;advanceMapFlag&quot;: &quot;FE_Svyelunite_OpponentsDefeated&quot;}, {&quot;deleteMapObject&quot;: -1}]}]" />
   </properties>
  </object>
  <object id="40027" template="../../../../../../common/maps/obj/enemy.tx" x="576.25" y="319.75">
   <properties>
    <property name="Type" value="FEM Homarid Shaman" />
    <property name="effect" value="{&quot;startBattleWithCard&quot;: [&quot;Island|3ED&quot;, &quot;Sand Silos|FEM&quot;, &quot;Tidal Influence|FEM&quot;, &quot;Tidal Flats|FEM|[27b]&quot;, &quot;Homarid Shaman|FEM&quot;], &quot;startBattleWithCardInCommandZone&quot;: []}" />
    <property name="enemy" value="FEM Homarid Shaman" />
    <property name="threatRange" type="int" value="30" />
    <property name="waypoints" value="90,113,112,113" />
    <property name="displayNameOverride" value="Homarid Shaman" />
    <property name="inactive" value="true" type="bool" />
    <property name="defeatDialog" value="[{&quot;action&quot;: [{&quot;advanceMapFlag&quot;: &quot;FE_Svyelunite_OpponentsDefeated&quot;}, {&quot;deleteMapObject&quot;: -1}]}]" />
   </properties>
  </object>
  <object id="40074" template="../../../../../../common/maps/obj/enemy.tx" x="640.25" y="431.5">
   <properties>
    <property name="Type" value="FEM Homarid Shaman" />
    <property name="effect" value="{&quot;startBattleWithCard&quot;: [&quot;Island|3ED&quot;, &quot;Sand Silos|FEM&quot;, &quot;Tidal Influence|FEM&quot;, &quot;Tidal Flats|FEM|[27b]&quot;, &quot;Homarid Shaman|FEM&quot;], &quot;startBattleWithCardInCommandZone&quot;: []}" />
    <property name="enemy" value="FEM Homarid Shaman" />
    <property name="pursueRange" type="int" value="15" />
    <property name="threatRange" type="int" value="30" />
    <property name="displayNameOverride" value="Homarid Shaman" />
    <property name="inactive" value="true" type="bool" />
    <property name="defeatDialog" value="[{&quot;action&quot;: [{&quot;advanceMapFlag&quot;: &quot;FE_Svyelunite_OpponentsDefeated&quot;}, {&quot;deleteMapObject&quot;: -1}]}]" />
   </properties>
  </object>
  <object id="40030" template="../../../../../../common/maps/obj/enemy.tx" x="896.75" y="126.25">
   <properties>
    <property name="Type" value="FEM Homarid Shaman" />
    <property name="effect" value="{&quot;startBattleWithCard&quot;: [&quot;Island|3ED&quot;, &quot;Sand Silos|FEM&quot;, &quot;Tidal Influence|FEM&quot;, &quot;Tidal Flats|FEM|[27b]&quot;, &quot;Homarid Shaman|FEM&quot;], &quot;startBattleWithCardInCommandZone&quot;: []}" />
    <property name="enemy" value="FEM Homarid Shaman" />
    <property name="threatRange" type="int" value="30" />
    <property name="waypoints" value="120,121" />
    <property name="displayNameOverride" value="Homarid Shaman" />
    <property name="inactive" value="true" type="bool" />
    <property name="defeatDialog" value="[{&quot;action&quot;: [{&quot;advanceMapFlag&quot;: &quot;FE_Svyelunite_OpponentsDefeated&quot;}, {&quot;deleteMapObject&quot;: -1}]}]" />
   </properties>
  </object>
  <object id="40028" template="../../../../../../common/maps/obj/enemy.tx" x="920" y="56.25">
   <properties>
    <property name="Type" value="FEM Homarid Spawning Bed" />
    <property name="effect" value="{&quot;startBattleWithCard&quot;: [&quot;Island|3ED&quot;, &quot;Sand Silos|FEM&quot;, &quot;Tidal Influence|FEM&quot;, &quot;Tidal Flats|FEM|[27b]&quot;, &quot;Homarid Spawning Bed|FEM&quot;, &quot;Triassic Egg|LEG&quot;, &quot;Triassic Egg|LEG&quot;, &quot;Triassic Egg|LEG&quot;], &quot;startBattleWithCardInCommandZone&quot;: []}" />
    <property name="enemy" value="FEM Homarid Spawning Bed" />
    <property name="threatRange" type="int" value="30" />
    <property name="displayNameOverride" value="Homarid Spawning Bed" />
    <property name="inactive" value="true" type="bool" />
    <property name="dialog" value="[{&quot;text&quot;: &quot;The spawning mass convulses. Dozens of black eyes open beneath its shell as the surrounding pools begin to boil.&quot;, &quot;options&quot;: [{&quot;name&quot;: &quot;(Fight)&quot;, &quot;action&quot;: [{&quot;battleWithActorID&quot;: -1}]}, {&quot;name&quot;: &quot;(Withdraw)&quot;}]}]" />
    <property name="defeatDialog" value="[{&quot;action&quot;: [{&quot;advanceMapFlag&quot;: &quot;FE_Svyelunite_OpponentsDefeated&quot;}, {&quot;deleteMapObject&quot;: -1}]}]" />
   </properties>
  </object>
  <object id="40029" template="../../../../../../common/maps/obj/enemy.tx" x="969.75" y="72">
   <properties>
    <property name="Type" value="FEM Homarid Spawning Bed" />
    <property name="effect" value="{&quot;startBattleWithCard&quot;: [&quot;Island|3ED&quot;, &quot;Sand Silos|FEM&quot;, &quot;Tidal Influence|FEM&quot;, &quot;Tidal Flats|FEM|[27b]&quot;, &quot;Homarid Spawning Bed|FEM&quot;, &quot;Triassic Egg|LEG&quot;, &quot;Triassic Egg|LEG&quot;, &quot;Triassic Egg|LEG&quot;], &quot;startBattleWithCardInCommandZone&quot;: []}" />
    <property name="enemy" value="FEM Homarid Spawning Bed" />
    <property name="threatRange" type="int" value="30" />
    <property name="displayNameOverride" value="Homarid Spawning Bed" />
    <property name="inactive" value="true" type="bool" />
    <property name="dialog" value="[{&quot;text&quot;: &quot;The spawning mass convulses. Dozens of black eyes open beneath its shell as the surrounding pools begin to boil.&quot;, &quot;options&quot;: [{&quot;name&quot;: &quot;(Fight)&quot;, &quot;action&quot;: [{&quot;battleWithActorID&quot;: -1}]}, {&quot;name&quot;: &quot;(Withdraw)&quot;}]}]" />
    <property name="defeatDialog" value="[{&quot;action&quot;: [{&quot;advanceMapFlag&quot;: &quot;FE_Svyelunite_OpponentsDefeated&quot;}, {&quot;deleteMapObject&quot;: -1}]}]" />
   </properties>
  </object>
  <object id="44" template="../../../../../../common/maps/obj/waypoint.tx" x="253" y="693.667" />
  <object id="45" template="../../../../../../common/maps/obj/waypoint.tx" x="368" y="610.333" />
  <object id="46" template="../../../../../../common/maps/obj/waypoint.tx" x="456.667" y="668" />
  <object id="47" template="../../../../../../common/maps/obj/waypoint.tx" x="496" y="697.667" />
  <object id="48" template="../../../../../../common/maps/obj/waypoint.tx" x="567" y="684.667" />
  <object id="49" template="../../../../../../common/maps/obj/waypoint.tx" x="640.667" y="683.333" />
  <object id="50" template="../../../../../../common/maps/obj/waypoint.tx" x="672.273" y="702.878" />
  <object id="51" template="../../../../../../common/maps/obj/waypoint.tx" x="712.515" y="661.515" />
  <object id="52" template="../../../../../../common/maps/obj/waypoint.tx" x="749.818" y="698.909" />
  <object id="53" template="../../../../../../common/maps/obj/waypoint.tx" x="785.94" y="640.515" />
  <object id="54" template="../../../../../../common/maps/obj/waypoint.tx" x="927.333" y="575.667" />
  <object id="56" template="../../../../../../common/maps/obj/collision.tx" x="228.182" y="1.09091" width="7.86364" height="29.7727" />
  <object id="61" template="../../../../../../common/maps/obj/collision.tx" x="192.364" y="79.4545" width="33.1364" height="16.5" />
  <object id="71" template="../../../../../../common/maps/obj/collision.tx" x="311.818" y="72.5455" width="31.6818" height="30.5" />
  <object id="69" template="../../../../../../common/maps/obj/collision.tx" x="192.182" y="16.3636" width="15.3182" height="14.8636" />
  <object id="70" template="../../../../../../common/maps/obj/collision.tx" x="192.545" y="64.1818" width="15.3182" height="14.8636" />
  <object id="62" template="../../../../../../common/maps/obj/collision.tx" x="239.818" y="110.364" width="18.4091" height="33.0455" />
  <object id="63" template="../../../../../../common/maps/obj/collision.tx" x="272.545" y="144.364" width="17.5" height="31.9545" />
  <object id="64" template="../../../../../../common/maps/obj/collision.tx" x="349.818" y="143.818" width="49.8636" height="32.6818" />
  <object id="68" template="../../../../../../common/maps/obj/collision.tx" x="272.545" y="176.364" width="95.5" height="15.5909" />
  <object id="65" template="../../../../../../common/maps/obj/collision.tx" x="382.364" y="112.364" width="49.8636" height="31.7727" />
  <object id="66" template="../../../../../../common/maps/obj/collision.tx" x="431.818" y="95.8182" width="15.6818" height="31.7727" />
  <object id="67" template="../../../../../../common/maps/obj/collision.tx" x="415.273" y="16.7273" width="16.9545" height="31.4091" />
  <object id="57" template="../../../../../../common/maps/obj/collision.tx" x="260" y="1.81818" width="8.04545" height="29.7727" />
  <object id="58" template="../../../../../../common/maps/obj/collision.tx" x="292" y="1.27273" width="7.86364" height="29.7727" />
  <object id="59" template="../../../../../../common/maps/obj/collision.tx" x="324.364" y="1.45455" width="7.5" height="29.7727" />
  <object id="60" template="../../../../../../common/maps/obj/collision.tx" x="356" y="1.27273" width="7.68182" height="29.7727" />
  <object id="72" template="../../../../../../common/maps/obj/gold.tx" x="1024.36" y="481.091">
   <properties>
    <property name="reward">[{
 "type": "gold", "count": 250
}]</property>
   </properties>
  </object>
  <object id="73" template="../../../../../../common/maps/obj/manashards.tx" x="848.364" y="400.909" />
  <object id="75" template="../../../../../../common/maps/obj/treasure.tx" x="684.5" y="453.25" />
  <object id="76" template="../../../../../../common/maps/obj/treasure.tx" x="991.75" y="32.25" />
  <object id="77" template="../../../../../../common/maps/obj/waypoint.tx" x="80.5" y="161.25" />
  <object id="78" template="../../../../../../common/maps/obj/waypoint.tx" x="79.5" y="263.75" />
  <object id="79" template="../../../../../../common/maps/obj/waypoint.tx" x="127.25" y="305" />
  <object id="80" template="../../../../../../common/maps/obj/waypoint.tx" x="208" y="381.5" />
  <object id="81" template="../../../../../../common/maps/obj/waypoint.tx" x="288.25" y="385" />
  <object id="82" template="../../../../../../common/maps/obj/waypoint.tx" x="368.5" y="382.5" />
  <object id="83" template="../../../../../../common/maps/obj/waypoint.tx" x="464.25" y="304.75" />
  <object id="84" template="../../../../../../common/maps/obj/waypoint.tx" x="560.25" y="240.5" />
  <object id="85" template="../../../../../../common/maps/obj/waypoint.tx" x="383.25" y="432.25" />
  <object id="86" template="../../../../../../common/maps/obj/waypoint.tx" x="392" y="472.75" />
  <object id="87" template="../../../../../../common/maps/obj/waypoint.tx" x="273.5" y="512.25" />
  <object id="88" template="../../../../../../common/maps/obj/waypoint.tx" x="383" y="531.5" />
  <object id="89" template="../../../../../../common/maps/obj/waypoint.tx" x="289.25" y="432.25" />
  <object id="90" template="../../../../../../common/maps/obj/waypoint.tx" x="456" y="374.25" />
  <object id="91" template="../../../../../../common/maps/obj/waypoint.tx" x="218.5" y="416" />
  <object id="92" template="../../../../../../common/maps/obj/waypoint.tx" x="204.75" y="447.75" />
  <object id="93" template="../../../../../../common/maps/obj/waypoint.tx" x="137.25" y="463.5" />
  <object id="94" template="../../../../../../common/maps/obj/waypoint.tx" x="176" y="414.75" />
  <object id="95" template="../../../../../../common/maps/obj/waypoint.tx" x="103.75" y="545" />
  <object id="96" template="../../../../../../common/maps/obj/waypoint.tx" x="38.5" y="489.75" />
  <object id="97" template="../../../../../../common/maps/obj/waypoint.tx" x="324.5" y="565.5" />
  <object id="98" template="../../../../../../common/maps/obj/waypoint.tx" x="224.75" y="543.25" />
  <object id="99" template="../../../../../../common/maps/obj/waypoint.tx" x="467" y="480" />
  <object id="100" template="../../../../../../common/maps/obj/waypoint.tx" x="574.75" y="481" />
  <object id="101" template="../../../../../../common/maps/obj/waypoint.tx" x="575.25" y="512" />
  <object id="102" template="../../../../../../common/maps/obj/waypoint.tx" x="466.25" y="506" />
  <object id="103" template="../../../../../../common/maps/obj/waypoint.tx" x="30.25" y="308" />
  <object id="104" template="../../../../../../common/maps/obj/waypoint.tx" x="97.5" y="358.75" />
  <object id="105" template="../../../../../../common/maps/obj/waypoint.tx" x="33.5" y="384.75" />
  <object id="108" template="../../../../../../common/maps/obj/waypoint.tx" x="399.75" y="79.25" />
  <object id="109" template="../../../../../../common/maps/obj/waypoint.tx" x="352.159" y="48" />
  <object id="110" template="../../../../../../common/maps/obj/waypoint.tx" x="352.136" y="128.5" />
  <object id="111" template="../../../../../../common/maps/obj/waypoint.tx" x="432.25" y="64.75" />
  <object id="112" template="../../../../../../common/maps/obj/waypoint.tx" x="593.5" y="386.25" />
  <object id="113" template="../../../../../../common/maps/obj/waypoint.tx" x="592.75" y="295.5" />
  <object id="114" template="../../../../../../common/maps/obj/waypoint.tx" x="639" y="208.75" />
  <object id="115" template="../../../../../../common/maps/obj/waypoint.tx" x="768.75" y="203.25" />
  <object id="116" template="../../../../../../common/maps/obj/waypoint.tx" x="718.75" y="257" />
  <object id="120" template="../../../../../../common/maps/obj/waypoint.tx" x="849.25" y="67" />
  <object id="121" template="../../../../../../common/maps/obj/waypoint.tx" x="926.75" y="206.75" />
  <object id="122" template="../../../../../../common/maps/obj/waypoint.tx" x="945.5" y="401.5" />
  <object id="123" template="../../../../../../common/maps/obj/waypoint.tx" x="944.25" y="488.25" />
  <object id="124" template="../../../../../../common/maps/obj/waypoint.tx" x="991.75" y="420" />
  <object id="125" template="../../../../../../common/maps/obj/waypoint.tx" x="975.75" y="474" />
  <object id="126" template="../../../../../../common/maps/obj/waypoint.tx" x="1007.25" y="307.5" />
  <object id="127" template="../../../../../../common/maps/obj/waypoint.tx" x="910.5" y="320.5" />
  <object id="128" template="../../../../../../common/maps/obj/waypoint.tx" x="959.5" y="367" />
  <object id="129" template="../../../../../../common/maps/obj/waypoint.tx" x="303.5" y="688.75" />
  <object id="130" template="../../../../../../common/maps/obj/waypoint.tx" x="304" y="646.75" />
  <object id="131" template="../../../../../../common/maps/obj/waypoint.tx" x="416" y="632.25" />
  <object id="132" template="../../../../../../common/maps/obj/waypoint.tx" x="416.5" y="656.5" />
  <object id="133" template="../../../../../../common/maps/obj/waypoint.tx" x="640.5" y="353.5" />
  <object id="134" template="../../../../../../common/maps/obj/waypoint.tx" x="720.75" y="303.5" />
  <object id="50003" template="../../../../../../common/maps/obj/enemy.tx" x="879.227" y="575.25">
   <properties>
    <property name="Type" value="FEM Floodwater Homarid" />
    <property name="enemy" value="FEM Floodwater Homarid" />
    <property name="displayNameOverride" value="Floodwater Homarid" />
    <property name="dialog" value="[{&quot;action&quot;: [{}]}, {&quot;text&quot;: &quot;*The floodwater homarid gurgles a slow greeting, claws opening and closing in a patient rhythm.*&quot;, &quot;options&quot;: [{&quot;name&quot;: &quot;(Continue)&quot;}]}]" />
    <property name="defeatDialog" value="[{&quot;action&quot;: [{}]}]" />
    <property name="threatRange" value="10" type="int" />
    <property name="pursueRange" value="0" type="int" />
    <property name="waypoints" value="53,50075,50076,50082,54" />
   </properties>
  </object>
  <object id="50004" template="../../../../../../common/maps/obj/enemy.tx" x="974.75" y="368.75">
   <properties>
    <property name="Type" value="FEM Viscerid Drone" />
    <property name="enemy" value="FEM Viscerid Drone" />
    <property name="displayNameOverride" value="Viscerid Drone" />
    <property name="dialog" value="[{&quot;action&quot;: [{}]}, {&quot;text&quot;: &quot;*The viscerid drone skitters sideways, mandibles clicking a quick, excited pattern.*&quot;, &quot;options&quot;: [{&quot;name&quot;: &quot;(Continue)&quot;}]}]" />
    <property name="defeatDialog" value="[{&quot;action&quot;: [{}]}]" />
    <property name="threatRange" value="0" type="int" />
    <property name="pursueRange" value="0" type="int" />
    <property name="waypoints" value="126,127,128" />
   </properties>
  </object>
  <object id="50005" template="../../../../../../common/maps/obj/enemy.tx" x="942" y="468.5">
   <properties>
    <property name="Type" value="FEM Viscerid Drone" />
    <property name="enemy" value="FEM Viscerid Drone" />
    <property name="displayNameOverride" value="Viscerid Drone" />
    <property name="dialog" value="[{&quot;action&quot;: [{}]}, {&quot;text&quot;: &quot;*The viscerid drone circles you once, clicking softly, then returns to its post.*&quot;, &quot;options&quot;: [{&quot;name&quot;: &quot;(Continue)&quot;}]}]" />
    <property name="defeatDialog" value="[{&quot;action&quot;: [{}]}]" />
    <property name="threatRange" value="0" type="int" />
    <property name="pursueRange" value="0" type="int" />
    <property name="waypoints" value="123,125,124,122" />
   </properties>
  </object>
  <object id="50011" template="../../../../../../common/maps/obj/enemy.tx" x="622.833" y="683.667">
   <properties>
    <property name="Type" value="FEM River Merfolk" />
    <property name="enemy" value="FEM River Merfolk" />
    <property name="displayNameOverride" value="River Merfolk" />
    <property name="dialog" value="[{&quot;condition&quot;: [{&quot;getQuestFlag&quot;: {&quot;key&quot;: &quot;FE_Svyelunite_Faction&quot;, &quot;op&quot;: &quot;=&quot;, &quot;val&quot;: 1}}, {&quot;checkMapFlag&quot;: &quot;FE_Svyelunite_DamTask&quot;, &quot;not&quot;: true}, {&quot;checkMapFlag&quot;: &quot;FE_Svyelunite_DamCleared&quot;, &quot;not&quot;: true}], &quot;text&quot;: &quot;The River Merfolk points downstream. \&quot;A Floodwater Homarid has dammed the river and flooded its lower course. Deal with that oversized crustacean and break its hold on the dam.\&quot;&quot;, &quot;options&quot;: [{&quot;name&quot;: &quot;\&quot;We'll clear the river.\&quot;&quot;, &quot;action&quot;: [{&quot;setMapFlag&quot;: {&quot;key&quot;: &quot;FE_Svyelunite_DamTask&quot;, &quot;val&quot;: 1}}]}, {&quot;name&quot;: &quot;\&quot;The main battle comes first.\&quot;&quot;}]}, {&quot;condition&quot;: [{&quot;getQuestFlag&quot;: {&quot;key&quot;: &quot;FE_Svyelunite_Faction&quot;, &quot;op&quot;: &quot;=&quot;, &quot;val&quot;: 1}}, {&quot;checkMapFlag&quot;: &quot;FE_Svyelunite_DamTask&quot;}, {&quot;checkMapFlag&quot;: &quot;FE_Svyelunite_DamCleared&quot;, &quot;not&quot;: true}], &quot;text&quot;: &quot;The River Merfolk watches the swollen downstream course. \&quot;The Homarid still holds the dam. Break its grip, and the river can breathe again.\&quot;&quot;, &quot;options&quot;: [{&quot;name&quot;: &quot;(Continue)&quot;}]}, {&quot;condition&quot;: [{&quot;getQuestFlag&quot;: {&quot;key&quot;: &quot;FE_Svyelunite_Faction&quot;, &quot;op&quot;: &quot;=&quot;, &quot;val&quot;: 1}}, {&quot;checkMapFlag&quot;: &quot;FE_Svyelunite_DamCleared&quot;}], &quot;text&quot;: &quot;The River Merfolk gives you a grateful salute. \&quot;The river runs free again. The temple will remember who broke the Homarid's hold.\&quot;&quot;, &quot;options&quot;: [{&quot;name&quot;: &quot;(Continue)&quot;}]}]" />
    <property name="defeatDialog" value="[{&quot;action&quot;: [{}]}]" />
    <property name="threatRange" value="0" type="int" />
    <property name="pursueRange" value="0" type="int" />
    <property name="waypoints" value="48,47,48,49,50,51,52,51,50,49" />
   </properties>
  </object>
  <object id="50013" template="../../../../../../common/maps/obj/enemy.tx" x="287" y="689">
   <properties>
    <property name="Type" value="FEM River Merfolk" />
    <property name="enemy" value="FEM River Merfolk" />
    <property name="displayNameOverride" value="River Merfolk" />
    <property name="dialog" value="[{&quot;action&quot;: [{}]}, {&quot;text&quot;: &quot;The River Merfolk dips its conch-horn in salute. \&quot;The temple endures, mercenary. The tides remember.\&quot;&quot;, &quot;options&quot;: [{&quot;name&quot;: &quot;(Continue)&quot;}]}]" />
    <property name="defeatDialog" value="[{&quot;action&quot;: [{}]}]" />
    <property name="threatRange" value="0" type="int" />
    <property name="pursueRange" value="0" type="int" />
    <property name="waypoints" value="44,129,130,45,131,132,46,132,131,45,130,129" />
   </properties>
  </object>
  <object id="50015" template="../../../../../../common/maps/obj/enemy.tx" x="48" y="78.75" rotation="-90">
   <properties>
    <property name="Type" value="FEM Ally Vodalian Merchant" />
    <property name="enemy" value="FEM Ally Vodalian Merchant" />
    <property name="displayNameOverride" value="Vodalian Merchant" />
    <property name="dialog" value="[{&quot;action&quot;: [{}]}, {&quot;text&quot;: &quot;\&quot;Fresh salvage from the deep, mercenary! You will not find a better price this far inland.\&quot;&quot;, &quot;options&quot;: [{&quot;name&quot;: &quot;(Continue)&quot;}]}]" />
    <property name="defeatDialog" value="[{&quot;action&quot;: [{}]}]" />
    <property name="threatRange" value="0" type="int" />
    <property name="pursueRange" value="0" type="int" />
   </properties>
  </object>
  <object id="50016" template="../../../../../../common/maps/obj/enemy.tx" x="160.25" y="47.9318" rotation="0">
   <properties>
    <property name="Type" value="FEM Vodalian War Machine" />
    <property name="enemy" value="FEM Vodalian War Machine" />
    <property name="displayNameOverride" value="Vodalian War Machine" />
    <property name="dialog" value="[{&quot;action&quot;: [{}]}, {&quot;text&quot;: &quot;*Gears grind as the war machine's crew racks the catapult arm and salutes you from the gunwale.*&quot;, &quot;options&quot;: [{&quot;name&quot;: &quot;(Continue)&quot;}]}]" />
    <property name="defeatDialog" value="[{&quot;action&quot;: [{}]}]" />
    <property name="threatRange" value="0" type="int" />
    <property name="pursueRange" value="0" type="int" />
   </properties>
  </object>
  <object id="50017" template="../../../../../../common/maps/obj/enemy.tx" x="256.5" y="47.5">
   <properties>
    <property name="Type" value="FEM Svyelunite Priest" />
    <property name="enemy" value="FEM Svyelunite Priest" />
    <property name="displayNameOverride" value="Svyelunite Priest" />
    <property name="dialog" value="[{&quot;action&quot;: [{}]}, {&quot;text&quot;: &quot;\&quot;Deep calls to deep, mercenary. The temple's song keeps the tides - and our foes - in order.\&quot;&quot;, &quot;options&quot;: [{&quot;name&quot;: &quot;(Continue)&quot;}]}]" />
    <property name="defeatDialog" value="[{&quot;action&quot;: [{}]}]" />
    <property name="threatRange" value="0" type="int" />
    <property name="pursueRange" value="0" type="int" />
   </properties>
  </object>
  <object id="50043" template="../../../../../../common/maps/obj/enemy.tx" x="31.4091" y="369.818">
   <properties>
    <property name="Type" value="FEM Svyelunite Priest" />
    <property name="enemy" value="FEM Svyelunite Priest" />
    <property name="displayNameOverride" value="Svyelunite Priest" />
    <property name="dialog" value="[{&quot;action&quot;: [{}]}, {&quot;text&quot;: &quot;\&quot;Deep calls to deep, mercenary. Sing with us, and the tide will carry you.\&quot;&quot;, &quot;options&quot;: [{&quot;name&quot;: &quot;(Continue)&quot;}]}]" />
    <property name="defeatDialog" value="[{&quot;action&quot;: [{}]}]" />
    <property name="threatRange" value="0" type="int" />
    <property name="pursueRange" value="0" type="int" />
    <property name="waypoints" value="103,104,105" />
   </properties>
  </object>
  <object id="50018" template="../../../../../../common/maps/obj/enemy.tx" x="271.864" y="96.4318">
   <properties>
    <property name="Type" value="FEM Ally Seasinger" />
    <property name="enemy" value="FEM Ally Seasinger" />
    <property name="displayNameOverride" value="Seasinger" />
    <property name="dialog" value="[{&quot;action&quot;: [{}]}, {&quot;text&quot;: &quot;\&quot;Fight well, mercenary, and the tides will sing your name from shore to shore.\&quot;&quot;, &quot;options&quot;: [{&quot;name&quot;: &quot;(Continue)&quot;}]}]" />
    <property name="defeatDialog" value="[{&quot;action&quot;: [{}]}]" />
    <property name="threatRange" value="0" type="int" />
    <property name="pursueRange" value="0" type="int" />
   </properties>
  </object>
  <object id="50019" template="../../../../../../common/maps/obj/enemy.tx" x="343.75" y="71.5">
   <properties>
    <property name="Type" value="FEM Ally Vodalian Mage C" />
    <property name="enemy" value="FEM Ally Vodalian Mage C" />
    <property name="displayNameOverride" value="Vodalian Mage" />
    <property name="dialog" value="[{&quot;action&quot;: [{}]}, {&quot;text&quot;: &quot;\&quot;Mind your ears when the storm calls, mercenary. My thunder does not pick sides.\&quot;&quot;, &quot;options&quot;: [{&quot;name&quot;: &quot;(Continue)&quot;}]}]" />
    <property name="defeatDialog" value="[{&quot;action&quot;: [{}]}]" />
    <property name="threatRange" value="0" type="int" />
    <property name="pursueRange" value="0" type="int" />
    <property name="waypoints" value="108,109" />
   </properties>
  </object>
  <object id="50020" template="../../../../../../common/maps/obj/enemy.tx" x="176" y="415.25">
   <properties>
    <property name="Type" value="FEM Ally Vodalian Mage B" />
    <property name="enemy" value="FEM Ally Vodalian Mage B" />
    <property name="displayNameOverride" value="Vodalian Mage" />
    <property name="dialog" value="[{&quot;action&quot;: [{}]}, {&quot;text&quot;: &quot;\&quot;Stand back when I cast, mercenary. The storms of Svyelunite are choosy, but not careful.\&quot;&quot;, &quot;options&quot;: [{&quot;name&quot;: &quot;(Continue)&quot;}]}]" />
    <property name="defeatDialog" value="[{&quot;action&quot;: [{}]}]" />
    <property name="threatRange" value="0" type="int" />
    <property name="pursueRange" value="0" type="int" />
    <property name="waypoints" value="91,92,93,92,91,94" />
   </properties>
  </object>
  <object id="50041" template="../../../../../../common/maps/obj/enemy.tx" x="0.613636" y="224.318">
   <properties>
    <property name="Type" value="FEM Ally Vodalian Mage A" />
    <property name="enemy" value="FEM Ally Vodalian Mage A" />
    <property name="displayNameOverride" value="Vodalian Mage" />
    <property name="dialog" value="[{&quot;action&quot;: [{}]}, {&quot;text&quot;: &quot;\&quot;The bubbles tell me you fight well, mercenary. Stay out of my tide, and we will do fine.\&quot;&quot;, &quot;options&quot;: [{&quot;name&quot;: &quot;(Continue)&quot;}]}]" />
    <property name="defeatDialog" value="[{&quot;action&quot;: [{}]}]" />
    <property name="threatRange" value="0" type="int" />
    <property name="pursueRange" value="0" type="int" />
   </properties>
  </object>
  <object id="50021" template="../../../../../../common/maps/obj/enemy.tx" x="433.25" y="69.25">
   <properties>
    <property name="Type" value="FEM Homarid Deep Spawn" />
    <property name="enemy" value="FEM Homarid Deep Spawn" />
    <property name="displayNameOverride" value="Homarid Deep Spawn" />
    <property name="dialog" value="[{&quot;action&quot;: [{}]}, {&quot;text&quot;: &quot;*The deep spawn pulses and gurgles, several eyes drifting your way before it resumes its slow circuit.*&quot;, &quot;options&quot;: [{&quot;name&quot;: &quot;(Continue)&quot;}]}]" />
    <property name="defeatDialog" value="[{&quot;action&quot;: [{}]}]" />
    <property name="threatRange" value="0" type="int" />
    <property name="pursueRange" value="0" type="int" />
    <property name="waypoints" value="108,111" />
   </properties>
  </object>
  <object id="50031" template="../../../../../../common/maps/obj/enemy.tx" x="781.25" y="141.25">
   <properties>
    <property name="Type" value="FEM Homarid Deep Spawn" />
    <property name="enemy" value="FEM Homarid Deep Spawn" />
    <property name="displayNameOverride" value="Homarid Deep Spawn" />
    <property name="dialog" value="[{&quot;action&quot;: [{}]}, {&quot;text&quot;: &quot;*The deep spawn gurgles a slow, rolling greeting, its bulk drifting past like a submerged reef.*&quot;, &quot;options&quot;: [{&quot;name&quot;: &quot;(Continue)&quot;}]}]" />
    <property name="defeatDialog" value="[{&quot;action&quot;: [{}]}]" />
    <property name="threatRange" value="0" type="int" />
    <property name="pursueRange" value="0" type="int" />
    <property name="waypoints" value="" />
   </properties>
  </object>
  <object id="50022" template="../../../../../../common/maps/obj/enemy.tx" x="356.75" y="106">
   <properties>
    <property name="Type" value="FEM Vodalian Knight" />
    <property name="enemy" value="FEM Vodalian Knight" />
    <property name="displayNameOverride" value="Vodalian Knight" />
    <property name="dialog" value="[{&quot;action&quot;: [{}]}, {&quot;text&quot;: &quot;\&quot;Hold the line with us, mercenary. No homarid crosses this floor while we stand.\&quot;&quot;, &quot;options&quot;: [{&quot;name&quot;: &quot;(Continue)&quot;}]}]" />
    <property name="defeatDialog" value="[{&quot;action&quot;: [{}]}]" />
    <property name="threatRange" value="0" type="int" />
    <property name="pursueRange" value="0" type="int" />
    <property name="waypoints" value="108,110" />
   </properties>
  </object>
  <object id="50023" template="../../../../../../common/maps/obj/enemy.tx" x="79.5" y="256">
   <properties>
    <property name="Type" value="FEM Vodalian Knight" />
    <property name="enemy" value="FEM Vodalian Knight" />
    <property name="displayNameOverride" value="Vodalian Knight" />
    <property name="dialog" value="[{&quot;action&quot;: [{}]}, {&quot;text&quot;: &quot;\&quot;Stay behind my shield, mercenary, and the temple will hold.\&quot;&quot;, &quot;options&quot;: [{&quot;name&quot;: &quot;(Continue)&quot;}]}]" />
    <property name="defeatDialog" value="[{&quot;action&quot;: [{}]}]" />
    <property name="threatRange" value="0" type="int" />
    <property name="pursueRange" value="0" type="int" />
    <property name="waypoints" value="79,78,77,78" />
   </properties>
  </object>
  <object id="50042" template="../../../../../../common/maps/obj/enemy.tx" x="191.25" y="368.75">
   <properties>
    <property name="Type" value="FEM Vodalian Knight" />
    <property name="enemy" value="FEM Vodalian Knight" />
    <property name="displayNameOverride" value="Vodalian Knight" />
    <property name="dialog" value="[{&quot;action&quot;: [{}]}, {&quot;text&quot;: &quot;\&quot;The priestesses promised the tide would bring help. It brought you. Good enough.\&quot;&quot;, &quot;options&quot;: [{&quot;name&quot;: &quot;(Continue)&quot;}]}]" />
    <property name="defeatDialog" value="[{&quot;action&quot;: [{}]}]" />
    <property name="threatRange" value="0" type="int" />
    <property name="pursueRange" value="0" type="int" />
    <property name="waypoints" value="80,81,80,79" />
   </properties>
  </object>
  <object id="50024" template="../../../../../../common/maps/obj/enemy.tx" x="279" y="423">
   <properties>
    <property name="Type" value="FEM Ally Vodalian Soldier A" />
    <property name="enemy" value="FEM Ally Vodalian Soldier A" />
    <property name="displayNameOverride" value="Vodalian Soldier" />
    <property name="dialog" value="[{&quot;action&quot;: [{}]}, {&quot;text&quot;: &quot;\&quot;Stay sharp, mercenary. The homarids hit hard when the tide turns.\&quot;&quot;, &quot;options&quot;: [{&quot;name&quot;: &quot;(Continue)&quot;}]}]" />
    <property name="defeatDialog" value="[{&quot;action&quot;: [{}]}]" />
    <property name="threatRange" value="0" type="int" />
    <property name="pursueRange" value="0" type="int" />
    <property name="waypoints" value="89,92,91" />
   </properties>
  </object>
  <object id="50040" template="../../../../../../common/maps/obj/enemy.tx" x="48.2955" y="177">
   <properties>
    <property name="Type" value="FEM Ally Vodalian Soldier D" />
    <property name="enemy" value="FEM Ally Vodalian Soldier D" />
    <property name="displayNameOverride" value="Vodalian Soldier" />
    <property name="dialog" value="[{&quot;action&quot;: [{}]}, {&quot;text&quot;: &quot;\&quot;Keep your blade wet and your feet dry, mercenary.\&quot;&quot;, &quot;options&quot;: [{&quot;name&quot;: &quot;(Continue)&quot;}]}]" />
    <property name="defeatDialog" value="[{&quot;action&quot;: [{}]}]" />
    <property name="threatRange" value="0" type="int" />
    <property name="pursueRange" value="0" type="int" />
    <property name="waypoints" value="" />
   </properties>
  </object>
  <object id="50039" template="../../../../../../common/maps/obj/enemy.tx" x="81.5" y="495.75">
   <properties>
    <property name="Type" value="FEM Ally Vodalian Soldier C" />
    <property name="enemy" value="FEM Ally Vodalian Soldier C" />
    <property name="displayNameOverride" value="Vodalian Soldier" />
    <property name="dialog" value="[{&quot;action&quot;: [{}]}, {&quot;text&quot;: &quot;\&quot;Another mercenary? Good. The last one left with more holes than he came with.\&quot;&quot;, &quot;options&quot;: [{&quot;name&quot;: &quot;(Continue)&quot;}]}]" />
    <property name="defeatDialog" value="[{&quot;action&quot;: [{}]}]" />
    <property name="threatRange" value="0" type="int" />
    <property name="pursueRange" value="0" type="int" />
    <property name="waypoints" value="93,95,96" />
   </properties>
  </object>
  <object id="50038" template="../../../../../../common/maps/obj/enemy.tx" x="241.75" y="545">
   <properties>
    <property name="Type" value="FEM Ally Vodalian Soldier B" />
    <property name="enemy" value="FEM Ally Vodalian Soldier B" />
    <property name="displayNameOverride" value="Vodalian Soldier" />
    <property name="dialog" value="[{&quot;action&quot;: [{}]}, {&quot;text&quot;: &quot;\&quot;We hold this hall. Watch the water, mercenary - they come from below.\&quot;&quot;, &quot;options&quot;: [{&quot;name&quot;: &quot;(Continue)&quot;}]}]" />
    <property name="defeatDialog" value="[{&quot;action&quot;: [{}]}]" />
    <property name="threatRange" value="0" type="int" />
    <property name="pursueRange" value="0" type="int" />
    <property name="waypoints" value="87,97,98" />
   </properties>
  </object>
  <object id="50025" template="../../../../../../common/maps/obj/enemy.tx" x="353.25" y="432.75">
   <properties>
    <property name="Type" value="FEM Homarid Green" />
    <property name="enemy" value="FEM Homarid Green" />
    <property name="displayNameOverride" value="Homarid" />
    <property name="dialog" value="[{&quot;action&quot;: [{}]}, {&quot;text&quot;: &quot;*clic-clic-clic* The green homarid waves a claw toward the far shore and resumes its patrol.&quot;, &quot;options&quot;: [{&quot;name&quot;: &quot;(Continue)&quot;}]}]" />
    <property name="defeatDialog" value="[{&quot;action&quot;: [{}]}]" />
    <property name="threatRange" value="0" type="int" />
    <property name="pursueRange" value="0" type="int" />
    <property name="waypoints" value="89,85,87,86,89" />
   </properties>
  </object>
  <object id="50033" template="../../../../../../common/maps/obj/enemy.tx" x="431" y="384.75">
   <properties>
    <property name="Type" value="FEM Homarid Purple" />
    <property name="enemy" value="FEM Homarid Purple" />
    <property name="displayNameOverride" value="Homarid" />
    <property name="dialog" value="[{&quot;action&quot;: [{}]}, {&quot;text&quot;: &quot;*The purple homarid clicks twice and pounds its own carapace, rattling with pride.*&quot;, &quot;options&quot;: [{&quot;name&quot;: &quot;(Continue)&quot;}]}]" />
    <property name="defeatDialog" value="[{&quot;action&quot;: [{}]}]" />
    <property name="threatRange" value="0" type="int" />
    <property name="pursueRange" value="0" type="int" />
    <property name="waypoints" value="89,82,90" />
   </properties>
  </object>
  <object id="50034" template="../../../../../../common/maps/obj/enemy.tx" x="704.5" y="305.25">
   <properties>
    <property name="Type" value="FEM Homarid Red" />
    <property name="enemy" value="FEM Homarid Red" />
    <property name="displayNameOverride" value="Homarid" />
    <property name="dialog" value="[{&quot;action&quot;: [{}]}, {&quot;text&quot;: &quot;*The red homarid hisses a stream of bubbles and snaps its claws at the water.*&quot;, &quot;options&quot;: [{&quot;name&quot;: &quot;(Continue)&quot;}]}]" />
    <property name="defeatDialog" value="[{&quot;action&quot;: [{}]}]" />
    <property name="threatRange" value="0" type="int" />
    <property name="pursueRange" value="0" type="int" />
    <property name="waypoints" value="113,134,133" />
   </properties>
  </object>
  <object id="50032" template="../../../../../../common/maps/obj/enemy.tx" x="368.25" y="513.25">
   <properties>
    <property name="Type" value="FEM Homarid Yellow" />
    <property name="enemy" value="FEM Homarid Yellow" />
    <property name="displayNameOverride" value="Homarid" />
    <property name="dialog" value="[{&quot;action&quot;: [{}]}, {&quot;text&quot;: &quot;*whirr-click* The yellow homarid bobs up and down, then points a claw toward the Vodalian side.&quot;, &quot;options&quot;: [{&quot;name&quot;: &quot;(Continue)&quot;}]}]" />
    <property name="defeatDialog" value="[{&quot;action&quot;: [{}]}]" />
    <property name="threatRange" value="0" type="int" />
    <property name="pursueRange" value="0" type="int" />
    <property name="waypoints" value="87,86,88" />
   </properties>
  </object>
  <object id="50026" template="../../../../../../common/maps/obj/enemy.tx" x="495.75" y="273.25">
   <properties>
    <property name="Type" value="FEM Homarid Warrior A" />
    <property name="enemy" value="FEM Homarid Warrior A" />
    <property name="displayNameOverride" value="Homarid Warrior" />
    <property name="dialog" value="[{&quot;action&quot;: [{}]}, {&quot;text&quot;: &quot;*The homarid warrior raps its claw against its shell - clic, clic, clic - and levels it toward the enemy shore.*&quot;, &quot;options&quot;: [{&quot;name&quot;: &quot;(Continue)&quot;}]}]" />
    <property name="defeatDialog" value="[{&quot;action&quot;: [{}]}]" />
    <property name="threatRange" value="0" type="int" />
    <property name="pursueRange" value="0" type="int" />
    <property name="waypoints" value="83,82,81,82,83,84" />
   </properties>
  </object>
  <object id="50037" template="../../../../../../common/maps/obj/enemy.tx" x="702.5" y="209.5">
   <properties>
    <property name="Type" value="FEM Homarid Warrior 5ED" />
    <property name="enemy" value="FEM Homarid Warrior 5ED" />
    <property name="displayNameOverride" value="Homarid Warrior" />
    <property name="dialog" value="[{&quot;action&quot;: [{}]}, {&quot;text&quot;: &quot;*clic* The homarid warrior gestures you forward, toward the sound of distant battle.&quot;, &quot;options&quot;: [{&quot;name&quot;: &quot;(Continue)&quot;}]}]" />
    <property name="defeatDialog" value="[{&quot;action&quot;: [{}]}]" />
    <property name="threatRange" value="0" type="int" />
    <property name="pursueRange" value="0" type="int" />
    <property name="waypoints" value="114,84,114,115,116" />
   </properties>
  </object>
  <object id="50036" template="../../../../../../common/maps/obj/enemy.tx" x="558.25" y="511.75">
   <properties>
    <property name="Type" value="FEM Homarid Warrior C" />
    <property name="enemy" value="FEM Homarid Warrior C" />
    <property name="displayNameOverride" value="Homarid Warrior" />
    <property name="dialog" value="[{&quot;action&quot;: [{}]}, {&quot;text&quot;: &quot;*whirr* The homarid warrior thumps the ground twice, then returns to pacing its route.&quot;, &quot;options&quot;: [{&quot;name&quot;: &quot;(Continue)&quot;}]}]" />
    <property name="defeatDialog" value="[{&quot;action&quot;: [{}]}]" />
    <property name="threatRange" value="0" type="int" />
    <property name="pursueRange" value="0" type="int" />
    <property name="waypoints" value="99,101,100,101,102,101,100,101" />
   </properties>
  </object>
  <object id="50035" template="../../../../../../common/maps/obj/enemy.tx" x="576" y="401.25">
   <properties>
    <property name="Type" value="FEM Homarid Warrior B" />
    <property name="enemy" value="FEM Homarid Warrior B" />
    <property name="displayNameOverride" value="Homarid Warrior" />
    <property name="dialog" value="[{&quot;action&quot;: [{}]}, {&quot;text&quot;: &quot;*The homarid warrior clicks a slow challenge and sweeps its claw through the water.*&quot;, &quot;options&quot;: [{&quot;name&quot;: &quot;(Continue)&quot;}]}]" />
    <property name="defeatDialog" value="[{&quot;action&quot;: [{}]}]" />
    <property name="threatRange" value="0" type="int" />
    <property name="pursueRange" value="0" type="int" />
    <property name="waypoints" value="99,112" />
   </properties>
  </object>
  <object id="50027" template="../../../../../../common/maps/obj/enemy.tx" x="576.25" y="319.75">
   <properties>
    <property name="Type" value="FEM Homarid Shaman" />
    <property name="enemy" value="FEM Homarid Shaman" />
    <property name="displayNameOverride" value="Homarid Shaman" />
    <property name="dialog" value="[{&quot;action&quot;: [{}]}, {&quot;text&quot;: &quot;*The shaman swirls its staff in the water, humming a low, bubbling refrain.*&quot;, &quot;options&quot;: [{&quot;name&quot;: &quot;(Continue)&quot;}]}]" />
    <property name="defeatDialog" value="[{&quot;action&quot;: [{}]}]" />
    <property name="threatRange" value="0" type="int" />
    <property name="pursueRange" value="0" type="int" />
    <property name="waypoints" value="90,113,112,113" />
   </properties>
  </object>
  <object id="50074" template="../../../../../../common/maps/obj/enemy.tx" x="640.25" y="431.5">
   <properties>
    <property name="Type" value="FEM Homarid Shaman" />
    <property name="enemy" value="FEM Homarid Shaman" />
    <property name="displayNameOverride" value="Homarid Shaman" />
    <property name="dialog" value="[{&quot;action&quot;: [{}]}, {&quot;text&quot;: &quot;*The shaman hums a bubbling melody, its eyes never quite settling on you.*&quot;, &quot;options&quot;: [{&quot;name&quot;: &quot;(Continue)&quot;}]}]" />
    <property name="defeatDialog" value="[{&quot;action&quot;: [{}]}]" />
    <property name="threatRange" value="0" type="int" />
    <property name="pursueRange" value="0" type="int" />
   </properties>
  </object>
  <object id="50030" template="../../../../../../common/maps/obj/enemy.tx" x="896.75" y="126.25">
   <properties>
    <property name="Type" value="FEM Homarid Shaman" />
    <property name="enemy" value="FEM Homarid Shaman" />
    <property name="displayNameOverride" value="Homarid Shaman" />
    <property name="dialog" value="[{&quot;action&quot;: [{}]}, {&quot;text&quot;: &quot;*The shaman taps the water with its staff - clic, clic - and points you toward the fight.*&quot;, &quot;options&quot;: [{&quot;name&quot;: &quot;(Continue)&quot;}]}]" />
    <property name="defeatDialog" value="[{&quot;action&quot;: [{}]}]" />
    <property name="threatRange" value="0" type="int" />
    <property name="pursueRange" value="0" type="int" />
    <property name="waypoints" value="120,121" />
   </properties>
  </object>
  <object id="50028" template="../../../../../../common/maps/obj/enemy.tx" x="920" y="56.25">
   <properties>
    <property name="Type" value="FEM Homarid Spawning Bed" />
    <property name="enemy" value="FEM Homarid Spawning Bed" />
    <property name="displayNameOverride" value="Homarid Spawning Bed" />
    <property name="dialog" value="[{&quot;action&quot;: [{}]}, {&quot;text&quot;: &quot;*The spawning bed bubbles lazily. Something down below shifts to watch you pass.*&quot;, &quot;options&quot;: [{&quot;name&quot;: &quot;(Continue)&quot;}]}]" />
    <property name="defeatDialog" value="[{&quot;action&quot;: [{}]}]" />
    <property name="threatRange" value="0" type="int" />
    <property name="pursueRange" value="0" type="int" />
   </properties>
  </object>
  <object id="50029" template="../../../../../../common/maps/obj/enemy.tx" x="969.75" y="72">
   <properties>
    <property name="Type" value="FEM Homarid Spawning Bed" />
    <property name="enemy" value="FEM Homarid Spawning Bed" />
    <property name="displayNameOverride" value="Homarid Spawning Bed" />
    <property name="dialog" value="[{&quot;action&quot;: [{}]}, {&quot;text&quot;: &quot;*Warm bubbles rise from the spawning bed as you pass. The brood is safe.*&quot;, &quot;options&quot;: [{&quot;name&quot;: &quot;(Continue)&quot;}]}]" />
    <property name="defeatDialog" value="[{&quot;action&quot;: [{}]}]" />
    <property name="threatRange" value="0" type="int" />
    <property name="pursueRange" value="0" type="int" />
   </properties>
  </object>
  <object id="19101" template="../../../../../../common/maps/obj/dialog.tx" x="0" y="640" width="80" height="80">
   <properties>
    <property name="dialog" value="[{&quot;condition&quot;: [{&quot;getQuestFlag&quot;: {&quot;key&quot;: &quot;FE_Svyelunite_Faction&quot;, &quot;op&quot;: &quot;=&quot;, &quot;val&quot;: 1}}, {&quot;checkMapFlag&quot;: &quot;FE_Svyelunite_ConfiguredV3&quot;, &quot;not&quot;: true}, {&quot;checkMapFlag&quot;: &quot;FE_Svyelunite_ConfiguredV2&quot;}], &quot;text&quot;: &quot;You return to Svyelunite Temple. Your allies recognize you.&quot;, &quot;options&quot;: [{&quot;name&quot;: &quot;(Continue)&quot;, &quot;action&quot;: [{&quot;deleteMapObject&quot;: 40011}, {&quot;deleteMapObject&quot;: 40013}, {&quot;deleteMapObject&quot;: 40015}, {&quot;deleteMapObject&quot;: 40016}, {&quot;deleteMapObject&quot;: 40017}, {&quot;deleteMapObject&quot;: 40043}, {&quot;deleteMapObject&quot;: 40018}, {&quot;deleteMapObject&quot;: 40019}, {&quot;deleteMapObject&quot;: 40020}, {&quot;deleteMapObject&quot;: 40041}, {&quot;deleteMapObject&quot;: 40022}, {&quot;deleteMapObject&quot;: 40023}, {&quot;deleteMapObject&quot;: 40042}, {&quot;deleteMapObject&quot;: 40024}, {&quot;deleteMapObject&quot;: 40040}, {&quot;deleteMapObject&quot;: 40039}, {&quot;deleteMapObject&quot;: 40038}, {&quot;activateMapObject&quot;: 40003}, {&quot;activateMapObject&quot;: 40004}, {&quot;activateMapObject&quot;: 40005}, {&quot;activateMapObject&quot;: 40021}, {&quot;activateMapObject&quot;: 40031}, {&quot;activateMapObject&quot;: 40025}, {&quot;activateMapObject&quot;: 40033}, {&quot;activateMapObject&quot;: 40034}, {&quot;activateMapObject&quot;: 40032}, {&quot;activateMapObject&quot;: 40026}, {&quot;activateMapObject&quot;: 40037}, {&quot;activateMapObject&quot;: 40036}, {&quot;activateMapObject&quot;: 40035}, {&quot;activateMapObject&quot;: 40027}, {&quot;activateMapObject&quot;: 40074}, {&quot;activateMapObject&quot;: 40030}, {&quot;activateMapObject&quot;: 40028}, {&quot;activateMapObject&quot;: 40029}, {&quot;deleteMapObject&quot;: 50003}, {&quot;deleteMapObject&quot;: 50004}, {&quot;deleteMapObject&quot;: 50005}, {&quot;deleteMapObject&quot;: 50021}, {&quot;deleteMapObject&quot;: 50031}, {&quot;deleteMapObject&quot;: 50025}, {&quot;deleteMapObject&quot;: 50033}, {&quot;deleteMapObject&quot;: 50034}, {&quot;deleteMapObject&quot;: 50032}, {&quot;deleteMapObject&quot;: 50026}, {&quot;deleteMapObject&quot;: 50037}, {&quot;deleteMapObject&quot;: 50036}, {&quot;deleteMapObject&quot;: 50035}, {&quot;deleteMapObject&quot;: 50027}, {&quot;deleteMapObject&quot;: 50074}, {&quot;deleteMapObject&quot;: 50030}, {&quot;deleteMapObject&quot;: 50028}, {&quot;deleteMapObject&quot;: 50029}, {&quot;deleteMapObject&quot;: 9100}, {&quot;deleteMapObject&quot;: 9110}, {&quot;deleteMapObject&quot;: 9103}, {&quot;deleteMapObject&quot;: 9112}, {&quot;deleteMapObject&quot;: 9104}, {&quot;deleteMapObject&quot;: 9113}, {&quot;setMapFlag&quot;: {&quot;key&quot;: &quot;FE_Svyelunite_ConfiguredV3&quot;, &quot;val&quot;: 1}}, {&quot;setMapFlag&quot;: {&quot;key&quot;: &quot;FE_Svyelunite_ConfiguredV2&quot;, &quot;val&quot;: 1}}]}]}, {&quot;condition&quot;: [{&quot;getQuestFlag&quot;: {&quot;key&quot;: &quot;FE_Svyelunite_Faction&quot;, &quot;op&quot;: &quot;=&quot;, &quot;val&quot;: 1}}, {&quot;checkMapFlag&quot;: &quot;FE_Svyelunite_ConfiguredV3&quot;, &quot;not&quot;: true}, {&quot;checkMapFlag&quot;: &quot;FE_Svyelunite_ConfiguredV2&quot;, &quot;not&quot;: true}], &quot;text&quot;: &quot;You enter Svyelunite Temple. Your allies recognize you, while the opposing faction prepares for battle.&quot;, &quot;options&quot;: [{&quot;name&quot;: &quot;(Continue)&quot;, &quot;action&quot;: [{&quot;deleteMapObject&quot;: 40011}, {&quot;deleteMapObject&quot;: 40013}, {&quot;deleteMapObject&quot;: 40015}, {&quot;deleteMapObject&quot;: 40016}, {&quot;deleteMapObject&quot;: 40017}, {&quot;deleteMapObject&quot;: 40043}, {&quot;deleteMapObject&quot;: 40018}, {&quot;deleteMapObject&quot;: 40019}, {&quot;deleteMapObject&quot;: 40020}, {&quot;deleteMapObject&quot;: 40041}, {&quot;deleteMapObject&quot;: 40022}, {&quot;deleteMapObject&quot;: 40023}, {&quot;deleteMapObject&quot;: 40042}, {&quot;deleteMapObject&quot;: 40024}, {&quot;deleteMapObject&quot;: 40040}, {&quot;deleteMapObject&quot;: 40039}, {&quot;deleteMapObject&quot;: 40038}, {&quot;activateMapObject&quot;: 40003}, {&quot;activateMapObject&quot;: 40004}, {&quot;activateMapObject&quot;: 40005}, {&quot;activateMapObject&quot;: 40021}, {&quot;activateMapObject&quot;: 40031}, {&quot;activateMapObject&quot;: 40025}, {&quot;activateMapObject&quot;: 40033}, {&quot;activateMapObject&quot;: 40034}, {&quot;activateMapObject&quot;: 40032}, {&quot;activateMapObject&quot;: 40026}, {&quot;activateMapObject&quot;: 40037}, {&quot;activateMapObject&quot;: 40036}, {&quot;activateMapObject&quot;: 40035}, {&quot;activateMapObject&quot;: 40027}, {&quot;activateMapObject&quot;: 40074}, {&quot;activateMapObject&quot;: 40030}, {&quot;activateMapObject&quot;: 40028}, {&quot;activateMapObject&quot;: 40029}, {&quot;deleteMapObject&quot;: 50003}, {&quot;deleteMapObject&quot;: 50004}, {&quot;deleteMapObject&quot;: 50005}, {&quot;deleteMapObject&quot;: 50021}, {&quot;deleteMapObject&quot;: 50031}, {&quot;deleteMapObject&quot;: 50025}, {&quot;deleteMapObject&quot;: 50033}, {&quot;deleteMapObject&quot;: 50034}, {&quot;deleteMapObject&quot;: 50032}, {&quot;deleteMapObject&quot;: 50026}, {&quot;deleteMapObject&quot;: 50037}, {&quot;deleteMapObject&quot;: 50036}, {&quot;deleteMapObject&quot;: 50035}, {&quot;deleteMapObject&quot;: 50027}, {&quot;deleteMapObject&quot;: 50074}, {&quot;deleteMapObject&quot;: 50030}, {&quot;deleteMapObject&quot;: 50028}, {&quot;deleteMapObject&quot;: 50029}, {&quot;deleteMapObject&quot;: 9100}, {&quot;deleteMapObject&quot;: 9110}, {&quot;deleteMapObject&quot;: 9103}, {&quot;deleteMapObject&quot;: 9112}, {&quot;deleteMapObject&quot;: 9104}, {&quot;deleteMapObject&quot;: 9113}, {&quot;setMapFlag&quot;: {&quot;key&quot;: &quot;FE_Svyelunite_OpponentsDefeated&quot;, &quot;val&quot;: 0}}, {&quot;setMapFlag&quot;: {&quot;key&quot;: &quot;FE_Svyelunite_ConfiguredV3&quot;, &quot;val&quot;: 1}}, {&quot;setMapFlag&quot;: {&quot;key&quot;: &quot;FE_Svyelunite_ConfiguredV2&quot;, &quot;val&quot;: 1}}]}]}, {&quot;condition&quot;: [{&quot;getQuestFlag&quot;: {&quot;key&quot;: &quot;FE_Svyelunite_Faction&quot;, &quot;op&quot;: &quot;=&quot;, &quot;val&quot;: 1}}, {&quot;checkMapFlag&quot;: &quot;FE_Svyelunite_ConfiguredV3&quot;}], &quot;action&quot;: [{&quot;activateMapObject&quot;: 40003}, {&quot;activateMapObject&quot;: 40004}, {&quot;activateMapObject&quot;: 40005}, {&quot;activateMapObject&quot;: 40021}, {&quot;activateMapObject&quot;: 40031}, {&quot;activateMapObject&quot;: 40025}, {&quot;activateMapObject&quot;: 40033}, {&quot;activateMapObject&quot;: 40034}, {&quot;activateMapObject&quot;: 40032}, {&quot;activateMapObject&quot;: 40026}, {&quot;activateMapObject&quot;: 40037}, {&quot;activateMapObject&quot;: 40036}, {&quot;activateMapObject&quot;: 40035}, {&quot;activateMapObject&quot;: 40027}, {&quot;activateMapObject&quot;: 40074}, {&quot;activateMapObject&quot;: 40030}, {&quot;activateMapObject&quot;: 40028}, {&quot;activateMapObject&quot;: 40029}]}, {&quot;condition&quot;: [{&quot;getQuestFlag&quot;: {&quot;key&quot;: &quot;FE_Svyelunite_Faction&quot;, &quot;op&quot;: &quot;=&quot;, &quot;val&quot;: 2}}, {&quot;checkMapFlag&quot;: &quot;FE_Svyelunite_ConfiguredV3&quot;, &quot;not&quot;: true}, {&quot;checkMapFlag&quot;: &quot;FE_Svyelunite_ConfiguredV2&quot;}], &quot;text&quot;: &quot;You return to Svyelunite Temple. Your allies recognize you.&quot;, &quot;options&quot;: [{&quot;name&quot;: &quot;(Continue)&quot;, &quot;action&quot;: [{&quot;deleteMapObject&quot;: 40003}, {&quot;deleteMapObject&quot;: 40004}, {&quot;deleteMapObject&quot;: 40005}, {&quot;deleteMapObject&quot;: 40021}, {&quot;deleteMapObject&quot;: 40031}, {&quot;deleteMapObject&quot;: 40025}, {&quot;deleteMapObject&quot;: 40033}, {&quot;deleteMapObject&quot;: 40034}, {&quot;deleteMapObject&quot;: 40032}, {&quot;deleteMapObject&quot;: 40026}, {&quot;deleteMapObject&quot;: 40037}, {&quot;deleteMapObject&quot;: 40036}, {&quot;deleteMapObject&quot;: 40035}, {&quot;deleteMapObject&quot;: 40027}, {&quot;deleteMapObject&quot;: 40074}, {&quot;deleteMapObject&quot;: 40030}, {&quot;deleteMapObject&quot;: 40028}, {&quot;deleteMapObject&quot;: 40029}, {&quot;activateMapObject&quot;: 40011}, {&quot;activateMapObject&quot;: 40013}, {&quot;activateMapObject&quot;: 40015}, {&quot;activateMapObject&quot;: 40016}, {&quot;activateMapObject&quot;: 40017}, {&quot;activateMapObject&quot;: 40043}, {&quot;activateMapObject&quot;: 40018}, {&quot;activateMapObject&quot;: 40019}, {&quot;activateMapObject&quot;: 40020}, {&quot;activateMapObject&quot;: 40041}, {&quot;activateMapObject&quot;: 40022}, {&quot;activateMapObject&quot;: 40023}, {&quot;activateMapObject&quot;: 40042}, {&quot;activateMapObject&quot;: 40024}, {&quot;activateMapObject&quot;: 40040}, {&quot;activateMapObject&quot;: 40039}, {&quot;activateMapObject&quot;: 40038}, {&quot;deleteMapObject&quot;: 50011}, {&quot;deleteMapObject&quot;: 50013}, {&quot;deleteMapObject&quot;: 50015}, {&quot;deleteMapObject&quot;: 50016}, {&quot;deleteMapObject&quot;: 50017}, {&quot;deleteMapObject&quot;: 50043}, {&quot;deleteMapObject&quot;: 50018}, {&quot;deleteMapObject&quot;: 50019}, {&quot;deleteMapObject&quot;: 50020}, {&quot;deleteMapObject&quot;: 50041}, {&quot;deleteMapObject&quot;: 50022}, {&quot;deleteMapObject&quot;: 50023}, {&quot;deleteMapObject&quot;: 50042}, {&quot;deleteMapObject&quot;: 50024}, {&quot;deleteMapObject&quot;: 50040}, {&quot;deleteMapObject&quot;: 50039}, {&quot;deleteMapObject&quot;: 50038}, {&quot;deleteMapObject&quot;: 9100}, {&quot;deleteMapObject&quot;: 9110}, {&quot;deleteMapObject&quot;: 9103}, {&quot;deleteMapObject&quot;: 9112}, {&quot;deleteMapObject&quot;: 9104}, {&quot;deleteMapObject&quot;: 9113}, {&quot;setMapFlag&quot;: {&quot;key&quot;: &quot;FE_Svyelunite_ConfiguredV3&quot;, &quot;val&quot;: 1}}, {&quot;setMapFlag&quot;: {&quot;key&quot;: &quot;FE_Svyelunite_ConfiguredV2&quot;, &quot;val&quot;: 1}}]}]}, {&quot;condition&quot;: [{&quot;getQuestFlag&quot;: {&quot;key&quot;: &quot;FE_Svyelunite_Faction&quot;, &quot;op&quot;: &quot;=&quot;, &quot;val&quot;: 2}}, {&quot;checkMapFlag&quot;: &quot;FE_Svyelunite_ConfiguredV3&quot;, &quot;not&quot;: true}, {&quot;checkMapFlag&quot;: &quot;FE_Svyelunite_ConfiguredV2&quot;, &quot;not&quot;: true}], &quot;text&quot;: &quot;You enter Svyelunite Temple. Your allies recognize you, while the opposing faction prepares for battle.&quot;, &quot;options&quot;: [{&quot;name&quot;: &quot;(Continue)&quot;, &quot;action&quot;: [{&quot;deleteMapObject&quot;: 40003}, {&quot;deleteMapObject&quot;: 40004}, {&quot;deleteMapObject&quot;: 40005}, {&quot;deleteMapObject&quot;: 40021}, {&quot;deleteMapObject&quot;: 40031}, {&quot;deleteMapObject&quot;: 40025}, {&quot;deleteMapObject&quot;: 40033}, {&quot;deleteMapObject&quot;: 40034}, {&quot;deleteMapObject&quot;: 40032}, {&quot;deleteMapObject&quot;: 40026}, {&quot;deleteMapObject&quot;: 40037}, {&quot;deleteMapObject&quot;: 40036}, {&quot;deleteMapObject&quot;: 40035}, {&quot;deleteMapObject&quot;: 40027}, {&quot;deleteMapObject&quot;: 40074}, {&quot;deleteMapObject&quot;: 40030}, {&quot;deleteMapObject&quot;: 40028}, {&quot;deleteMapObject&quot;: 40029}, {&quot;activateMapObject&quot;: 40011}, {&quot;activateMapObject&quot;: 40013}, {&quot;activateMapObject&quot;: 40015}, {&quot;activateMapObject&quot;: 40016}, {&quot;activateMapObject&quot;: 40017}, {&quot;activateMapObject&quot;: 40043}, {&quot;activateMapObject&quot;: 40018}, {&quot;activateMapObject&quot;: 40019}, {&quot;activateMapObject&quot;: 40020}, {&quot;activateMapObject&quot;: 40041}, {&quot;activateMapObject&quot;: 40022}, {&quot;activateMapObject&quot;: 40023}, {&quot;activateMapObject&quot;: 40042}, {&quot;activateMapObject&quot;: 40024}, {&quot;activateMapObject&quot;: 40040}, {&quot;activateMapObject&quot;: 40039}, {&quot;activateMapObject&quot;: 40038}, {&quot;deleteMapObject&quot;: 50011}, {&quot;deleteMapObject&quot;: 50013}, {&quot;deleteMapObject&quot;: 50015}, {&quot;deleteMapObject&quot;: 50016}, {&quot;deleteMapObject&quot;: 50017}, {&quot;deleteMapObject&quot;: 50043}, {&quot;deleteMapObject&quot;: 50018}, {&quot;deleteMapObject&quot;: 50019}, {&quot;deleteMapObject&quot;: 50020}, {&quot;deleteMapObject&quot;: 50041}, {&quot;deleteMapObject&quot;: 50022}, {&quot;deleteMapObject&quot;: 50023}, {&quot;deleteMapObject&quot;: 50042}, {&quot;deleteMapObject&quot;: 50024}, {&quot;deleteMapObject&quot;: 50040}, {&quot;deleteMapObject&quot;: 50039}, {&quot;deleteMapObject&quot;: 50038}, {&quot;deleteMapObject&quot;: 9100}, {&quot;deleteMapObject&quot;: 9110}, {&quot;deleteMapObject&quot;: 9103}, {&quot;deleteMapObject&quot;: 9112}, {&quot;deleteMapObject&quot;: 9104}, {&quot;deleteMapObject&quot;: 9113}, {&quot;setMapFlag&quot;: {&quot;key&quot;: &quot;FE_Svyelunite_OpponentsDefeated&quot;, &quot;val&quot;: 1}}, {&quot;setMapFlag&quot;: {&quot;key&quot;: &quot;FE_Svyelunite_ConfiguredV3&quot;, &quot;val&quot;: 1}}, {&quot;setMapFlag&quot;: {&quot;key&quot;: &quot;FE_Svyelunite_ConfiguredV2&quot;, &quot;val&quot;: 1}}]}]}, {&quot;condition&quot;: [{&quot;getQuestFlag&quot;: {&quot;key&quot;: &quot;FE_Svyelunite_Faction&quot;, &quot;op&quot;: &quot;=&quot;, &quot;val&quot;: 2}}, {&quot;checkMapFlag&quot;: &quot;FE_Svyelunite_ConfiguredV3&quot;}], &quot;action&quot;: [{&quot;activateMapObject&quot;: 40011}, {&quot;activateMapObject&quot;: 40013}, {&quot;activateMapObject&quot;: 40015}, {&quot;activateMapObject&quot;: 40016}, {&quot;activateMapObject&quot;: 40017}, {&quot;activateMapObject&quot;: 40043}, {&quot;activateMapObject&quot;: 40018}, {&quot;activateMapObject&quot;: 40019}, {&quot;activateMapObject&quot;: 40020}, {&quot;activateMapObject&quot;: 40041}, {&quot;activateMapObject&quot;: 40022}, {&quot;activateMapObject&quot;: 40023}, {&quot;activateMapObject&quot;: 40042}, {&quot;activateMapObject&quot;: 40024}, {&quot;activateMapObject&quot;: 40040}, {&quot;activateMapObject&quot;: 40039}, {&quot;activateMapObject&quot;: 40038}]}]" />
    <property name="hidden" value="true" type="bool" />
   </properties>
  </object>
  <object id="19300" template="../../../../../../common/maps/obj/collision.tx" x="1039.67" y="-25.67" width="21.5" height="763.83" />
  <object id="19301" template="../../../../../../common/maps/obj/collision.tx" x="0" y="720.33" width="1039.75" height="18.83" />
  <object id="19302" template="../../../../../../common/maps/obj/collision.tx" x="-22" y="-25" width="21.5" height="763.83" />
  <object id="19303" template="../../../../../../common/maps/obj/collision.tx" x="0.33" y="-25" width="1040.67" height="25.17" />
  <object id="9100" template="../../../../../../common/maps/obj/quest.tx" x="208" y="656" width="48" height="32">
   <properties>
    <property name="questtype" value="SvyeluniteTempleEntry" />
   </properties>
  </object>
  <object id="19102" template="../../../../../../common/maps/obj/dialog.tx" x="208" y="640" width="48" height="16">
   <properties>
    <property name="dialog" value="[{&quot;condition&quot;: [{&quot;getQuestFlag&quot;: {&quot;key&quot;: &quot;FE_Svyelunite_Faction&quot;, &quot;op&quot;: &quot;=&quot;, &quot;val&quot;: 1}}, {&quot;checkMapFlag&quot;: &quot;FE_Svyelunite_ConfiguredV3&quot;, &quot;not&quot;: true}, {&quot;checkMapFlag&quot;: &quot;FE_Svyelunite_ConfiguredV2&quot;}], &quot;text&quot;: &quot;You return to Svyelunite Temple. Your allies recognize you.&quot;, &quot;options&quot;: [{&quot;name&quot;: &quot;(Continue)&quot;, &quot;action&quot;: [{&quot;deleteMapObject&quot;: 40011}, {&quot;deleteMapObject&quot;: 40013}, {&quot;deleteMapObject&quot;: 40015}, {&quot;deleteMapObject&quot;: 40016}, {&quot;deleteMapObject&quot;: 40017}, {&quot;deleteMapObject&quot;: 40043}, {&quot;deleteMapObject&quot;: 40018}, {&quot;deleteMapObject&quot;: 40019}, {&quot;deleteMapObject&quot;: 40020}, {&quot;deleteMapObject&quot;: 40041}, {&quot;deleteMapObject&quot;: 40022}, {&quot;deleteMapObject&quot;: 40023}, {&quot;deleteMapObject&quot;: 40042}, {&quot;deleteMapObject&quot;: 40024}, {&quot;deleteMapObject&quot;: 40040}, {&quot;deleteMapObject&quot;: 40039}, {&quot;deleteMapObject&quot;: 40038}, {&quot;activateMapObject&quot;: 40003}, {&quot;activateMapObject&quot;: 40004}, {&quot;activateMapObject&quot;: 40005}, {&quot;activateMapObject&quot;: 40021}, {&quot;activateMapObject&quot;: 40031}, {&quot;activateMapObject&quot;: 40025}, {&quot;activateMapObject&quot;: 40033}, {&quot;activateMapObject&quot;: 40034}, {&quot;activateMapObject&quot;: 40032}, {&quot;activateMapObject&quot;: 40026}, {&quot;activateMapObject&quot;: 40037}, {&quot;activateMapObject&quot;: 40036}, {&quot;activateMapObject&quot;: 40035}, {&quot;activateMapObject&quot;: 40027}, {&quot;activateMapObject&quot;: 40074}, {&quot;activateMapObject&quot;: 40030}, {&quot;activateMapObject&quot;: 40028}, {&quot;activateMapObject&quot;: 40029}, {&quot;deleteMapObject&quot;: 50003}, {&quot;deleteMapObject&quot;: 50004}, {&quot;deleteMapObject&quot;: 50005}, {&quot;deleteMapObject&quot;: 50021}, {&quot;deleteMapObject&quot;: 50031}, {&quot;deleteMapObject&quot;: 50025}, {&quot;deleteMapObject&quot;: 50033}, {&quot;deleteMapObject&quot;: 50034}, {&quot;deleteMapObject&quot;: 50032}, {&quot;deleteMapObject&quot;: 50026}, {&quot;deleteMapObject&quot;: 50037}, {&quot;deleteMapObject&quot;: 50036}, {&quot;deleteMapObject&quot;: 50035}, {&quot;deleteMapObject&quot;: 50027}, {&quot;deleteMapObject&quot;: 50074}, {&quot;deleteMapObject&quot;: 50030}, {&quot;deleteMapObject&quot;: 50028}, {&quot;deleteMapObject&quot;: 50029}, {&quot;deleteMapObject&quot;: 9100}, {&quot;deleteMapObject&quot;: 9110}, {&quot;deleteMapObject&quot;: 9103}, {&quot;deleteMapObject&quot;: 9112}, {&quot;deleteMapObject&quot;: 9104}, {&quot;deleteMapObject&quot;: 9113}, {&quot;setMapFlag&quot;: {&quot;key&quot;: &quot;FE_Svyelunite_ConfiguredV3&quot;, &quot;val&quot;: 1}}, {&quot;setMapFlag&quot;: {&quot;key&quot;: &quot;FE_Svyelunite_ConfiguredV2&quot;, &quot;val&quot;: 1}}]}]}, {&quot;condition&quot;: [{&quot;getQuestFlag&quot;: {&quot;key&quot;: &quot;FE_Svyelunite_Faction&quot;, &quot;op&quot;: &quot;=&quot;, &quot;val&quot;: 1}}, {&quot;checkMapFlag&quot;: &quot;FE_Svyelunite_ConfiguredV3&quot;, &quot;not&quot;: true}, {&quot;checkMapFlag&quot;: &quot;FE_Svyelunite_ConfiguredV2&quot;, &quot;not&quot;: true}], &quot;text&quot;: &quot;You enter Svyelunite Temple. Your allies recognize you, while the opposing faction prepares for battle.&quot;, &quot;options&quot;: [{&quot;name&quot;: &quot;(Continue)&quot;, &quot;action&quot;: [{&quot;deleteMapObject&quot;: 40011}, {&quot;deleteMapObject&quot;: 40013}, {&quot;deleteMapObject&quot;: 40015}, {&quot;deleteMapObject&quot;: 40016}, {&quot;deleteMapObject&quot;: 40017}, {&quot;deleteMapObject&quot;: 40043}, {&quot;deleteMapObject&quot;: 40018}, {&quot;deleteMapObject&quot;: 40019}, {&quot;deleteMapObject&quot;: 40020}, {&quot;deleteMapObject&quot;: 40041}, {&quot;deleteMapObject&quot;: 40022}, {&quot;deleteMapObject&quot;: 40023}, {&quot;deleteMapObject&quot;: 40042}, {&quot;deleteMapObject&quot;: 40024}, {&quot;deleteMapObject&quot;: 40040}, {&quot;deleteMapObject&quot;: 40039}, {&quot;deleteMapObject&quot;: 40038}, {&quot;activateMapObject&quot;: 40003}, {&quot;activateMapObject&quot;: 40004}, {&quot;activateMapObject&quot;: 40005}, {&quot;activateMapObject&quot;: 40021}, {&quot;activateMapObject&quot;: 40031}, {&quot;activateMapObject&quot;: 40025}, {&quot;activateMapObject&quot;: 40033}, {&quot;activateMapObject&quot;: 40034}, {&quot;activateMapObject&quot;: 40032}, {&quot;activateMapObject&quot;: 40026}, {&quot;activateMapObject&quot;: 40037}, {&quot;activateMapObject&quot;: 40036}, {&quot;activateMapObject&quot;: 40035}, {&quot;activateMapObject&quot;: 40027}, {&quot;activateMapObject&quot;: 40074}, {&quot;activateMapObject&quot;: 40030}, {&quot;activateMapObject&quot;: 40028}, {&quot;activateMapObject&quot;: 40029}, {&quot;deleteMapObject&quot;: 50003}, {&quot;deleteMapObject&quot;: 50004}, {&quot;deleteMapObject&quot;: 50005}, {&quot;deleteMapObject&quot;: 50021}, {&quot;deleteMapObject&quot;: 50031}, {&quot;deleteMapObject&quot;: 50025}, {&quot;deleteMapObject&quot;: 50033}, {&quot;deleteMapObject&quot;: 50034}, {&quot;deleteMapObject&quot;: 50032}, {&quot;deleteMapObject&quot;: 50026}, {&quot;deleteMapObject&quot;: 50037}, {&quot;deleteMapObject&quot;: 50036}, {&quot;deleteMapObject&quot;: 50035}, {&quot;deleteMapObject&quot;: 50027}, {&quot;deleteMapObject&quot;: 50074}, {&quot;deleteMapObject&quot;: 50030}, {&quot;deleteMapObject&quot;: 50028}, {&quot;deleteMapObject&quot;: 50029}, {&quot;deleteMapObject&quot;: 9100}, {&quot;deleteMapObject&quot;: 9110}, {&quot;deleteMapObject&quot;: 9103}, {&quot;deleteMapObject&quot;: 9112}, {&quot;deleteMapObject&quot;: 9104}, {&quot;deleteMapObject&quot;: 9113}, {&quot;setMapFlag&quot;: {&quot;key&quot;: &quot;FE_Svyelunite_OpponentsDefeated&quot;, &quot;val&quot;: 0}}, {&quot;setMapFlag&quot;: {&quot;key&quot;: &quot;FE_Svyelunite_ConfiguredV3&quot;, &quot;val&quot;: 1}}, {&quot;setMapFlag&quot;: {&quot;key&quot;: &quot;FE_Svyelunite_ConfiguredV2&quot;, &quot;val&quot;: 1}}]}]}, {&quot;condition&quot;: [{&quot;getQuestFlag&quot;: {&quot;key&quot;: &quot;FE_Svyelunite_Faction&quot;, &quot;op&quot;: &quot;=&quot;, &quot;val&quot;: 1}}, {&quot;checkMapFlag&quot;: &quot;FE_Svyelunite_ConfiguredV3&quot;}], &quot;action&quot;: [{&quot;activateMapObject&quot;: 40003}, {&quot;activateMapObject&quot;: 40004}, {&quot;activateMapObject&quot;: 40005}, {&quot;activateMapObject&quot;: 40021}, {&quot;activateMapObject&quot;: 40031}, {&quot;activateMapObject&quot;: 40025}, {&quot;activateMapObject&quot;: 40033}, {&quot;activateMapObject&quot;: 40034}, {&quot;activateMapObject&quot;: 40032}, {&quot;activateMapObject&quot;: 40026}, {&quot;activateMapObject&quot;: 40037}, {&quot;activateMapObject&quot;: 40036}, {&quot;activateMapObject&quot;: 40035}, {&quot;activateMapObject&quot;: 40027}, {&quot;activateMapObject&quot;: 40074}, {&quot;activateMapObject&quot;: 40030}, {&quot;activateMapObject&quot;: 40028}, {&quot;activateMapObject&quot;: 40029}]}, {&quot;condition&quot;: [{&quot;getQuestFlag&quot;: {&quot;key&quot;: &quot;FE_Svyelunite_Faction&quot;, &quot;op&quot;: &quot;=&quot;, &quot;val&quot;: 2}}, {&quot;checkMapFlag&quot;: &quot;FE_Svyelunite_ConfiguredV3&quot;, &quot;not&quot;: true}, {&quot;checkMapFlag&quot;: &quot;FE_Svyelunite_ConfiguredV2&quot;}], &quot;text&quot;: &quot;You return to Svyelunite Temple. Your allies recognize you.&quot;, &quot;options&quot;: [{&quot;name&quot;: &quot;(Continue)&quot;, &quot;action&quot;: [{&quot;deleteMapObject&quot;: 40003}, {&quot;deleteMapObject&quot;: 40004}, {&quot;deleteMapObject&quot;: 40005}, {&quot;deleteMapObject&quot;: 40021}, {&quot;deleteMapObject&quot;: 40031}, {&quot;deleteMapObject&quot;: 40025}, {&quot;deleteMapObject&quot;: 40033}, {&quot;deleteMapObject&quot;: 40034}, {&quot;deleteMapObject&quot;: 40032}, {&quot;deleteMapObject&quot;: 40026}, {&quot;deleteMapObject&quot;: 40037}, {&quot;deleteMapObject&quot;: 40036}, {&quot;deleteMapObject&quot;: 40035}, {&quot;deleteMapObject&quot;: 40027}, {&quot;deleteMapObject&quot;: 40074}, {&quot;deleteMapObject&quot;: 40030}, {&quot;deleteMapObject&quot;: 40028}, {&quot;deleteMapObject&quot;: 40029}, {&quot;activateMapObject&quot;: 40011}, {&quot;activateMapObject&quot;: 40013}, {&quot;activateMapObject&quot;: 40015}, {&quot;activateMapObject&quot;: 40016}, {&quot;activateMapObject&quot;: 40017}, {&quot;activateMapObject&quot;: 40043}, {&quot;activateMapObject&quot;: 40018}, {&quot;activateMapObject&quot;: 40019}, {&quot;activateMapObject&quot;: 40020}, {&quot;activateMapObject&quot;: 40041}, {&quot;activateMapObject&quot;: 40022}, {&quot;activateMapObject&quot;: 40023}, {&quot;activateMapObject&quot;: 40042}, {&quot;activateMapObject&quot;: 40024}, {&quot;activateMapObject&quot;: 40040}, {&quot;activateMapObject&quot;: 40039}, {&quot;activateMapObject&quot;: 40038}, {&quot;deleteMapObject&quot;: 50011}, {&quot;deleteMapObject&quot;: 50013}, {&quot;deleteMapObject&quot;: 50015}, {&quot;deleteMapObject&quot;: 50016}, {&quot;deleteMapObject&quot;: 50017}, {&quot;deleteMapObject&quot;: 50043}, {&quot;deleteMapObject&quot;: 50018}, {&quot;deleteMapObject&quot;: 50019}, {&quot;deleteMapObject&quot;: 50020}, {&quot;deleteMapObject&quot;: 50041}, {&quot;deleteMapObject&quot;: 50022}, {&quot;deleteMapObject&quot;: 50023}, {&quot;deleteMapObject&quot;: 50042}, {&quot;deleteMapObject&quot;: 50024}, {&quot;deleteMapObject&quot;: 50040}, {&quot;deleteMapObject&quot;: 50039}, {&quot;deleteMapObject&quot;: 50038}, {&quot;deleteMapObject&quot;: 9100}, {&quot;deleteMapObject&quot;: 9110}, {&quot;deleteMapObject&quot;: 9103}, {&quot;deleteMapObject&quot;: 9112}, {&quot;deleteMapObject&quot;: 9104}, {&quot;deleteMapObject&quot;: 9113}, {&quot;setMapFlag&quot;: {&quot;key&quot;: &quot;FE_Svyelunite_ConfiguredV3&quot;, &quot;val&quot;: 1}}, {&quot;setMapFlag&quot;: {&quot;key&quot;: &quot;FE_Svyelunite_ConfiguredV2&quot;, &quot;val&quot;: 1}}]}]}, {&quot;condition&quot;: [{&quot;getQuestFlag&quot;: {&quot;key&quot;: &quot;FE_Svyelunite_Faction&quot;, &quot;op&quot;: &quot;=&quot;, &quot;val&quot;: 2}}, {&quot;checkMapFlag&quot;: &quot;FE_Svyelunite_ConfiguredV3&quot;, &quot;not&quot;: true}, {&quot;checkMapFlag&quot;: &quot;FE_Svyelunite_ConfiguredV2&quot;, &quot;not&quot;: true}], &quot;text&quot;: &quot;You enter Svyelunite Temple. Your allies recognize you, while the opposing faction prepares for battle.&quot;, &quot;options&quot;: [{&quot;name&quot;: &quot;(Continue)&quot;, &quot;action&quot;: [{&quot;deleteMapObject&quot;: 40003}, {&quot;deleteMapObject&quot;: 40004}, {&quot;deleteMapObject&quot;: 40005}, {&quot;deleteMapObject&quot;: 40021}, {&quot;deleteMapObject&quot;: 40031}, {&quot;deleteMapObject&quot;: 40025}, {&quot;deleteMapObject&quot;: 40033}, {&quot;deleteMapObject&quot;: 40034}, {&quot;deleteMapObject&quot;: 40032}, {&quot;deleteMapObject&quot;: 40026}, {&quot;deleteMapObject&quot;: 40037}, {&quot;deleteMapObject&quot;: 40036}, {&quot;deleteMapObject&quot;: 40035}, {&quot;deleteMapObject&quot;: 40027}, {&quot;deleteMapObject&quot;: 40074}, {&quot;deleteMapObject&quot;: 40030}, {&quot;deleteMapObject&quot;: 40028}, {&quot;deleteMapObject&quot;: 40029}, {&quot;activateMapObject&quot;: 40011}, {&quot;activateMapObject&quot;: 40013}, {&quot;activateMapObject&quot;: 40015}, {&quot;activateMapObject&quot;: 40016}, {&quot;activateMapObject&quot;: 40017}, {&quot;activateMapObject&quot;: 40043}, {&quot;activateMapObject&quot;: 40018}, {&quot;activateMapObject&quot;: 40019}, {&quot;activateMapObject&quot;: 40020}, {&quot;activateMapObject&quot;: 40041}, {&quot;activateMapObject&quot;: 40022}, {&quot;activateMapObject&quot;: 40023}, {&quot;activateMapObject&quot;: 40042}, {&quot;activateMapObject&quot;: 40024}, {&quot;activateMapObject&quot;: 40040}, {&quot;activateMapObject&quot;: 40039}, {&quot;activateMapObject&quot;: 40038}, {&quot;deleteMapObject&quot;: 50011}, {&quot;deleteMapObject&quot;: 50013}, {&quot;deleteMapObject&quot;: 50015}, {&quot;deleteMapObject&quot;: 50016}, {&quot;deleteMapObject&quot;: 50017}, {&quot;deleteMapObject&quot;: 50043}, {&quot;deleteMapObject&quot;: 50018}, {&quot;deleteMapObject&quot;: 50019}, {&quot;deleteMapObject&quot;: 50020}, {&quot;deleteMapObject&quot;: 50041}, {&quot;deleteMapObject&quot;: 50022}, {&quot;deleteMapObject&quot;: 50023}, {&quot;deleteMapObject&quot;: 50042}, {&quot;deleteMapObject&quot;: 50024}, {&quot;deleteMapObject&quot;: 50040}, {&quot;deleteMapObject&quot;: 50039}, {&quot;deleteMapObject&quot;: 50038}, {&quot;deleteMapObject&quot;: 9100}, {&quot;deleteMapObject&quot;: 9110}, {&quot;deleteMapObject&quot;: 9103}, {&quot;deleteMapObject&quot;: 9112}, {&quot;deleteMapObject&quot;: 9104}, {&quot;deleteMapObject&quot;: 9113}, {&quot;setMapFlag&quot;: {&quot;key&quot;: &quot;FE_Svyelunite_OpponentsDefeated&quot;, &quot;val&quot;: 1}}, {&quot;setMapFlag&quot;: {&quot;key&quot;: &quot;FE_Svyelunite_ConfiguredV3&quot;, &quot;val&quot;: 1}}, {&quot;setMapFlag&quot;: {&quot;key&quot;: &quot;FE_Svyelunite_ConfiguredV2&quot;, &quot;val&quot;: 1}}]}]}, {&quot;condition&quot;: [{&quot;getQuestFlag&quot;: {&quot;key&quot;: &quot;FE_Svyelunite_Faction&quot;, &quot;op&quot;: &quot;=&quot;, &quot;val&quot;: 2}}, {&quot;checkMapFlag&quot;: &quot;FE_Svyelunite_ConfiguredV3&quot;}], &quot;action&quot;: [{&quot;activateMapObject&quot;: 40011}, {&quot;activateMapObject&quot;: 40013}, {&quot;activateMapObject&quot;: 40015}, {&quot;activateMapObject&quot;: 40016}, {&quot;activateMapObject&quot;: 40017}, {&quot;activateMapObject&quot;: 40043}, {&quot;activateMapObject&quot;: 40018}, {&quot;activateMapObject&quot;: 40019}, {&quot;activateMapObject&quot;: 40020}, {&quot;activateMapObject&quot;: 40041}, {&quot;activateMapObject&quot;: 40022}, {&quot;activateMapObject&quot;: 40023}, {&quot;activateMapObject&quot;: 40042}, {&quot;activateMapObject&quot;: 40024}, {&quot;activateMapObject&quot;: 40040}, {&quot;activateMapObject&quot;: 40039}, {&quot;activateMapObject&quot;: 40038}]}]" />
    <property name="hidden" value="true" type="bool" />
   </properties>
  </object>
  <object id="9103" template="../../../../../../common/maps/obj/block.tx" x="224" y="672" width="16" height="16">
   <properties>
    <property name="hidden" value="true" type="bool" />
   </properties>
  </object>
  <object id="9104" name="Temple Bridge Barricade" type="dummy" gid="4125" x="224" y="672" width="16" height="16">
   <properties>
    <property name="blocking" value="false" type="bool" />
    <property name="hidden" value="true" type="bool" />
   </properties>
  </object>
  <object id="9110" template="../../../../../../common/maps/obj/quest.tx" x="112" y="600" width="48" height="40">
   <properties>
    <property name="questtype" value="SvyeluniteTempleEntry" />
   </properties>
  </object>
  <object id="19111" template="../../../../../../common/maps/obj/dialog.tx" x="128" y="544" width="16" height="16">
   <properties>
    <property name="dialog" value="[{&quot;condition&quot;: [{&quot;getQuestFlag&quot;: {&quot;key&quot;: &quot;FE_Svyelunite_Faction&quot;, &quot;op&quot;: &quot;=&quot;, &quot;val&quot;: 1}}, {&quot;checkMapFlag&quot;: &quot;FE_Svyelunite_ConfiguredV3&quot;, &quot;not&quot;: true}, {&quot;checkMapFlag&quot;: &quot;FE_Svyelunite_ConfiguredV2&quot;}], &quot;text&quot;: &quot;You return to Svyelunite Temple. Your allies recognize you.&quot;, &quot;options&quot;: [{&quot;name&quot;: &quot;(Continue)&quot;, &quot;action&quot;: [{&quot;deleteMapObject&quot;: 40011}, {&quot;deleteMapObject&quot;: 40013}, {&quot;deleteMapObject&quot;: 40015}, {&quot;deleteMapObject&quot;: 40016}, {&quot;deleteMapObject&quot;: 40017}, {&quot;deleteMapObject&quot;: 40043}, {&quot;deleteMapObject&quot;: 40018}, {&quot;deleteMapObject&quot;: 40019}, {&quot;deleteMapObject&quot;: 40020}, {&quot;deleteMapObject&quot;: 40041}, {&quot;deleteMapObject&quot;: 40022}, {&quot;deleteMapObject&quot;: 40023}, {&quot;deleteMapObject&quot;: 40042}, {&quot;deleteMapObject&quot;: 40024}, {&quot;deleteMapObject&quot;: 40040}, {&quot;deleteMapObject&quot;: 40039}, {&quot;deleteMapObject&quot;: 40038}, {&quot;activateMapObject&quot;: 40003}, {&quot;activateMapObject&quot;: 40004}, {&quot;activateMapObject&quot;: 40005}, {&quot;activateMapObject&quot;: 40021}, {&quot;activateMapObject&quot;: 40031}, {&quot;activateMapObject&quot;: 40025}, {&quot;activateMapObject&quot;: 40033}, {&quot;activateMapObject&quot;: 40034}, {&quot;activateMapObject&quot;: 40032}, {&quot;activateMapObject&quot;: 40026}, {&quot;activateMapObject&quot;: 40037}, {&quot;activateMapObject&quot;: 40036}, {&quot;activateMapObject&quot;: 40035}, {&quot;activateMapObject&quot;: 40027}, {&quot;activateMapObject&quot;: 40074}, {&quot;activateMapObject&quot;: 40030}, {&quot;activateMapObject&quot;: 40028}, {&quot;activateMapObject&quot;: 40029}, {&quot;deleteMapObject&quot;: 50003}, {&quot;deleteMapObject&quot;: 50004}, {&quot;deleteMapObject&quot;: 50005}, {&quot;deleteMapObject&quot;: 50021}, {&quot;deleteMapObject&quot;: 50031}, {&quot;deleteMapObject&quot;: 50025}, {&quot;deleteMapObject&quot;: 50033}, {&quot;deleteMapObject&quot;: 50034}, {&quot;deleteMapObject&quot;: 50032}, {&quot;deleteMapObject&quot;: 50026}, {&quot;deleteMapObject&quot;: 50037}, {&quot;deleteMapObject&quot;: 50036}, {&quot;deleteMapObject&quot;: 50035}, {&quot;deleteMapObject&quot;: 50027}, {&quot;deleteMapObject&quot;: 50074}, {&quot;deleteMapObject&quot;: 50030}, {&quot;deleteMapObject&quot;: 50028}, {&quot;deleteMapObject&quot;: 50029}, {&quot;deleteMapObject&quot;: 9100}, {&quot;deleteMapObject&quot;: 9110}, {&quot;deleteMapObject&quot;: 9103}, {&quot;deleteMapObject&quot;: 9112}, {&quot;deleteMapObject&quot;: 9104}, {&quot;deleteMapObject&quot;: 9113}, {&quot;setMapFlag&quot;: {&quot;key&quot;: &quot;FE_Svyelunite_ConfiguredV3&quot;, &quot;val&quot;: 1}}, {&quot;setMapFlag&quot;: {&quot;key&quot;: &quot;FE_Svyelunite_ConfiguredV2&quot;, &quot;val&quot;: 1}}]}]}, {&quot;condition&quot;: [{&quot;getQuestFlag&quot;: {&quot;key&quot;: &quot;FE_Svyelunite_Faction&quot;, &quot;op&quot;: &quot;=&quot;, &quot;val&quot;: 1}}, {&quot;checkMapFlag&quot;: &quot;FE_Svyelunite_ConfiguredV3&quot;, &quot;not&quot;: true}, {&quot;checkMapFlag&quot;: &quot;FE_Svyelunite_ConfiguredV2&quot;, &quot;not&quot;: true}], &quot;text&quot;: &quot;You enter Svyelunite Temple. Your allies recognize you, while the opposing faction prepares for battle.&quot;, &quot;options&quot;: [{&quot;name&quot;: &quot;(Continue)&quot;, &quot;action&quot;: [{&quot;deleteMapObject&quot;: 40011}, {&quot;deleteMapObject&quot;: 40013}, {&quot;deleteMapObject&quot;: 40015}, {&quot;deleteMapObject&quot;: 40016}, {&quot;deleteMapObject&quot;: 40017}, {&quot;deleteMapObject&quot;: 40043}, {&quot;deleteMapObject&quot;: 40018}, {&quot;deleteMapObject&quot;: 40019}, {&quot;deleteMapObject&quot;: 40020}, {&quot;deleteMapObject&quot;: 40041}, {&quot;deleteMapObject&quot;: 40022}, {&quot;deleteMapObject&quot;: 40023}, {&quot;deleteMapObject&quot;: 40042}, {&quot;deleteMapObject&quot;: 40024}, {&quot;deleteMapObject&quot;: 40040}, {&quot;deleteMapObject&quot;: 40039}, {&quot;deleteMapObject&quot;: 40038}, {&quot;activateMapObject&quot;: 40003}, {&quot;activateMapObject&quot;: 40004}, {&quot;activateMapObject&quot;: 40005}, {&quot;activateMapObject&quot;: 40021}, {&quot;activateMapObject&quot;: 40031}, {&quot;activateMapObject&quot;: 40025}, {&quot;activateMapObject&quot;: 40033}, {&quot;activateMapObject&quot;: 40034}, {&quot;activateMapObject&quot;: 40032}, {&quot;activateMapObject&quot;: 40026}, {&quot;activateMapObject&quot;: 40037}, {&quot;activateMapObject&quot;: 40036}, {&quot;activateMapObject&quot;: 40035}, {&quot;activateMapObject&quot;: 40027}, {&quot;activateMapObject&quot;: 40074}, {&quot;activateMapObject&quot;: 40030}, {&quot;activateMapObject&quot;: 40028}, {&quot;activateMapObject&quot;: 40029}, {&quot;deleteMapObject&quot;: 50003}, {&quot;deleteMapObject&quot;: 50004}, {&quot;deleteMapObject&quot;: 50005}, {&quot;deleteMapObject&quot;: 50021}, {&quot;deleteMapObject&quot;: 50031}, {&quot;deleteMapObject&quot;: 50025}, {&quot;deleteMapObject&quot;: 50033}, {&quot;deleteMapObject&quot;: 50034}, {&quot;deleteMapObject&quot;: 50032}, {&quot;deleteMapObject&quot;: 50026}, {&quot;deleteMapObject&quot;: 50037}, {&quot;deleteMapObject&quot;: 50036}, {&quot;deleteMapObject&quot;: 50035}, {&quot;deleteMapObject&quot;: 50027}, {&quot;deleteMapObject&quot;: 50074}, {&quot;deleteMapObject&quot;: 50030}, {&quot;deleteMapObject&quot;: 50028}, {&quot;deleteMapObject&quot;: 50029}, {&quot;deleteMapObject&quot;: 9100}, {&quot;deleteMapObject&quot;: 9110}, {&quot;deleteMapObject&quot;: 9103}, {&quot;deleteMapObject&quot;: 9112}, {&quot;deleteMapObject&quot;: 9104}, {&quot;deleteMapObject&quot;: 9113}, {&quot;setMapFlag&quot;: {&quot;key&quot;: &quot;FE_Svyelunite_OpponentsDefeated&quot;, &quot;val&quot;: 0}}, {&quot;setMapFlag&quot;: {&quot;key&quot;: &quot;FE_Svyelunite_ConfiguredV3&quot;, &quot;val&quot;: 1}}, {&quot;setMapFlag&quot;: {&quot;key&quot;: &quot;FE_Svyelunite_ConfiguredV2&quot;, &quot;val&quot;: 1}}]}]}, {&quot;condition&quot;: [{&quot;getQuestFlag&quot;: {&quot;key&quot;: &quot;FE_Svyelunite_Faction&quot;, &quot;op&quot;: &quot;=&quot;, &quot;val&quot;: 1}}, {&quot;checkMapFlag&quot;: &quot;FE_Svyelunite_ConfiguredV3&quot;}], &quot;action&quot;: [{&quot;activateMapObject&quot;: 40003}, {&quot;activateMapObject&quot;: 40004}, {&quot;activateMapObject&quot;: 40005}, {&quot;activateMapObject&quot;: 40021}, {&quot;activateMapObject&quot;: 40031}, {&quot;activateMapObject&quot;: 40025}, {&quot;activateMapObject&quot;: 40033}, {&quot;activateMapObject&quot;: 40034}, {&quot;activateMapObject&quot;: 40032}, {&quot;activateMapObject&quot;: 40026}, {&quot;activateMapObject&quot;: 40037}, {&quot;activateMapObject&quot;: 40036}, {&quot;activateMapObject&quot;: 40035}, {&quot;activateMapObject&quot;: 40027}, {&quot;activateMapObject&quot;: 40074}, {&quot;activateMapObject&quot;: 40030}, {&quot;activateMapObject&quot;: 40028}, {&quot;activateMapObject&quot;: 40029}]}, {&quot;condition&quot;: [{&quot;getQuestFlag&quot;: {&quot;key&quot;: &quot;FE_Svyelunite_Faction&quot;, &quot;op&quot;: &quot;=&quot;, &quot;val&quot;: 2}}, {&quot;checkMapFlag&quot;: &quot;FE_Svyelunite_ConfiguredV3&quot;, &quot;not&quot;: true}, {&quot;checkMapFlag&quot;: &quot;FE_Svyelunite_ConfiguredV2&quot;}], &quot;text&quot;: &quot;You return to Svyelunite Temple. Your allies recognize you.&quot;, &quot;options&quot;: [{&quot;name&quot;: &quot;(Continue)&quot;, &quot;action&quot;: [{&quot;deleteMapObject&quot;: 40003}, {&quot;deleteMapObject&quot;: 40004}, {&quot;deleteMapObject&quot;: 40005}, {&quot;deleteMapObject&quot;: 40021}, {&quot;deleteMapObject&quot;: 40031}, {&quot;deleteMapObject&quot;: 40025}, {&quot;deleteMapObject&quot;: 40033}, {&quot;deleteMapObject&quot;: 40034}, {&quot;deleteMapObject&quot;: 40032}, {&quot;deleteMapObject&quot;: 40026}, {&quot;deleteMapObject&quot;: 40037}, {&quot;deleteMapObject&quot;: 40036}, {&quot;deleteMapObject&quot;: 40035}, {&quot;deleteMapObject&quot;: 40027}, {&quot;deleteMapObject&quot;: 40074}, {&quot;deleteMapObject&quot;: 40030}, {&quot;deleteMapObject&quot;: 40028}, {&quot;deleteMapObject&quot;: 40029}, {&quot;activateMapObject&quot;: 40011}, {&quot;activateMapObject&quot;: 40013}, {&quot;activateMapObject&quot;: 40015}, {&quot;activateMapObject&quot;: 40016}, {&quot;activateMapObject&quot;: 40017}, {&quot;activateMapObject&quot;: 40043}, {&quot;activateMapObject&quot;: 40018}, {&quot;activateMapObject&quot;: 40019}, {&quot;activateMapObject&quot;: 40020}, {&quot;activateMapObject&quot;: 40041}, {&quot;activateMapObject&quot;: 40022}, {&quot;activateMapObject&quot;: 40023}, {&quot;activateMapObject&quot;: 40042}, {&quot;activateMapObject&quot;: 40024}, {&quot;activateMapObject&quot;: 40040}, {&quot;activateMapObject&quot;: 40039}, {&quot;activateMapObject&quot;: 40038}, {&quot;deleteMapObject&quot;: 50011}, {&quot;deleteMapObject&quot;: 50013}, {&quot;deleteMapObject&quot;: 50015}, {&quot;deleteMapObject&quot;: 50016}, {&quot;deleteMapObject&quot;: 50017}, {&quot;deleteMapObject&quot;: 50043}, {&quot;deleteMapObject&quot;: 50018}, {&quot;deleteMapObject&quot;: 50019}, {&quot;deleteMapObject&quot;: 50020}, {&quot;deleteMapObject&quot;: 50041}, {&quot;deleteMapObject&quot;: 50022}, {&quot;deleteMapObject&quot;: 50023}, {&quot;deleteMapObject&quot;: 50042}, {&quot;deleteMapObject&quot;: 50024}, {&quot;deleteMapObject&quot;: 50040}, {&quot;deleteMapObject&quot;: 50039}, {&quot;deleteMapObject&quot;: 50038}, {&quot;deleteMapObject&quot;: 9100}, {&quot;deleteMapObject&quot;: 9110}, {&quot;deleteMapObject&quot;: 9103}, {&quot;deleteMapObject&quot;: 9112}, {&quot;deleteMapObject&quot;: 9104}, {&quot;deleteMapObject&quot;: 9113}, {&quot;setMapFlag&quot;: {&quot;key&quot;: &quot;FE_Svyelunite_ConfiguredV3&quot;, &quot;val&quot;: 1}}, {&quot;setMapFlag&quot;: {&quot;key&quot;: &quot;FE_Svyelunite_ConfiguredV2&quot;, &quot;val&quot;: 1}}]}]}, {&quot;condition&quot;: [{&quot;getQuestFlag&quot;: {&quot;key&quot;: &quot;FE_Svyelunite_Faction&quot;, &quot;op&quot;: &quot;=&quot;, &quot;val&quot;: 2}}, {&quot;checkMapFlag&quot;: &quot;FE_Svyelunite_ConfiguredV3&quot;, &quot;not&quot;: true}, {&quot;checkMapFlag&quot;: &quot;FE_Svyelunite_ConfiguredV2&quot;, &quot;not&quot;: true}], &quot;text&quot;: &quot;You enter Svyelunite Temple. Your allies recognize you, while the opposing faction prepares for battle.&quot;, &quot;options&quot;: [{&quot;name&quot;: &quot;(Continue)&quot;, &quot;action&quot;: [{&quot;deleteMapObject&quot;: 40003}, {&quot;deleteMapObject&quot;: 40004}, {&quot;deleteMapObject&quot;: 40005}, {&quot;deleteMapObject&quot;: 40021}, {&quot;deleteMapObject&quot;: 40031}, {&quot;deleteMapObject&quot;: 40025}, {&quot;deleteMapObject&quot;: 40033}, {&quot;deleteMapObject&quot;: 40034}, {&quot;deleteMapObject&quot;: 40032}, {&quot;deleteMapObject&quot;: 40026}, {&quot;deleteMapObject&quot;: 40037}, {&quot;deleteMapObject&quot;: 40036}, {&quot;deleteMapObject&quot;: 40035}, {&quot;deleteMapObject&quot;: 40027}, {&quot;deleteMapObject&quot;: 40074}, {&quot;deleteMapObject&quot;: 40030}, {&quot;deleteMapObject&quot;: 40028}, {&quot;deleteMapObject&quot;: 40029}, {&quot;activateMapObject&quot;: 40011}, {&quot;activateMapObject&quot;: 40013}, {&quot;activateMapObject&quot;: 40015}, {&quot;activateMapObject&quot;: 40016}, {&quot;activateMapObject&quot;: 40017}, {&quot;activateMapObject&quot;: 40043}, {&quot;activateMapObject&quot;: 40018}, {&quot;activateMapObject&quot;: 40019}, {&quot;activateMapObject&quot;: 40020}, {&quot;activateMapObject&quot;: 40041}, {&quot;activateMapObject&quot;: 40022}, {&quot;activateMapObject&quot;: 40023}, {&quot;activateMapObject&quot;: 40042}, {&quot;activateMapObject&quot;: 40024}, {&quot;activateMapObject&quot;: 40040}, {&quot;activateMapObject&quot;: 40039}, {&quot;activateMapObject&quot;: 40038}, {&quot;deleteMapObject&quot;: 50011}, {&quot;deleteMapObject&quot;: 50013}, {&quot;deleteMapObject&quot;: 50015}, {&quot;deleteMapObject&quot;: 50016}, {&quot;deleteMapObject&quot;: 50017}, {&quot;deleteMapObject&quot;: 50043}, {&quot;deleteMapObject&quot;: 50018}, {&quot;deleteMapObject&quot;: 50019}, {&quot;deleteMapObject&quot;: 50020}, {&quot;deleteMapObject&quot;: 50041}, {&quot;deleteMapObject&quot;: 50022}, {&quot;deleteMapObject&quot;: 50023}, {&quot;deleteMapObject&quot;: 50042}, {&quot;deleteMapObject&quot;: 50024}, {&quot;deleteMapObject&quot;: 50040}, {&quot;deleteMapObject&quot;: 50039}, {&quot;deleteMapObject&quot;: 50038}, {&quot;deleteMapObject&quot;: 9100}, {&quot;deleteMapObject&quot;: 9110}, {&quot;deleteMapObject&quot;: 9103}, {&quot;deleteMapObject&quot;: 9112}, {&quot;deleteMapObject&quot;: 9104}, {&quot;deleteMapObject&quot;: 9113}, {&quot;setMapFlag&quot;: {&quot;key&quot;: &quot;FE_Svyelunite_OpponentsDefeated&quot;, &quot;val&quot;: 1}}, {&quot;setMapFlag&quot;: {&quot;key&quot;: &quot;FE_Svyelunite_ConfiguredV3&quot;, &quot;val&quot;: 1}}, {&quot;setMapFlag&quot;: {&quot;key&quot;: &quot;FE_Svyelunite_ConfiguredV2&quot;, &quot;val&quot;: 1}}]}]}, {&quot;condition&quot;: [{&quot;getQuestFlag&quot;: {&quot;key&quot;: &quot;FE_Svyelunite_Faction&quot;, &quot;op&quot;: &quot;=&quot;, &quot;val&quot;: 2}}, {&quot;checkMapFlag&quot;: &quot;FE_Svyelunite_ConfiguredV3&quot;}], &quot;action&quot;: [{&quot;activateMapObject&quot;: 40011}, {&quot;activateMapObject&quot;: 40013}, {&quot;activateMapObject&quot;: 40015}, {&quot;activateMapObject&quot;: 40016}, {&quot;activateMapObject&quot;: 40017}, {&quot;activateMapObject&quot;: 40043}, {&quot;activateMapObject&quot;: 40018}, {&quot;activateMapObject&quot;: 40019}, {&quot;activateMapObject&quot;: 40020}, {&quot;activateMapObject&quot;: 40041}, {&quot;activateMapObject&quot;: 40022}, {&quot;activateMapObject&quot;: 40023}, {&quot;activateMapObject&quot;: 40042}, {&quot;activateMapObject&quot;: 40024}, {&quot;activateMapObject&quot;: 40040}, {&quot;activateMapObject&quot;: 40039}, {&quot;activateMapObject&quot;: 40038}]}]" />
    <property name="hidden" value="true" type="bool" />
   </properties>
  </object>
  <object id="9112" template="../../../../../../common/maps/obj/block.tx" x="128" y="576" width="16" height="16">
   <properties>
    <property name="hidden" value="true" type="bool" />
   </properties>
  </object>
  <object id="9113" name="Temple Upper Approach Barricade" type="dummy" gid="4125" x="128" y="576" width="16" height="16">
   <properties>
    <property name="blocking" value="false" type="bool" />
    <property name="hidden" value="true" type="bool" />
   </properties>
  </object>
  <object id="50075" template="../../../../../../common/maps/obj/waypoint.tx" x="736" y="600.818" />
  <object id="50076" template="../../../../../../common/maps/obj/waypoint.tx" x="816.455" y="536.909" />
  <object id="50082" template="../../../../../../common/maps/obj/waypoint.tx" x="832.545" y="578" />
  <object id="50078" template="../../../../../../common/maps/obj/collision.tx" x="960.5" y="548.932" width="6.86364" height="3.92424" />
  <object id="50079" template="../../../../../../common/maps/obj/collision.tx" x="965.114" y="544.356" width="6.31819" height="4.37879" />
  <object id="50080" template="../../../../../../common/maps/obj/collision.tx" x="960.023" y="552.129" width="4.22728" height="3.92424" />
  <object id="50081" template="../../../../../../common/maps/obj/collision.tx" x="133.455" y="64.9091" width="12.4091" height="7.40909" />
 </objectgroup>
</map>
